;Generated with Cura_SteamEngine DEV

;Layer count: 91
;LAYER:0
M107
G1 F1800 E-0.50000
G0 F12000 X75.672 Y67.458 Z0.480
;TYPE:WALL-OUTER
G1 F1800 E0.00000
G1 F1200 X75.710 Y67.425 E0.00604
G1 X90.334 Y67.415 E1.75606
G1 X90.391 Y67.423 E0.00691
G1 X90.421 Y67.442 E0.00426
G1 X90.446 Y67.479 E0.00536
G1 X90.454 Y74.696 E0.86662
G1 X90.445 Y74.753 E0.00693
G1 X90.428 Y74.781 E0.00393
G1 X90.392 Y74.807 E0.00533
G1 X75.774 Y74.815 E1.75534
G1 X75.707 Y74.803 E0.00817
G1 X75.680 Y74.780 E0.00426
G1 X75.662 Y74.737 E0.00560
G1 X75.654 Y67.532 E0.86518
G1 X75.672 Y67.458 E0.00915
G0 F12000 X76.354 Y67.815
G1 F1200 X76.354 Y74.415 E0.79253
G1 X82.772 Y74.415 E0.77068
G1 X82.699 Y74.237 E0.02310
G1 X82.774 Y74.237 E0.00901
G1 X83.040 Y74.697 E0.06381
G1 X83.315 Y74.256 E0.06241
G1 X83.244 Y74.415 E0.02091
G1 X89.754 Y74.415 E0.78173
G1 X89.754 Y67.815 E0.79253
G1 X83.246 Y67.815 E0.78149
G1 X83.319 Y67.979 E0.02156
G1 X83.038 Y67.532 E0.06340
G1 X82.776 Y67.990 E0.06336
G1 X82.698 Y67.990 E0.00937
G1 X82.770 Y67.815 E0.02272
G1 X76.354 Y67.815 E0.77044
G1 F1800 E-0.50000
G0 F12000 X75.894 Y69.297
;TYPE:FILL
G1 F1800 E10.35819
G1 F1200 X76.113 Y69.516 E0.02479
G1 F1800 E-0.50000
G0 F12000 X75.897 Y71.185
G1 F1800 E10.38298
G1 F1200 X76.113 Y71.401 E0.02445
G1 F1800 E-0.50000
G0 F12000 X75.899 Y73.072
G1 F1800 E10.40744
G1 F1200 X76.113 Y73.286 E0.02423
G1 F1800 E-0.50000
G0 F12000 X89.993 Y73.970
G1 F1800 E10.43166
G1 F1200 X90.213 Y74.190 E0.02491
G0 F12000 X90.053 Y74.190
G0 X90.051 Y72.303
G0 X90.211 Y72.303
G1 F1200 X89.993 Y72.085 E0.02468
G1 F1800 E-0.50000
G0 F12000 X90.208 Y70.415
G1 F1800 E10.48125
G1 F1200 X89.993 Y70.200 E0.02434
G1 F1800 E-0.50000
G0 F12000 X90.206 Y68.527
G1 F1800 E10.50559
G1 F1200 X89.993 Y68.315 E0.02406
G92 E0
G1 F1800 E-14.50000

T1

G0 F12000 X108.579 Y67.566
;TYPE:WALL-OUTER
G1 F1800 E0.00000
G1 F1200 X108.582 Y67.535 E0.00374
G1 X108.599 Y67.497 E0.00500
G1 X108.608 Y67.485 E0.00180
G1 X108.643 Y67.461 E0.00510
G1 X123.265 Y67.452 E1.75582
G1 X123.316 Y67.461 E0.00622
G1 X123.346 Y67.480 E0.00426
G1 X123.371 Y67.517 E0.00536
G1 X123.379 Y74.728 E0.86590
G1 X123.370 Y74.790 E0.00752
G1 X123.353 Y74.818 E0.00393
G1 X123.317 Y74.844 E0.00533
G1 X108.699 Y74.852 E1.75534
G1 X108.642 Y74.843 E0.00693
G1 X108.627 Y74.835 E0.00204
G1 X108.606 Y74.818 E0.00324
G1 X108.588 Y74.790 E0.00400
G1 X108.579 Y67.566 E0.86746
G0 F12000 X109.279 Y67.852
G1 F1200 X109.279 Y74.452 E0.79253
G1 X115.698 Y74.452 E0.77080
G1 X115.625 Y74.275 E0.02299
G1 X115.700 Y74.275 E0.00901
G1 X115.965 Y74.728 E0.06302
G1 X116.239 Y74.295 E0.06153
G1 X116.168 Y74.452 E0.02069
G1 X122.679 Y74.452 E0.78185
G1 X122.679 Y67.852 E0.79253
G1 X116.171 Y67.852 E0.78149
G1 X116.244 Y68.016 E0.02156
G1 X115.963 Y67.569 E0.06340
G1 X115.701 Y68.027 E0.06336
G1 X115.623 Y68.027 E0.00937
G1 X115.695 Y67.852 E0.02272
G1 X109.279 Y67.852 E0.77044
G0 F12000 X108.818 Y68.288
;TYPE:FILL
G1 F1200 X109.038 Y68.508 E0.02491
G1 F1800 E-0.50000
G0 F12000 X108.820 Y70.176
G1 F1800 E10.38119
G1 F1200 X109.038 Y70.393 E0.02462
G1 F1800 E-0.50000
G0 F12000 X108.823 Y72.064
G1 F1800 E10.40582
G1 F1200 X109.038 Y72.279 E0.02434
G1 F1800 E-0.50000
G0 F12000 X108.825 Y73.951
G1 F1800 E10.43016
G1 F1200 X109.038 Y74.164 E0.02411
G1 F1800 E-0.50000
G0 F12000 X122.917 Y72.962
G1 F1800 E10.45427
G1 F1200 X123.136 Y73.181 E0.02479
G0 F12000 X122.977 Y73.181
G0 X122.975 Y71.294
G0 X123.134 Y71.294
G1 F1200 X122.917 Y71.076 E0.02462
G1 F1800 E-0.50000
G0 F12000 X123.132 Y69.406
G1 F1800 E10.50369
G1 F1200 X122.917 Y69.191 E0.02434
;LAYER:1
M106 S127
G0 F12000 X122.979 Y67.752 Z0.680
;TYPE:WALL-INNER
G1 F1500 X123.071 Y67.752 E0.00736
G1 X123.079 Y74.544 E0.54373
G1 X122.979 Y74.544 E0.00801
G1 X122.979 Y67.752 E0.54373
G1 F1800 E-0.50000
G0 F12000 X108.979 Y67.761
G1 F1800 E11.63085
G1 F1500 X108.979 Y74.552 E0.54365
G1 X108.888 Y74.552 E0.00728
G1 X108.879 Y67.761 E0.54365
G1 X108.979 Y67.761 E0.00801
G0 F12000 X109.379 Y67.952
;TYPE:WALL-OUTER
G1 F1500 X109.379 Y74.352 E0.51234
G1 X115.547 Y74.352 E0.49377
G1 X115.330 Y73.822 E0.04585
G1 X115.550 Y73.821 E0.01761
G1 X115.969 Y74.538 E0.06648
G1 X116.421 Y73.816 E0.06819
G1 X116.565 Y73.816 E0.01153
G1 X116.324 Y74.352 E0.04705
G1 X122.579 Y74.352 E0.50074
G1 X122.579 Y67.952 E0.51234
G1 X116.324 Y67.952 E0.50074
G1 X116.562 Y68.485 E0.04673
G1 X116.419 Y68.485 E0.01145
G1 X115.968 Y67.764 E0.06808
G1 X115.555 Y68.479 E0.06610
G1 X115.330 Y68.480 E0.01801
G1 X115.545 Y67.952 E0.04564
G1 X109.379 Y67.952 E0.49361
G0 F12000 X108.479 Y67.574
G1 F1500 X108.501 Y67.466 E0.00882
G1 X108.577 Y67.382 E0.00907
G1 X108.598 Y67.370 E0.00194
G1 X108.629 Y67.361 E0.00258
G1 X123.265 Y67.352 E1.17167
G1 X123.358 Y67.369 E0.00757
G1 X123.382 Y67.382 E0.00219
G1 X123.450 Y67.450 E0.00770
G1 X123.471 Y67.502 E0.00449
G1 X123.479 Y74.742 E0.57959
G1 X123.463 Y74.830 E0.00716
G1 X123.448 Y74.857 E0.00247
G1 X123.382 Y74.923 E0.00747
G1 X123.361 Y74.935 E0.00194
G1 X123.330 Y74.944 E0.00258
G1 X108.689 Y74.952 E1.17207
G1 X108.601 Y74.936 E0.00716
G1 X108.577 Y74.923 E0.00219
G1 X108.511 Y74.857 E0.00747
G1 X108.495 Y74.829 E0.00258
G1 X108.488 Y74.805 E0.00200
G1 X108.479 Y67.574 E0.57887
G0 F12000 X109.590 Y67.752
;TYPE:FILL
G1 F1500 X109.968 Y67.656 E0.02154
G1 X110.534 Y67.655 E0.02175
G1 X111.100 Y67.655 E0.02175
G1 X111.666 Y67.655 E0.02175
G1 X112.232 Y67.655 E0.02175
G1 X112.798 Y67.655 E0.02186
G1 X113.364 Y67.655 E0.02186
G1 X113.929 Y67.654 E0.02194
G1 X114.495 Y67.654 E0.02198
G1 X115.061 Y67.654 E0.02209
G1 X115.442 Y67.556 E0.03149
G0 F12000 X116.378 Y67.752
G1 F1500 X116.759 Y67.653 E0.02230
G1 X117.325 Y67.653 E0.02232
G1 X117.891 Y67.653 E0.02232
G1 X118.457 Y67.653 E0.02232
G1 X119.022 Y67.652 E0.02239
G1 X119.588 Y67.652 E0.02243
G1 X119.971 Y67.553 E0.03167
G0 F12000 X119.971 Y67.654
G0 X122.920 Y67.611
G0 X122.920 Y74.693
G0 X119.760 Y74.652
G0 X119.760 Y74.552
G1 F1500 X119.380 Y74.649 E0.02190
G1 X118.814 Y74.649 E0.02186
G1 X118.248 Y74.649 E0.02198
G1 X117.682 Y74.649 E0.02198
G1 X117.117 Y74.649 E0.02194
G1 X116.551 Y74.650 E0.02209
G1 X115.967 Y74.667 E0.02210
G1 X115.419 Y74.650 E0.01810
G1 X114.853 Y74.650 E0.02209
G1 X114.287 Y74.650 E0.02220
G1 X113.722 Y74.650 E0.02216
G1 X113.156 Y74.650 E0.02232
G1 X112.590 Y74.651 E0.02232
G1 X112.024 Y74.651 E0.02232
G1 X111.458 Y74.651 E0.02232
G1 X110.892 Y74.651 E0.02243
G1 X110.326 Y74.651 E0.02243
G1 X109.761 Y74.651 E0.02239
G1 X109.378 Y74.751 E0.03169
G1 F1800 E-0.50000
G0 F12000 X120.132 Y74.746
G1 F1800 E20.69134
G1 F1500 X120.512 Y74.648 E0.02191
G1 X121.077 Y74.648 E0.02171
G1 X121.643 Y74.648 E0.02175
G1 X122.209 Y74.648 E0.02175
G1 X122.588 Y74.552 E0.03130
G0 F12000 X122.588 Y74.652
G0 X122.920 Y74.693
G0 X122.920 Y67.611
G0 X122.601 Y67.652
G0 X122.601 Y67.752
G1 F1500 X122.506 Y67.563 E0.01998
G1 X121.852 Y67.652 E0.02246
G1 X121.286 Y67.652 E0.02254
G1 X120.720 Y67.652 E0.02254
G1 X120.338 Y67.752 E0.03161
G92 E0
G1 F1800 E-14.50000

T0

G0 F12000 X90.146 Y67.715
;TYPE:WALL-INNER
G1 F1800 E0.00000
G1 F1500 X90.154 Y74.507 E0.54373
G1 X90.054 Y74.507 E0.00801
G1 X90.054 Y67.715 E0.54373
G1 X90.146 Y67.715 E0.00736
G1 F1800 E-0.50000
G0 F12000 X76.054 Y67.723
G1 F1800 E1.10282
G1 F1500 X76.054 Y74.515 E0.54373
G1 X75.962 Y74.515 E0.00736
G1 X75.954 Y67.723 E0.54373
G1 X76.054 Y67.723 E0.00801
G0 F12000 X76.454 Y67.915
;TYPE:WALL-OUTER
G1 F1500 X76.454 Y74.315 E0.51234
G1 X82.622 Y74.315 E0.49377
G1 X82.405 Y73.784 E0.04592
G1 X82.625 Y73.783 E0.01761
G1 X83.044 Y74.502 E0.06662
G1 X83.496 Y73.778 E0.06833
G1 X83.640 Y73.778 E0.01153
G1 X83.399 Y74.315 E0.04712
G1 X89.654 Y74.315 E0.50074
G1 X89.654 Y67.915 E0.51234
G1 X83.399 Y67.915 E0.50074
G1 X83.637 Y68.448 E0.04673
G1 X83.494 Y68.448 E0.01145
G1 X83.043 Y67.727 E0.06808
G1 X82.630 Y68.442 E0.06610
G1 X82.405 Y68.443 E0.01801
G1 X82.621 Y67.915 E0.04567
G1 X76.454 Y67.915 E0.49369
G0 F12000 X75.554 Y67.524
G1 F1500 X75.558 Y67.479 E0.00362
G1 X75.591 Y67.400 E0.00685
G1 X75.613 Y67.374 E0.00273
G1 X75.672 Y67.332 E0.00580
G1 X75.704 Y67.323 E0.00266
G1 X90.344 Y67.315 E1.17199
G1 X90.399 Y67.320 E0.00442
G1 X90.457 Y67.344 E0.00502
G1 X90.536 Y67.431 E0.00941
G1 X90.546 Y67.464 E0.00276
G1 X90.554 Y74.705 E0.57967
G1 X90.538 Y74.793 E0.00716
G1 X90.523 Y74.820 E0.00247
G1 X90.457 Y74.886 E0.00747
G1 X90.436 Y74.898 E0.00194
G1 X90.405 Y74.907 E0.00258
G1 X75.764 Y74.915 E1.17207
G1 X75.675 Y74.899 E0.00724
G1 X75.621 Y74.863 E0.00520
G1 X75.567 Y74.781 E0.00786
G1 X75.554 Y67.524 E0.58095
G0 F12000 X76.252 Y67.713
;TYPE:FILL
G1 F1500 X76.630 Y67.618 E0.02161
G1 X77.196 Y67.618 E0.02175
G1 X77.762 Y67.618 E0.02186
G1 X78.328 Y67.618 E0.02186
G1 X78.893 Y67.617 E0.02194
G1 X79.459 Y67.617 E0.02198
G1 X79.840 Y67.520 E0.03147
G0 F12000 X79.840 Y67.621
G0 X76.113 Y67.574
G0 X76.113 Y74.656
G0 X79.634 Y74.615
G0 X79.634 Y74.514
G1 F1500 X79.251 Y74.613 E0.02248
G1 X78.685 Y74.613 E0.02243
G1 X78.120 Y74.614 E0.02250
G1 X77.554 Y74.614 E0.02254
G1 X76.988 Y74.614 E0.02266
G1 X76.605 Y74.715 E0.03171
G0 F12000 X76.605 Y74.614
G0 X80.002 Y74.712
G1 F1500 X80.383 Y74.613 E0.02237
G1 X80.949 Y74.613 E0.02232
G1 X81.515 Y74.613 E0.02232
G1 X82.081 Y74.612 E0.02232
G1 X82.646 Y74.612 E0.02216
G1 X83.147 Y74.678 E0.00728
G1 X83.778 Y74.612 E0.02209
G1 X84.344 Y74.612 E0.02209
G1 X84.910 Y74.612 E0.02209
G1 X85.476 Y74.612 E0.02209
G1 X86.042 Y74.611 E0.02209
G1 X86.607 Y74.611 E0.02194
G1 X87.174 Y74.611 E0.02201
G1 X87.739 Y74.611 E0.02182
G1 X88.305 Y74.611 E0.02186
G1 X88.871 Y74.610 E0.02186
G1 X89.437 Y74.610 E0.02175
G1 X89.816 Y74.514 E0.03130
G0 F12000 X89.816 Y74.615
G0 X89.995 Y74.656
G0 X89.995 Y67.574
G0 X89.262 Y67.615
G0 X89.262 Y67.715
G1 F1500 X89.180 Y67.514 E0.02272
G1 X88.513 Y67.615 E0.02268
G1 X87.947 Y67.615 E0.02266
G1 X87.381 Y67.615 E0.02254
G1 X86.816 Y67.615 E0.02250
G1 X86.249 Y67.615 E0.02247
G1 X85.684 Y67.615 E0.02239
G1 X85.118 Y67.616 E0.02243
G1 X84.552 Y67.616 E0.02232
G1 X83.986 Y67.616 E0.02232
G1 X83.605 Y67.715 E0.03151
G0 F12000 X82.670 Y67.518
G1 F1500 X82.289 Y67.616 E0.02212
G1 X81.723 Y67.617 E0.02209
G1 X81.157 Y67.617 E0.02209
G1 X80.591 Y67.617 E0.02209
G1 X80.211 Y67.715 E0.03142
;LAYER:2
M106 S255
G0 F12000 X80.211 Y67.615 Z0.880
G0 X76.113 Y67.574
G0 X76.054 Y67.723
;TYPE:WALL-INNER
G1 F1800 X76.054 Y74.515 E0.54373
G1 X75.962 Y74.515 E0.00736
G1 X75.962 Y67.723 E0.54373
G1 X76.054 Y67.723 E0.00736
G1 F1800 E-0.50000
G0 F12000 X90.054 Y67.715
G1 F1800 E11.49937
G1 X90.146 Y67.715 E0.00736
G1 X90.146 Y74.507 E0.54373
G1 X90.054 Y74.507 E0.00736
G1 X90.054 Y67.715 E0.54373
G0 F12000 X89.654 Y67.915
;TYPE:WALL-OUTER
G1 F1800 X83.400 Y67.915 E0.50066
G1 X83.797 Y68.803 E0.07787
G1 X83.715 Y68.803 E0.00656
G1 X83.046 Y67.728 E0.10136
G1 X82.423 Y68.793 E0.09877
G1 X82.263 Y68.793 E0.01281
G1 X82.623 Y67.915 E0.07597
G1 X76.454 Y67.915 E0.49385
G1 X76.454 Y74.315 E0.51234
G1 X82.623 Y74.315 E0.49385
G1 X82.260 Y73.429 E0.07665
G1 X82.419 Y73.429 E0.01273
G1 X83.045 Y74.502 E0.09945
G1 X83.720 Y73.420 E0.10209
G1 X83.801 Y73.420 E0.00648
G1 X83.400 Y74.315 E0.07851
G1 X89.654 Y74.315 E0.50066
G1 X89.654 Y67.915 E0.51234
G0 F12000 X90.344 Y67.315
G1 F1800 X90.386 Y67.319 E0.00338
G1 X90.471 Y67.355 E0.00739
G1 X90.488 Y67.368 E0.00171
G1 X90.546 Y67.462 E0.00884
G1 X90.546 Y74.757 E0.58399
G1 X90.500 Y74.850 E0.00831
G1 X90.405 Y74.907 E0.00887
G1 X75.764 Y74.915 E1.17207
G1 X75.723 Y74.911 E0.00330
G1 X75.636 Y74.874 E0.00757
G1 X75.620 Y74.862 E0.00160
G1 X75.562 Y74.765 E0.00905
G1 X75.562 Y67.473 E0.58375
G1 X75.608 Y67.380 E0.00831
G1 X75.704 Y67.323 E0.00894
G1 X90.344 Y67.315 E1.17199
G0 F12000 X89.494 Y67.715
;TYPE:FILL
G1 F1800 X89.111 Y67.615 E0.02258
G1 X88.545 Y67.615 E0.02254
G1 X87.980 Y67.615 E0.02250
G1 X87.414 Y67.615 E0.02243
G1 X86.848 Y67.615 E0.02243
G1 X86.283 Y67.616 E0.02239
G1 X85.718 Y67.616 E0.02239
G1 X85.152 Y67.616 E0.02220
G1 X84.587 Y67.616 E0.02216
G1 X84.021 Y67.616 E0.02220
G1 X83.640 Y67.518 E0.03149
G0 F12000 X82.705 Y67.714
G1 F1800 X82.324 Y67.617 E0.02195
G1 X81.759 Y67.617 E0.02182
G1 X81.194 Y67.617 E0.02182
G1 X80.628 Y67.617 E0.02186
G1 X80.248 Y67.520 E0.03140
G0 F12000 X80.248 Y67.621
G0 X76.113 Y67.574
G0 X76.113 Y74.656
G0 X80.454 Y74.615
G0 X80.454 Y74.514
G1 F1800 X80.835 Y74.613 E0.02230
G1 X81.401 Y74.613 E0.02232
G1 X81.966 Y74.612 E0.02216
G1 X82.532 Y74.612 E0.02220
G1 X83.090 Y74.604 E0.02033
G1 X83.663 Y74.612 E0.02202
G1 X84.228 Y74.612 E0.02205
G1 X84.794 Y74.611 E0.02198
G1 X85.359 Y74.611 E0.02194
G1 X85.925 Y74.611 E0.02198
G1 X86.491 Y74.611 E0.02186
G1 X87.056 Y74.611 E0.02182
G1 X87.621 Y74.610 E0.02171
G1 X88.187 Y74.610 E0.02175
G1 X88.752 Y74.610 E0.02171
G1 X89.318 Y74.610 E0.02175
G1 X89.697 Y74.707 E0.03132
G1 F1800 E-0.50000
G0 F12000 X80.086 Y74.712
G1 F1800 E20.70893
G1 X79.704 Y74.613 E0.02243
G1 X79.139 Y74.613 E0.02239
G1 X78.573 Y74.613 E0.02232
G1 X78.007 Y74.613 E0.02243
G1 X77.442 Y74.614 E0.02239
G1 X76.877 Y74.614 E0.02250
G1 X76.494 Y74.514 E0.03169
G0 F12000 X76.494 Y74.615
G0 X76.113 Y74.656
G0 X76.113 Y67.574
G0 X76.482 Y67.714
G1 F1800 X76.573 Y67.523 E0.02164
G1 X77.235 Y67.618 E0.02155
G1 X77.800 Y67.618 E0.02160
G1 X78.366 Y67.618 E0.02164
G1 X78.931 Y67.617 E0.02160
G1 X79.497 Y67.617 E0.02175
G1 X79.876 Y67.714 E0.03132
G92 E0
G1 F1800 E-14.50000

T1

G0 F12000 X108.888 Y67.761
;TYPE:WALL-INNER
G1 F1800 E0.00000
G1 X108.979 Y67.761 E0.00728
G1 X108.979 Y74.552 E0.54365
G1 X108.888 Y74.552 E0.00728
G1 X108.888 Y67.761 E0.54365
G1 F1800 E-0.50000
G0 F12000 X122.979 Y67.752
G1 F1800 E1.10186
G1 X123.071 Y67.752 E0.00736
G1 X123.071 Y74.544 E0.54373
G1 X122.979 Y74.544 E0.00736
G1 X122.979 Y67.752 E0.54373
G0 F12000 X122.579 Y67.952
;TYPE:WALL-OUTER
G1 F1800 X116.325 Y67.952 E0.50066
G1 X116.722 Y68.840 E0.07787
G1 X116.641 Y68.840 E0.00648
G1 X115.970 Y67.765 E0.10145
G1 X115.348 Y68.830 E0.09873
G1 X115.188 Y68.830 E0.01281
G1 X115.547 Y67.952 E0.07594
G1 X109.379 Y67.952 E0.49377
G1 X109.379 Y74.352 E0.51234
G1 X115.548 Y74.352 E0.49385
G1 X115.186 Y73.467 E0.07655
G1 X115.344 Y73.467 E0.01265
G1 X115.970 Y74.539 E0.09938
G1 X116.645 Y73.458 E0.10202
G1 X116.725 Y73.458 E0.00640
G1 X116.325 Y74.352 E0.07841
G1 X122.579 Y74.352 E0.50066
G1 X122.579 Y67.952 E0.51234
G0 F12000 X123.265 Y67.352
G1 F1800 X123.311 Y67.357 E0.00370
G1 X123.396 Y67.393 E0.00739
G1 X123.413 Y67.406 E0.00171
G1 X123.471 Y67.500 E0.00884
G1 X123.471 Y74.794 E0.58391
G1 X123.425 Y74.887 E0.00831
G1 X123.330 Y74.944 E0.00887
G1 X108.689 Y74.952 E1.17207
G1 X108.648 Y74.948 E0.00330
G1 X108.563 Y74.912 E0.00739
G1 X108.546 Y74.899 E0.00171
G1 X108.488 Y74.805 E0.00884
G1 X108.488 Y67.511 E0.58391
G1 X108.534 Y67.418 E0.00831
G1 X108.629 Y67.361 E0.00887
G1 X123.265 Y67.352 E1.17167
G0 F12000 X122.778 Y67.624
;TYPE:FILL
G1 F1800 X122.523 Y67.652 E0.00806
G1 X121.958 Y67.652 E0.02250
G1 X121.392 Y67.652 E0.02243
G1 X120.826 Y67.652 E0.02243
G1 X120.261 Y67.653 E0.02239
G1 X119.696 Y67.653 E0.02239
G1 X119.130 Y67.653 E0.02232
G1 X118.564 Y67.653 E0.02232
G1 X117.999 Y67.653 E0.02216
G1 X117.433 Y67.653 E0.02220
G1 X116.868 Y67.654 E0.02216
G1 X116.488 Y67.556 E0.03142
G0 F12000 X115.552 Y67.752
G1 F1800 X115.172 Y67.654 E0.02199
G1 X114.606 Y67.654 E0.02198
G1 X114.041 Y67.655 E0.02182
G1 X113.475 Y67.655 E0.02186
G1 X112.910 Y67.655 E0.02171
G1 X112.344 Y67.655 E0.02175
G1 X111.779 Y67.655 E0.02171
G1 X111.213 Y67.655 E0.02175
G1 X110.648 Y67.656 E0.02160
G1 X110.082 Y67.656 E0.02152
G1 X109.517 Y67.656 E0.02160
G1 X109.178 Y67.600 E0.02751
G0 F12000 X109.038 Y74.693
G0 X109.342 Y74.552
G1 F1800 X109.723 Y74.651 E0.02237
G1 X110.289 Y74.651 E0.02243
G1 X110.855 Y74.651 E0.02232
G1 X111.420 Y74.651 E0.02239
G1 X111.986 Y74.650 E0.02232
G1 X112.551 Y74.650 E0.02216
G1 X113.116 Y74.650 E0.02216
G1 X113.682 Y74.650 E0.02209
G1 X114.248 Y74.650 E0.02209
G1 X114.813 Y74.650 E0.02216
G1 X115.379 Y74.649 E0.02209
G1 X115.964 Y74.669 E0.02202
G1 X116.510 Y74.649 E0.01750
G1 X117.076 Y74.649 E0.02209
G1 X117.641 Y74.649 E0.02194
G1 X118.207 Y74.649 E0.02186
G1 X118.772 Y74.649 E0.02182
