;Generated with Cura_SteamEngine DEV

;Layer count: 50
;LAYER:0
M107
G1 F1800 E-0.50000
G0 F12000 X100.736 Y70.836 Z0.300
;TYPE:WALL-INNER
G1 F1800 E0.00000
G1 F480 X100.811 Y70.756 E0.01975
G1 X100.926 Y70.673 E0.02555
G1 X101.049 Y70.620 E0.02412
G1 X101.243 Y70.586 E0.03548
G1 X101.457 Y70.622 E0.03909
G1 X101.572 Y70.672 E0.02259
G1 X101.682 Y70.751 E0.02439
G1 X101.791 Y70.874 E0.02960
G1 X101.857 Y70.987 E0.02357
G1 X101.898 Y71.111 E0.02352
G1 X101.912 Y71.248 E0.02481
G1 X101.897 Y71.389 E0.02554
G1 X101.855 Y71.513 E0.02358
G1 X101.763 Y71.663 E0.03170
G1 X101.688 Y71.743 E0.01975
G1 X101.573 Y71.826 E0.02555
G1 X101.450 Y71.879 E0.02412
G1 X101.256 Y71.913 E0.03548
G1 X101.042 Y71.877 E0.03909
G1 X100.927 Y71.827 E0.02259
G1 X100.817 Y71.748 E0.02439
G1 X100.708 Y71.625 E0.02960
G1 X100.642 Y71.512 E0.02357
G1 X100.601 Y71.387 E0.02370
G1 X100.587 Y71.250 E0.02481
G1 X100.600 Y71.117 E0.02407
G1 X100.645 Y70.983 E0.02546
G1 X100.736 Y70.836 E0.03114
G0 F12000 X100.255 Y70.475
;TYPE:WALL-OUTER
G1 F480 X100.410 Y70.306 E0.04130
G1 X100.634 Y70.145 E0.04969
G1 X100.874 Y70.041 E0.04711
G1 X101.205 Y69.984 E0.06050
G1 X101.272 Y69.983 E0.01207
G1 X101.632 Y70.044 E0.06577
G1 X101.869 Y70.147 E0.04655
G1 X102.085 Y70.301 E0.04778
G1 X102.281 Y70.524 E0.05348
G1 X102.406 Y70.737 E0.04448
G1 X102.489 Y70.988 E0.04762
G1 X102.515 Y71.249 E0.04724
G1 X102.487 Y71.517 E0.04854
G1 X102.401 Y71.770 E0.04813
G1 X102.244 Y72.024 E0.05379
G1 X102.089 Y72.193 E0.04130
G1 X101.865 Y72.354 E0.04969
G1 X101.625 Y72.458 E0.04711
G1 X101.294 Y72.515 E0.06050
G1 X101.227 Y72.516 E0.01207
G1 X100.867 Y72.455 E0.06577
G1 X100.630 Y72.352 E0.04655
G1 X100.414 Y72.198 E0.04778
G1 X100.218 Y71.975 E0.05348
G1 X100.093 Y71.762 E0.04448
G1 X100.010 Y71.511 E0.04762
G1 X99.984 Y71.250 E0.04724
G1 X100.010 Y70.987 E0.04760
G1 X100.098 Y70.728 E0.04927
G1 X100.255 Y70.475 E0.05363
G0 F12000 X100.726 Y70.857
G1 F1800 E-0.50000
G0 F12000 X101.049 Y78.120
;TYPE:WALL-INNER
G1 F1800 E2.17474
G1 F480 X101.243 Y78.086 E0.03548
G1 X101.457 Y78.122 E0.03909
G1 X101.572 Y78.172 E0.02259
G1 X101.682 Y78.251 E0.02439
G1 X101.791 Y78.374 E0.02960
G1 X101.857 Y78.487 E0.02357
G1 X101.898 Y78.611 E0.02352
G1 X101.912 Y78.748 E0.02481
G1 X101.897 Y78.889 E0.02554
G1 X101.855 Y79.013 E0.02358
G1 X101.764 Y79.160 E0.03114
G1 X101.688 Y79.243 E0.02027
G1 X101.571 Y79.326 E0.02584
G1 X101.449 Y79.379 E0.02396
G1 X101.256 Y79.413 E0.03530
G1 X101.042 Y79.377 E0.03909
G1 X100.932 Y79.328 E0.02169
G1 X100.814 Y79.244 E0.02609
G1 X100.708 Y79.125 E0.02870
G1 X100.642 Y79.012 E0.02357
G1 X100.601 Y78.887 E0.02370
G1 X100.587 Y78.750 E0.02481
G1 X100.600 Y78.617 E0.02407
G1 X100.645 Y78.483 E0.02546
G1 X100.736 Y78.336 E0.03114
G1 X100.811 Y78.256 E0.01975
G1 X100.926 Y78.173 E0.02555
G1 X101.049 Y78.120 E0.02412
G0 F12000 X101.205 Y77.484
;TYPE:WALL-OUTER
G1 F480 X101.272 Y77.483 E0.01207
G1 X101.632 Y77.544 E0.06577
G1 X101.869 Y77.647 E0.04655
G1 X102.085 Y77.801 E0.04778
G1 X102.281 Y78.024 E0.05348
G1 X102.406 Y78.237 E0.04448
G1 X102.489 Y78.488 E0.04762
G1 X102.515 Y78.749 E0.04724
G1 X102.487 Y79.017 E0.04854
G1 X102.401 Y79.270 E0.04813
G1 X102.244 Y79.525 E0.05394
G1 X102.090 Y79.693 E0.04105
G1 X101.866 Y79.852 E0.04948
G1 X101.623 Y79.958 E0.04775
G1 X101.294 Y80.015 E0.06014
G1 X101.227 Y80.016 E0.01207
G1 X100.869 Y79.955 E0.06541
G1 X100.629 Y79.850 E0.04719
G1 X100.412 Y79.696 E0.04793
G1 X100.219 Y79.478 E0.05244
G1 X100.093 Y79.262 E0.04504
G1 X100.010 Y79.011 E0.04762
G1 X99.984 Y78.750 E0.04724
G1 X100.010 Y78.487 E0.04760
G1 X100.098 Y78.228 E0.04927
G1 X100.255 Y77.975 E0.05363
G1 X100.410 Y77.806 E0.04130
G1 X100.634 Y77.645 E0.04969
G1 X100.874 Y77.541 E0.04711
G1 X101.205 Y77.484 E0.06050
G0 F12000 X101.104 Y78.114
G1 F1800 E-0.50000
G0 F12000 X108.087 Y78.750
;TYPE:WALL-INNER
G1 F1800 E4.34922
G1 F480 X108.100 Y78.617 E0.02407
G1 X108.145 Y78.483 E0.02546
G1 X108.236 Y78.336 E0.03114
G1 X108.311 Y78.256 E0.01975
G1 X108.426 Y78.173 E0.02555
G1 X108.549 Y78.120 E0.02412
G1 X108.743 Y78.086 E0.03548
G1 X108.957 Y78.122 E0.03909
G1 X109.072 Y78.172 E0.02259
G1 X109.182 Y78.251 E0.02439
G1 X109.291 Y78.374 E0.02960
G1 X109.357 Y78.487 E0.02357
G1 X109.398 Y78.611 E0.02352
G1 X109.412 Y78.748 E0.02481
G1 X109.397 Y78.889 E0.02554
G1 X109.355 Y79.013 E0.02358
G1 X109.264 Y79.160 E0.03114
G1 X109.188 Y79.243 E0.02027
G1 X109.071 Y79.326 E0.02584
G1 X108.949 Y79.379 E0.02396
G1 X108.756 Y79.413 E0.03530
G1 X108.542 Y79.377 E0.03909
G1 X108.432 Y79.328 E0.02169
G1 X108.314 Y79.244 E0.02609
G1 X108.208 Y79.125 E0.02870
G1 X108.142 Y79.012 E0.02357
G1 X108.101 Y78.887 E0.02370
G1 X108.087 Y78.750 E0.02481
G0 F12000 X107.484 Y78.750
;TYPE:WALL-OUTER
G1 F480 X107.510 Y78.487 E0.04760
G1 X107.598 Y78.228 E0.04927
G1 X107.755 Y77.975 E0.05363
G1 X107.910 Y77.806 E0.04130
G1 X108.134 Y77.645 E0.04969
G1 X108.374 Y77.541 E0.04711
G1 X108.705 Y77.484 E0.06050
G1 X108.772 Y77.483 E0.01207
G1 X109.132 Y77.544 E0.06577
G1 X109.369 Y77.647 E0.04655
G1 X109.585 Y77.801 E0.04778
G1 X109.781 Y78.024 E0.05348
G1 X109.906 Y78.237 E0.04448
G1 X109.989 Y78.488 E0.04762
G1 X110.015 Y78.749 E0.04724
G1 X109.987 Y79.017 E0.04854
G1 X109.901 Y79.270 E0.04813
G1 X109.744 Y79.525 E0.05394
G1 X109.590 Y79.693 E0.04105
G1 X109.366 Y79.852 E0.04948
G1 X109.123 Y79.958 E0.04775
G1 X108.794 Y80.015 E0.06014
G1 X108.727 Y80.016 E0.01207
G1 X108.369 Y79.955 E0.06541
G1 X108.129 Y79.850 E0.04719
G1 X107.912 Y79.696 E0.04793
G1 X107.719 Y79.478 E0.05244
G1 X107.593 Y79.262 E0.04504
G1 X107.510 Y79.011 E0.04762
G1 X107.484 Y78.750 E0.04724
G0 F12000 X108.157 Y78.485
G1 F1800 E-0.50000
G0 F12000 X108.542 Y71.877
;TYPE:WALL-INNER
G1 F1800 E6.52370
G1 F480 X108.427 Y71.827 E0.02259
G1 X108.317 Y71.748 E0.02439
G1 X108.208 Y71.625 E0.02960
G1 X108.142 Y71.512 E0.02357
G1 X108.101 Y71.387 E0.02370
G1 X108.087 Y71.250 E0.02481
G1 X108.100 Y71.117 E0.02407
G1 X108.145 Y70.983 E0.02546
G1 X108.236 Y70.836 E0.03114
G1 X108.311 Y70.756 E0.01975
G1 X108.426 Y70.673 E0.02555
G1 X108.549 Y70.620 E0.02412
G1 X108.743 Y70.586 E0.03548
G1 X108.957 Y70.622 E0.03909
G1 X109.072 Y70.672 E0.02259
G1 X109.182 Y70.751 E0.02439
G1 X109.291 Y70.874 E0.02960
G1 X109.357 Y70.987 E0.02357
G1 X109.398 Y71.111 E0.02352
G1 X109.412 Y71.248 E0.02481
G1 X109.397 Y71.389 E0.02554
G1 X109.355 Y71.513 E0.02358
G1 X109.263 Y71.663 E0.03170
G1 X109.188 Y71.743 E0.01975
G1 X109.073 Y71.826 E0.02555
G1 X108.950 Y71.879 E0.02412
G1 X108.756 Y71.913 E0.03548
G1 X108.542 Y71.877 E0.03909
G0 F12000 X108.794 Y72.515
;TYPE:WALL-OUTER
G1 F480 X108.727 Y72.516 E0.01207
G1 X108.367 Y72.455 E0.06577
G1 X108.130 Y72.352 E0.04655
G1 X107.914 Y72.198 E0.04778
G1 X107.718 Y71.975 E0.05348
G1 X107.593 Y71.762 E0.04448
G1 X107.510 Y71.511 E0.04762
G1 X107.484 Y71.250 E0.04724
G1 X107.510 Y70.987 E0.04760
G1 X107.598 Y70.728 E0.04927
G1 X107.755 Y70.475 E0.05363
G1 X107.910 Y70.306 E0.04130
G1 X108.134 Y70.145 E0.04969
G1 X108.374 Y70.041 E0.04711
G1 X108.705 Y69.984 E0.06050
G1 X108.772 Y69.983 E0.01207
G1 X109.132 Y70.044 E0.06577
G1 X109.369 Y70.147 E0.04655
G1 X109.585 Y70.301 E0.04778
G1 X109.781 Y70.524 E0.05348
G1 X109.906 Y70.737 E0.04448
G1 X109.989 Y70.988 E0.04762
G1 X110.015 Y71.249 E0.04724
G1 X109.987 Y71.517 E0.04854
G1 X109.901 Y71.770 E0.04813
G1 X109.744 Y72.024 E0.05379
G1 X109.589 Y72.193 E0.04130
G1 X109.365 Y72.354 E0.04969
G1 X109.125 Y72.458 E0.04711
G1 X108.794 Y72.515 E0.06050
G0 F12000 X108.891 Y71.884
G92 E0
G1 F1800 E-14.50000

T1

G0 F12000 X109.145 Y73.313
G0 X109.372 Y73.272
G0 X109.452 Y73.461
;TYPE:WALL-INNER
G1 F1800 E0.00000
G1 F480 X109.890 Y73.269 E0.08614
G1 X110.221 Y73.034 E0.07312
G1 X110.221 Y76.966 E0.70824
G1 X109.889 Y76.729 E0.07347
G1 X109.424 Y76.526 E0.09139
G1 X108.886 Y76.435 E0.09828
G1 X108.641 Y76.432 E0.04413
G1 X108.047 Y76.538 E0.10868
G1 X107.609 Y76.730 E0.08614
G1 X107.209 Y77.014 E0.08836
G1 X106.883 Y77.371 E0.08708
G1 X106.630 Y77.801 E0.08986
G1 X106.480 Y78.263 E0.08749
G1 X106.429 Y78.750 E0.08820
G1 X106.478 Y79.229 E0.08673
G1 X106.630 Y79.697 E0.08863
G1 X106.883 Y80.127 E0.08986
G1 X106.970 Y80.222 E0.02320
G1 X103.030 Y80.222 E0.70968
G1 X103.116 Y80.128 E0.02295
G1 X103.369 Y79.698 E0.08986
G1 X103.521 Y79.233 E0.08812
G1 X103.570 Y78.748 E0.08780
G1 X103.518 Y78.256 E0.08911
G1 X103.369 Y77.800 E0.08641
G1 X103.116 Y77.371 E0.08971
G1 X102.793 Y77.017 E0.08632
G1 X102.389 Y76.729 E0.08937
G1 X101.924 Y76.526 E0.09139
G1 X101.386 Y76.435 E0.09828
G1 X101.141 Y76.432 E0.04413
G1 X100.547 Y76.538 E0.10868
G1 X100.109 Y76.730 E0.08614
G1 X99.778 Y76.965 E0.07312
G1 X99.778 Y73.033 E0.70824
G1 X100.110 Y73.270 E0.07347
G1 X100.575 Y73.473 E0.09139
G1 X101.113 Y73.564 E0.09828
G1 X101.358 Y73.567 E0.04413
G1 X101.952 Y73.461 E0.10868
G1 X102.390 Y73.269 E0.08614
G1 X102.790 Y72.985 E0.08836
G1 X103.116 Y72.628 E0.08708
G1 X103.369 Y72.198 E0.08986
G1 X103.521 Y71.733 E0.08812
G1 X103.570 Y71.248 E0.08780
G1 X103.518 Y70.756 E0.08911
G1 X103.369 Y70.300 E0.08641
G1 X103.116 Y69.871 E0.08971
G1 X103.031 Y69.778 E0.02269
G1 X106.966 Y69.780 E0.70878
G1 X106.883 Y69.871 E0.02218
G1 X106.630 Y70.301 E0.08986
G1 X106.480 Y70.763 E0.08749
G1 X106.429 Y71.250 E0.08820
G1 X106.478 Y71.729 E0.08673
G1 X106.630 Y72.197 E0.08863
G1 X106.883 Y72.627 E0.08986
G1 X107.206 Y72.982 E0.08645
G1 X107.610 Y73.270 E0.08937
G1 X108.075 Y73.473 E0.09139
G1 X108.613 Y73.564 E0.09828
G1 X108.858 Y73.567 E0.04413
G1 X109.452 Y73.461 E0.10868
G0 F12000 X109.277 Y72.883
;TYPE:WALL-OUTER
G1 F480 X109.593 Y72.744 E0.06218
G1 X109.890 Y72.533 E0.06562
G1 X110.131 Y72.269 E0.06439
G1 X110.319 Y71.950 E0.06669
G1 X110.430 Y71.608 E0.06476
G1 X110.467 Y71.249 E0.06501
G1 X110.428 Y70.882 E0.06648
G1 X110.319 Y70.549 E0.06311
G1 X110.131 Y70.230 E0.06669
G1 X109.892 Y69.968 E0.06388
G1 X109.592 Y69.754 E0.06638
G1 X109.251 Y69.605 E0.06703
G1 X108.832 Y69.534 E0.07655
G1 X108.690 Y69.533 E0.02558
G1 X108.222 Y69.616 E0.08561
G1 X107.906 Y69.755 E0.06218
G1 X107.609 Y69.966 E0.06562
G1 X107.368 Y70.230 E0.06439
G1 X107.180 Y70.549 E0.06669
G1 X107.070 Y70.888 E0.06420
G1 X107.032 Y71.250 E0.06556
G1 X107.069 Y71.604 E0.06411
G1 X107.181 Y71.950 E0.06551
G1 X107.368 Y72.269 E0.06660
G1 X107.607 Y72.531 E0.06388
G1 X107.907 Y72.745 E0.06638
G1 X108.248 Y72.894 E0.06703
G1 X108.667 Y72.965 E0.07655
G1 X108.809 Y72.966 E0.02558
G1 X109.277 Y72.883 E0.08561
G1 F1800 E-0.50000
G0 F12000 X110.778 Y69.451
G1 F1800 E9.69944
G1 F480 X110.810 Y69.547 E0.01823
G1 X110.821 Y80.343 E1.94459
G1 X110.810 Y80.451 E0.01955
G1 X110.778 Y80.546 E0.01806
G1 X110.732 Y80.628 E0.01694
G1 X110.666 Y80.700 E0.01759
G1 X110.587 Y80.758 E0.01765
G1 X110.500 Y80.797 E0.01717
G1 X110.393 Y80.819 E0.01968
G1 X99.645 Y80.822 E1.93594
G1 X99.606 Y80.819 E0.00705
G1 X99.499 Y80.797 E0.01968
G1 X99.412 Y80.758 E0.01717
G1 X99.333 Y80.700 E0.01765
G1 X99.267 Y80.628 E0.01759
G1 X99.221 Y80.546 E0.01694
G1 X99.189 Y80.451 E0.01806
G1 X99.178 Y69.656 E1.94441
G1 X99.190 Y69.547 E0.01975
G1 X99.221 Y69.451 E0.01817
G1 X99.266 Y69.373 E0.01622
G1 X99.333 Y69.299 E0.01798
G1 X99.412 Y69.241 E0.01765
G1 X99.499 Y69.202 E0.01717
G1 X99.606 Y69.180 E0.01968
G1 X99.645 Y69.177 E0.00705
G1 X110.403 Y69.181 E1.93774
G1 X110.501 Y69.203 E0.01809
G1 X110.587 Y69.241 E0.01694
G1 X110.666 Y69.299 E0.01765
G1 X110.733 Y69.373 E0.01798
G1 X110.778 Y69.451 E0.01622
G1 F1800 E-0.50000
G0 F12000 X109.251 Y77.105
G1 F1800 E17.94167
G1 F480 X108.832 Y77.034 E0.07655
G1 X108.690 Y77.033 E0.02558
G1 X108.222 Y77.116 E0.08561
G1 X107.906 Y77.255 E0.06218
G1 X107.609 Y77.466 E0.06562
G1 X107.368 Y77.730 E0.06439
G1 X107.180 Y78.049 E0.06669
G1 X107.070 Y78.388 E0.06420
G1 X107.032 Y78.750 E0.06556
G1 X107.069 Y79.104 E0.06411
G1 X107.181 Y79.450 E0.06551
G1 X107.368 Y79.769 E0.06660
G1 X107.609 Y80.033 E0.06439
G1 X107.905 Y80.243 E0.06537
G1 X108.247 Y80.394 E0.06734
G1 X108.667 Y80.465 E0.07672
G1 X108.809 Y80.466 E0.02558
G1 X109.277 Y80.383 E0.08561
G1 X109.594 Y80.243 E0.06242
G1 X109.890 Y80.033 E0.06537
G1 X110.131 Y79.769 E0.06439
G1 X110.319 Y79.450 E0.06669
G1 X110.430 Y79.108 E0.06476
G1 X110.467 Y78.749 E0.06501
G1 X110.428 Y78.382 E0.06648
G1 X110.319 Y78.049 E0.06311
G1 X110.131 Y77.730 E0.06669
G1 X109.892 Y77.468 E0.06388
G1 X109.592 Y77.254 E0.06638
G1 X109.251 Y77.105 E0.06703
G0 F12000 X109.410 Y76.740
G0 X108.076 Y76.636
G0 X103.309 Y78.259
G0 X102.928 Y78.382
G1 F480 X102.819 Y78.049 E0.06311
G1 X102.631 Y77.730 E0.06669
G1 X102.392 Y77.468 E0.06388
G1 X102.092 Y77.254 E0.06638
G1 X101.751 Y77.105 E0.06703
G1 X101.332 Y77.034 E0.07655
G1 X101.190 Y77.033 E0.02558
G1 X100.722 Y77.116 E0.08561
G1 X100.406 Y77.255 E0.06218
G1 X100.109 Y77.466 E0.06562
G1 X99.868 Y77.730 E0.06439
G1 X99.680 Y78.049 E0.06669
G1 X99.570 Y78.388 E0.06420
G1 X99.532 Y78.750 E0.06556
G1 X99.569 Y79.104 E0.06411
G1 X99.681 Y79.450 E0.06551
G1 X99.868 Y79.769 E0.06660
G1 X100.109 Y80.033 E0.06439
G1 X100.405 Y80.243 E0.06537
G1 X100.747 Y80.394 E0.06734
G1 X101.167 Y80.465 E0.07672
G1 X101.309 Y80.466 E0.02558
G1 X101.777 Y80.383 E0.08561
G1 X102.094 Y80.243 E0.06242
G1 X102.390 Y80.033 E0.06537
G1 X102.631 Y79.769 E0.06439
G1 X102.819 Y79.450 E0.06669
G1 X102.930 Y79.108 E0.06476
G1 X102.967 Y78.749 E0.06501
G1 X102.928 Y78.382 E0.06648
G0 F12000 X103.309 Y78.259
G0 X101.937 Y73.249
G0 X101.777 Y72.883
G1 F480 X102.093 Y72.744 E0.06218
G1 X102.390 Y72.533 E0.06562
G1 X102.631 Y72.269 E0.06439
G1 X102.819 Y71.950 E0.06669
G1 X102.930 Y71.608 E0.06476
G1 X102.967 Y71.249 E0.06501
G1 X102.928 Y70.882 E0.06648
G1 X102.819 Y70.549 E0.06311
G1 X102.631 Y70.230 E0.06669
G1 X102.392 Y69.968 E0.06388
G1 X102.092 Y69.754 E0.06638
G1 X101.751 Y69.605 E0.06703
G1 X101.332 Y69.534 E0.07655
G1 X101.190 Y69.533 E0.02558
G1 X100.722 Y69.616 E0.08561
G1 X100.406 Y69.755 E0.06218
G1 X100.109 Y69.966 E0.06562
G1 X99.868 Y70.230 E0.06439
G1 X99.680 Y70.549 E0.06669
G1 X99.570 Y70.888 E0.06420
G1 X99.532 Y71.250 E0.06556
G1 X99.569 Y71.604 E0.06411
G1 X99.681 Y71.950 E0.06551
G1 X99.868 Y72.269 E0.06660
G1 X100.107 Y72.531 E0.06388
G1 X100.407 Y72.745 E0.06638
G1 X100.748 Y72.894 E0.06703
G1 X101.167 Y72.965 E0.07655
G1 X101.309 Y72.966 E0.02558
G1 X101.777 Y72.883 E0.08561
G0 F12000 X102.088 Y73.662
;TYPE:FILL
G1 F480 X106.340 Y77.914 E1.44415
G0 F12000 X106.618 Y77.344
G1 F480 X102.651 Y73.377 E1.34735
G0 F12000 X103.111 Y72.988
G1 F480 X107.003 Y76.880 E1.32188
G0 F12000 X107.490 Y76.519
G1 F480 X103.469 Y72.498 E1.36569
G0 F12000 X103.718 Y71.898
G1 F480 X108.103 Y76.283 E1.48932
G0 F12000 X108.862 Y76.194
G1 F480 X103.797 Y71.129 E1.72027
G0 F12000 X103.544 Y70.027
G1 F480 X109.980 Y76.463 E2.18592
G0 F12000 X109.980 Y75.615
G1 F480 X108.083 Y73.718 E0.64430
G0 F12000 X108.999 Y73.785
G1 F480 X109.980 Y74.342 E0.33290
G1 X109.683 Y73.621 E0.18727
G0 F12000 X109.506 Y73.219
G0 X108.106 Y73.374
G0 X106.723 Y72.154
G0 X106.708 Y71.786
G0 X106.288 Y71.923
G1 F480 X104.384 Y70.019 E0.64667
G0 F12000 X105.233 Y70.019
G1 F480 X106.293 Y70.655 E0.33250
G1 X106.082 Y70.020 E0.16070
G0 F12000 X106.082 Y69.579
G0 X102.340 Y73.181
G0 X101.360 Y73.364
G0 X101.383 Y73.806
G1 F480 X106.200 Y78.623 E1.63604
G0 F12000 X106.353 Y79.625
G1 F480 X100.378 Y73.649 E2.02952
G0 F12000 X100.017 Y74.137
G1 F480 X102.315 Y76.435 E0.78049
G0 F12000 X101.224 Y76.192
G1 F480 X100.017 Y74.985 E0.40994
G0 F12000 X100.017 Y75.834
G1 F480 X100.487 Y76.304 E0.15963
G0 F12000 X100.627 Y76.727
G0 X101.893 Y76.625
G0 X103.033 Y77.433
G0 X103.193 Y77.903
G0 X103.591 Y77.711
G1 F480 X105.861 Y79.981 E0.77098
G0 F12000 X105.013 Y79.981
G1 F480 X103.806 Y78.774 E0.40994
G0 F12000 X103.684 Y79.501
G1 F480 X104.164 Y79.981 E0.16303
;LAYER:1
M106 S94
G0 F12000 X103.562 Y79.849 Z0.600
;TYPE:WALL-INNER
G1 F900 X103.749 Y79.311 E0.13679
G1 X103.810 Y78.751 E0.13529
G1 X103.749 Y78.186 E0.13648
G1 X103.561 Y77.649 E0.13664
G1 X103.258 Y77.165 E0.13714
G1 X102.852 Y76.752 E0.13909
G1 X102.302 Y76.409 E0.15567
G1 X101.638 Y76.222 E0.16567
G1 X101.219 Y76.188 E0.10096
G1 X100.673 Y76.263 E0.13236
