;Generated with Cura_SteamEngine DEV

;Layer count: 71
;LAYER:0
M107
G1 F1800 E-0.50000
G0 F12000 X63.440 Y93.714 Z0.480
;TYPE:WALL-INNER
G1 F1800 E0.00000
G1 F1200 X63.569 Y94.143 E0.05379
G1 X63.398 Y94.154 E0.02058
G1 X63.353 Y93.880 E0.03334
G1 X63.309 Y93.825 E0.00846
G1 X63.440 Y93.714 E0.02062
G0 F12000 X63.120 Y93.197
;TYPE:WALL-OUTER
G1 F1200 X62.564 Y91.751 E0.18603
G1 X61.057 Y88.531 E0.42691
G1 X60.380 Y86.590 E0.24685
G1 X60.346 Y86.419 E0.02094
G1 X61.247 Y86.240 E0.11031
G1 X61.294 Y86.448 E0.02561
G1 X61.805 Y88.194 E0.21846
G1 X63.383 Y91.447 E0.43416
G1 X64.668 Y95.705 E0.53408
G1 X64.966 Y100.514 E0.57858
G1 X64.182 Y105.050 E0.55276
G1 X62.818 Y108.259 E0.41870
G1 X59.848 Y108.259 E0.35664
G1 X59.841 Y105.768 E0.29912
G1 X59.445 Y101.312 E0.53719
G1 X58.029 Y96.863 E0.56065
G1 X56.305 Y93.420 E0.46237
G1 X53.171 Y88.288 E0.72208
G1 X53.114 Y88.136 E0.01949
G1 X53.941 Y87.901 E0.10324
G1 X54.048 Y88.190 E0.03701
G1 X58.559 Y95.902 E1.07285
G1 X58.838 Y96.573 E0.08726
G1 X60.227 Y100.999 E0.55703
G1 X60.813 Y105.694 E0.56815
G1 X60.803 Y107.359 E0.19994
G1 X62.303 Y107.359 E0.18012
G1 X63.347 Y104.856 E0.32566
G1 X64.283 Y100.482 E0.53712
G1 X64.081 Y96.213 E0.51320
G1 X63.624 Y94.740 E0.18520
G1 X63.140 Y94.772 E0.05825
G1 X62.924 Y95.639 E0.10729
G1 X62.485 Y96.342 E0.09952
G1 X61.790 Y96.777 E0.09846
G1 X61.003 Y96.951 E0.09679
G1 X60.216 Y96.777 E0.09679
G1 X59.521 Y96.342 E0.09846
G1 X59.083 Y95.642 E0.09916
G1 X58.911 Y94.859 E0.09626
G1 X59.089 Y94.057 E0.09865
G1 X59.253 Y93.729 E0.04404
G1 X59.510 Y93.383 E0.05176
G1 X60.216 Y92.941 E0.10002
G1 X61.003 Y92.766 E0.09681
G1 X61.798 Y92.944 E0.09783
G1 X62.780 Y93.489 E0.13486
G1 X63.120 Y93.197 E0.05382
G0 F12000 X62.316 Y93.546
G1 F1200 X61.729 Y93.076 E0.09030
G1 X61.003 Y92.956 E0.08836
G1 X60.277 Y93.076 E0.08836
G1 X59.690 Y93.546 E0.09030
G1 X59.220 Y94.133 E0.09030
G1 X59.099 Y94.859 E0.08838
G1 X59.220 Y95.585 E0.08838
G1 X59.690 Y96.172 E0.09030
G1 X60.277 Y96.642 E0.09030
G1 X61.003 Y96.763 E0.08838
G1 X61.729 Y96.642 E0.08838
G1 X62.316 Y96.172 E0.09030
G1 X62.786 Y95.585 E0.09030
G1 X62.906 Y94.859 E0.08836
G1 X62.786 Y94.133 E0.08836
G1 X62.316 Y93.546 E0.09030
G0 F12000 X63.141 Y92.415
;TYPE:FILL
G1 F1200 X63.457 Y92.731 E0.03578
G0 F12000 X63.077 Y91.503
G1 F1200 X62.516 Y90.942 E0.06351
G0 F12000 X62.277 Y89.854
G1 F1200 X61.769 Y89.346 E0.05751
G0 F12000 X61.504 Y88.232
G1 F1200 X61.145 Y87.874 E0.04059
G0 F12000 X61.152 Y87.032
G1 F1200 X60.760 Y86.641 E0.04432
G1 F1800 E-0.50000
G0 F12000 X56.773 Y93.684
G1 F1800 E14.41429
G1 F1200 X57.113 Y94.023 E0.03844
G0 F12000 X57.623 Y95.383
G1 F1200 X58.302 Y96.061 E0.07682
G0 F12000 X58.385 Y96.993
G1 F1200 X58.781 Y97.389 E0.04483
G0 F12000 X58.781 Y98.238
G1 F1200 X59.169 Y98.625 E0.04387
G0 F12000 X59.177 Y99.482
G1 F1200 X59.556 Y99.861 E0.04291
G0 F12000 X59.573 Y100.726
G1 F1200 X59.862 Y101.440 E0.04116
G1 X59.964 Y102.390 E0.03060
G1 X60.066 Y103.341 E0.03484
G1 X60.167 Y104.291 E0.03900
G1 X60.270 Y105.242 E0.04346
G1 X60.327 Y106.147 E0.04428
G1 X60.325 Y106.994 E0.04119
G1 X60.533 Y107.626 E0.04048
G1 X61.138 Y107.808 E0.03389
G1 X61.987 Y107.808 E0.03381
G1 X62.708 Y107.680 E0.03385
G1 X62.895 Y107.018 E0.01969
G1 X63.146 Y106.421 E0.02009
G1 X63.397 Y105.824 E0.02048
G1 X63.649 Y105.227 E0.02075
G1 X63.833 Y104.562 E0.02334
G1 X63.970 Y103.851 E0.02188
G1 X64.107 Y103.139 E0.01901
G1 X64.244 Y102.428 E0.01623
G1 X64.259 Y102.019 E0.03276
G92 E0
G1 F1800 E-14.50000

T1

G0 F12000 X111.263 Y83.914
;TYPE:WALL-INNER
G1 F1800 E0.00000
G1 F1200 X111.219 Y83.859 E0.00846
G1 X111.350 Y83.748 E0.02062
G1 X111.479 Y84.177 E0.05379
G1 X111.308 Y84.188 E0.02058
G1 X111.263 Y83.914 E0.03334
G0 F12000 X110.696 Y84.167
;TYPE:WALL-OUTER
G1 F1200 X110.226 Y83.580 E0.09030
G1 X109.639 Y83.110 E0.09030
G1 X108.913 Y82.990 E0.08836
G1 X108.187 Y83.110 E0.08836
G1 X107.600 Y83.580 E0.09030
G1 X107.130 Y84.167 E0.09030
G1 X107.009 Y84.893 E0.08838
G1 X107.130 Y85.619 E0.08838
G1 X107.600 Y86.206 E0.09030
G1 X108.187 Y86.676 E0.09030
G1 X108.913 Y86.797 E0.08838
G1 X109.639 Y86.676 E0.08838
G1 X110.226 Y86.206 E0.09030
G1 X110.696 Y85.619 E0.09030
G1 X110.816 Y84.893 E0.08836
G1 X110.696 Y84.167 E0.08836
G0 F12000 X110.690 Y83.523
G1 F1200 X111.030 Y83.231 E0.05382
G1 X110.474 Y81.785 E0.18603
G1 X108.967 Y78.565 E0.42691
G1 X108.290 Y76.624 E0.24685
G1 X108.256 Y76.453 E0.02094
G1 X109.157 Y76.274 E0.11031
G1 X109.204 Y76.482 E0.02561
G1 X109.715 Y78.228 E0.21846
G1 X111.293 Y81.481 E0.43416
G1 X112.578 Y85.739 E0.53408
G1 X112.876 Y90.548 E0.57858
G1 X112.092 Y95.084 E0.55276
G1 X110.728 Y98.293 E0.41870
G1 X107.758 Y98.293 E0.35664
G1 X107.751 Y95.802 E0.29912
G1 X107.355 Y91.346 E0.53719
G1 X105.939 Y86.897 E0.56065
G1 X104.215 Y83.454 E0.46237
G1 X101.081 Y78.322 E0.72208
G1 X101.024 Y78.170 E0.01949
G1 X101.851 Y77.935 E0.10324
G1 X101.958 Y78.224 E0.03701
G1 X106.469 Y85.936 E1.07285
G1 X106.748 Y86.607 E0.08726
G1 X108.137 Y91.033 E0.55703
G1 X108.723 Y95.728 E0.56815
G1 X108.713 Y97.393 E0.19994
G1 X110.213 Y97.393 E0.18012
G1 X111.257 Y94.890 E0.32566
G1 X112.193 Y90.516 E0.53712
G1 X111.991 Y86.247 E0.51320
G1 X111.534 Y84.774 E0.18520
G1 X111.050 Y84.806 E0.05825
G1 X110.834 Y85.673 E0.10729
G1 X110.395 Y86.376 E0.09952
G1 X109.700 Y86.811 E0.09846
G1 X108.913 Y86.985 E0.09679
G1 X108.126 Y86.811 E0.09679
G1 X107.431 Y86.376 E0.09846
G1 X106.993 Y85.676 E0.09916
G1 X106.821 Y84.893 E0.09626
G1 X106.999 Y84.091 E0.09865
G1 X107.163 Y83.763 E0.04404
G1 X107.420 Y83.417 E0.05176
G1 X108.126 Y82.975 E0.10002
G1 X108.913 Y82.800 E0.09681
G1 X109.708 Y82.978 E0.09783
G1 X110.690 Y83.523 E0.13486
G0 F12000 X111.442 Y83.016
;TYPE:FILL
G1 F1200 X111.160 Y82.734 E0.03193
G0 F12000 X111.075 Y81.801
G1 F1200 X110.580 Y81.306 E0.05604
G0 F12000 X110.351 Y80.229
G1 F1200 X109.833 Y79.710 E0.05870
G0 F12000 X109.552 Y78.580
G1 F1200 X109.148 Y78.177 E0.04568
G0 F12000 X109.134 Y77.315
G1 F1200 X108.695 Y76.875 E0.04976
G1 F1800 E-0.50000
G0 F12000 X104.856 Y84.067
G1 F1800 E14.41468
G1 F1200 X105.267 Y84.478 E0.04653
G0 F12000 X105.708 Y85.767
G1 F1200 X106.336 Y86.395 E0.07110
G0 F12000 X106.377 Y87.285
G1 F1200 X106.770 Y87.678 E0.04449
G0 F12000 X106.773 Y88.529
G1 F1200 X107.157 Y88.914 E0.04353
G0 F12000 X107.168 Y89.773
G1 F1200 X107.545 Y90.151 E0.04274
G0 F12000 X107.563 Y91.017
G1 F1200 X107.792 Y91.670 E0.03476
G1 X107.894 Y92.620 E0.03136
G1 X107.996 Y93.571 E0.03560
G1 X108.098 Y94.521 E0.03997
G1 X108.199 Y95.472 E0.04421
G1 X108.235 Y96.356 E0.04214
G1 X108.234 Y97.203 E0.04085
G1 X108.873 Y97.842 E0.06167
G1 X109.722 Y97.842 E0.03381
G1 X110.504 Y97.776 E0.03377
G1 X110.752 Y97.176 E0.01962
G1 X111.004 Y96.579 E0.01997
G1 X111.255 Y95.981 E0.02038
G1 X111.506 Y95.384 E0.02074
G1 X111.713 Y94.743 E0.02103
G1 X111.851 Y94.032 E0.02247
G1 X111.988 Y93.320 E0.01973
G1 X112.125 Y92.609 E0.01695
G1 X112.138 Y92.198 E0.03292
;LAYER:1
M106 S127
G0 F12000 X112.405 Y90.863 Z0.680
;TYPE:WALL-INNER
G1 F1500 X112.450 Y90.499 E0.02936
G1 X112.296 Y87.234 E0.26167
G1 X112.502 Y90.506 E0.26245
G1 X112.481 Y90.684 E0.01435
G1 X111.745 Y94.918 E0.34403
G1 X111.693 Y95.088 E0.01423
G1 X110.356 Y98.193 E0.27063
G1 X108.131 Y98.193 E0.17812
G1 X108.148 Y95.829 E0.18925
G1 X107.743 Y91.314 E0.36289
G1 X106.311 Y86.815 E0.37797
G1 X104.565 Y83.332 E0.31190
G1 X104.431 Y83.149 E0.01816
G1 X101.435 Y78.222 E0.46162
G1 X101.344 Y78.108 E0.01168
G1 X101.050 Y77.323 E0.06710
G1 X101.305 Y77.252 E0.02119
G1 X101.632 Y78.167 E0.07779
G1 X101.727 Y78.373 E0.01816
G1 X104.646 Y83.239 E0.45426
G1 X104.742 Y83.366 E0.01274
G1 X106.155 Y85.924 E0.23394
G1 X106.497 Y86.726 E0.06980
G1 X107.881 Y91.068 E0.36482
G1 X108.446 Y95.592 E0.36498
G1 X108.413 Y95.944 E0.02830
G1 X108.413 Y97.693 E0.14001
G1 X110.413 Y97.693 E0.16011
G1 X111.447 Y95.212 E0.21517
G1 X111.783 Y93.959 E0.10385
G1 X111.742 Y93.959 E0.00328
G1 X112.405 Y90.863 E0.25347
G0 F12000 X112.203 Y85.772
G1 F1500 X112.226 Y86.139 E0.02944
G1 X111.740 Y84.574 E0.13119
G1 X111.067 Y84.574 E0.05388
G1 X110.979 Y84.041 E0.04325
G1 X110.771 Y83.780 E0.02672
G1 X111.338 Y83.295 E0.05973
G1 X110.723 Y81.690 E0.13760
G1 X109.199 Y78.427 E0.28830
G1 X108.553 Y76.578 E0.15679
G1 X108.389 Y75.738 E0.06851
G1 X108.673 Y75.682 E0.02317
G1 X108.878 Y76.583 E0.07397
G1 X109.403 Y78.393 E0.15087
G1 X110.939 Y81.559 E0.28170
G1 X110.974 Y81.707 E0.01217
G1 X112.203 Y85.772 E0.33997
G0 F12000 X112.599 Y85.699
;TYPE:WALL-OUTER
G1 F1500 X112.904 Y90.518 E0.38655
G1 X112.134 Y95.015 E0.36524
G1 X112.072 Y95.218 E0.01699
G1 X110.619 Y98.593 E0.29416
G1 X107.729 Y98.593 E0.23136
G1 X107.748 Y95.846 E0.21991
G1 X107.348 Y91.393 E0.35791
G1 X105.940 Y86.966 E0.37189
G1 X104.222 Y83.541 E0.30674
G1 X104.100 Y83.375 E0.01649
G1 X101.106 Y78.451 E0.46133
G1 X100.981 Y78.280 E0.01696
G1 X100.523 Y77.056 E0.10462
G1 X101.557 Y76.766 E0.08597
G1 X102.003 Y78.016 E0.10625
G1 X102.081 Y78.186 E0.01497
G1 X104.978 Y83.015 E0.45081
G1 X105.078 Y83.147 E0.01326
G1 X106.524 Y85.765 E0.23942
G1 X106.880 Y85.631 E0.03045
G1 X106.718 Y84.893 E0.06049
G1 X106.903 Y84.060 E0.06831
G1 X107.085 Y83.697 E0.03251
G1 X107.349 Y83.345 E0.03522
G1 X108.091 Y82.880 E0.07010
G1 X108.912 Y82.698 E0.06732
G1 X109.743 Y82.883 E0.06815
G1 X110.629 Y83.375 E0.08113
G1 X110.863 Y83.175 E0.02464
G1 X110.354 Y81.847 E0.11385
G1 X108.831 Y78.587 E0.28805
G1 X108.164 Y76.676 E0.16203
G1 X107.910 Y75.376 E0.10604
G1 X108.297 Y75.349 E0.03106
G1 X108.976 Y75.214 E0.05542
G1 X109.265 Y76.483 E0.10419
G1 X109.778 Y78.249 E0.14722
G1 X111.319 Y81.424 E0.28253
G1 X112.599 Y85.699 E0.35724
G1 F1800 E-0.50000
G0 F12000 X110.928 Y85.710
G1 F1800 E29.07638
G1 F1500 X110.468 Y86.448 E0.06962
G1 X109.735 Y86.906 E0.06919
G1 X108.913 Y87.088 E0.06740
G1 X108.091 Y86.906 E0.06740
G1 X107.357 Y86.447 E0.06930
G1 X107.030 Y85.924 E0.04938
G1 X106.667 Y86.111 E0.03269
G1 X106.871 Y86.584 E0.04124
G1 X108.274 Y90.983 E0.36963
G1 X108.848 Y95.582 E0.37102
G1 X108.813 Y95.963 E0.03063
G1 X108.813 Y97.293 E0.10647
G1 X110.146 Y97.293 E0.10671
G1 X111.068 Y95.083 E0.19170
G1 X111.262 Y94.359 E0.06000
G1 X111.247 Y94.359 E0.00120
G1 X112.010 Y90.797 E0.29162
G1 X112.049 Y90.484 E0.02525
G1 X111.850 Y86.275 E0.33732
G1 X111.445 Y84.974 E0.10908
G1 X111.111 Y84.974 E0.02674
G1 X110.928 Y85.710 E0.06071
G0 F12000 X110.155 Y86.135
G1 F1500 X110.602 Y85.577 E0.05724
G1 X110.715 Y84.893 E0.05550
G1 X110.602 Y84.209 E0.05550
G1 X110.155 Y83.651 E0.05724
G1 X109.597 Y83.204 E0.05724
G1 X108.913 Y83.091 E0.05550
G1 X108.229 Y83.204 E0.05550
G1 X107.671 Y83.651 E0.05724
G1 X107.224 Y84.209 E0.05724
G1 X107.110 Y84.893 E0.05551
G1 X107.224 Y85.577 E0.05551
G1 X107.671 Y86.135 E0.05724
G1 X108.229 Y86.582 E0.05724
G1 X108.913 Y86.696 E0.05551
G1 X109.597 Y86.582 E0.05551
G1 X110.155 Y86.135 E0.05724
G1 F1800 E-0.50000
G0 F12000 X111.131 Y83.981
;TYPE:FILL
G1 F1800 E32.53262
G1 F1500 X111.410 Y83.703 E0.03153
G0 F12000 X112.245 Y86.206
G0 X112.405 Y90.862
G0 X111.446 Y95.211
G0 X110.391 Y97.659
G0 X108.571 Y97.852
G1 F1500 X108.390 Y98.033 E0.02049
G92 E0
G1 F1800 E-14.50000

T0

G0 F12000 X64.592 Y100.472
;TYPE:WALL-INNER
G1 F1800 E0.00000
G1 F1500 X64.571 Y100.650 E0.01435
G1 X63.835 Y104.884 E0.34403
G1 X63.783 Y105.054 E0.01423
G1 X62.446 Y108.159 E0.27063
G1 X60.221 Y108.159 E0.17812
G1 X60.238 Y105.795 E0.18925
G1 X59.833 Y101.280 E0.36289
G1 X58.401 Y96.781 E0.37797
G1 X56.655 Y93.298 E0.31190
G1 X56.521 Y93.115 E0.01816
G1 X53.525 Y88.188 E0.46162
G1 X53.434 Y88.074 E0.01168
G1 X53.140 Y87.289 E0.06710
G1 X53.395 Y87.218 E0.02119
G1 X53.722 Y88.133 E0.07779
G1 X53.817 Y88.339 E0.01816
G1 X56.736 Y93.205 E0.45426
G1 X56.832 Y93.332 E0.01274
G1 X58.245 Y95.890 E0.23394
G1 X58.587 Y96.692 E0.06980
G1 X59.971 Y101.034 E0.36482
G1 X60.536 Y105.558 E0.36498
G1 X60.503 Y105.910 E0.02830
G1 X60.503 Y107.659 E0.14001
G1 X62.503 Y107.659 E0.16011
G1 X63.537 Y105.178 E0.21517
G1 X63.873 Y103.925 E0.10385
G1 X63.832 Y103.925 E0.00328
G1 X64.495 Y100.829 E0.25347
G1 X64.540 Y100.465 E0.02936
G1 X64.386 Y97.200 E0.26167
G1 X64.592 Y100.472 E0.26245
G0 F12000 X64.293 Y95.738
G1 F1500 X64.316 Y96.105 E0.02944
G1 X63.830 Y94.540 E0.13119
G1 X63.157 Y94.540 E0.05388
G1 X63.069 Y94.007 E0.04325
G1 X62.861 Y93.746 E0.02672
G1 X63.428 Y93.261 E0.05973
G1 X62.813 Y91.656 E0.13760
G1 X61.289 Y88.393 E0.28830
G1 X60.643 Y86.544 E0.15679
G1 X60.479 Y85.704 E0.06851
G1 X60.763 Y85.648 E0.02317
G1 X60.968 Y86.549 E0.07397
G1 X61.493 Y88.359 E0.15087
G1 X63.029 Y91.525 E0.28170
G1 X63.064 Y91.673 E0.01217
G1 X64.293 Y95.738 E0.33997
G0 F12000 X64.689 Y95.665
;TYPE:WALL-OUTER
G1 F1500 X64.994 Y100.484 E0.38655
G1 X64.224 Y104.981 E0.36524
G1 X64.162 Y105.184 E0.01699
G1 X62.709 Y108.559 E0.29416
G1 X59.819 Y108.559 E0.23136
G1 X59.838 Y105.812 E0.21991
G1 X59.438 Y101.359 E0.35791
G1 X58.030 Y96.932 E0.37189
G1 X56.312 Y93.507 E0.30674
G1 X56.190 Y93.341 E0.01649
G1 X53.196 Y88.417 E0.46133
G1 X53.071 Y88.246 E0.01696
G1 X52.613 Y87.022 E0.10462
G1 X53.647 Y86.732 E0.08597
G1 X54.093 Y87.982 E0.10625
G1 X54.171 Y88.152 E0.01497
G1 X57.068 Y92.981 E0.45081
G1 X57.168 Y93.113 E0.01326
G1 X58.614 Y95.731 E0.23942
G1 X58.970 Y95.597 E0.03045
G1 X58.808 Y94.859 E0.06049
G1 X58.993 Y94.026 E0.06831
G1 X59.175 Y93.663 E0.03251
G1 X59.439 Y93.311 E0.03522
G1 X60.181 Y92.846 E0.07010
G1 X61.002 Y92.664 E0.06732
G1 X61.833 Y92.849 E0.06815
G1 X62.719 Y93.341 E0.08113
G1 X62.953 Y93.141 E0.02464
G1 X62.444 Y91.813 E0.11385
G1 X60.921 Y88.553 E0.28805
G1 X60.254 Y86.642 E0.16203
G1 X60.000 Y85.342 E0.10604
G1 X60.387 Y85.315 E0.03106
G1 X61.066 Y85.180 E0.05542
G1 X61.355 Y86.449 E0.10419
G1 X61.868 Y88.215 E0.14722
G1 X63.409 Y91.390 E0.28253
G1 X64.689 Y95.665 E0.35724
G1 F1800 E-0.50000
G0 F12000 X63.018 Y95.676
G1 F1800 E13.82134
G1 F1500 X62.558 Y96.414 E0.06962
G1 X61.825 Y96.872 E0.06919
G1 X61.003 Y97.054 E0.06740
G1 X60.181 Y96.872 E0.06740
G1 X59.447 Y96.413 E0.06930
G1 X59.120 Y95.890 E0.04938
G1 X58.757 Y96.077 E0.03269
G1 X58.961 Y96.550 E0.04124
G1 X60.364 Y100.949 E0.36963
G1 X60.938 Y105.548 E0.37102
G1 X60.903 Y105.929 E0.03063
G1 X60.903 Y107.259 E0.10647
G1 X62.236 Y107.259 E0.10671
G1 X63.158 Y105.049 E0.19170
G1 X63.352 Y104.325 E0.06000
G1 X63.337 Y104.325 E0.00120
G1 X64.100 Y100.763 E0.29162
G1 X64.139 Y100.450 E0.02525
G1 X63.940 Y96.241 E0.33732
G1 X63.535 Y94.940 E0.10908
G1 X63.201 Y94.940 E0.02674
G1 X63.018 Y95.676 E0.06071
G0 F12000 X62.245 Y96.101
G1 F1500 X62.692 Y95.543 E0.05724
G1 X62.805 Y94.859 E0.05550
G1 X62.692 Y94.175 E0.05550
G1 X62.245 Y93.617 E0.05724
G1 X61.687 Y93.170 E0.05724
G1 X61.003 Y93.057 E0.05550
G1 X60.319 Y93.170 E0.05550
G1 X59.761 Y93.617 E0.05724
G1 X59.314 Y94.175 E0.05724
G1 X59.200 Y94.859 E0.05551
G1 X59.314 Y95.543 E0.05551
G1 X59.761 Y96.101 E0.05724
G1 X60.319 Y96.548 E0.05724
G1 X61.003 Y96.662 E0.05551
G1 X61.687 Y96.548 E0.05551
G1 X62.245 Y96.101 E0.05724
G1 F1800 E-0.50000
G0 F12000 X63.256 Y94.154
;TYPE:FILL
G1 F1800 E17.27758
G1 F1500 X63.556 Y93.853 E0.03402
G0 F12000 X64.335 Y96.172
G0 X64.495 Y100.828
G0 X63.536 Y105.177
G0 X62.481 Y107.625
G0 X60.903 Y107.818
G1 F1500 X60.722 Y107.998 E0.02044
;LAYER:2
M106 S255
G0 F12000 X60.503 Y107.659 Z0.880
;TYPE:WALL-INNER
G1 F1800 X62.503 Y107.659 E0.16011
G1 X63.446 Y105.396 E0.19626
G1 X63.862 Y103.853 E0.12793
G1 X63.820 Y103.853 E0.00336
G1 X64.429 Y101.011 E0.23268
G1 X64.497 Y100.456 E0.04476
G1 X64.432 Y99.063 E0.11164
G1 X64.519 Y100.428 E0.10950
G1 X64.479 Y100.763 E0.02701
G1 X63.777 Y104.803 E0.32826
G1 X63.683 Y105.115 E0.02609
G1 X62.273 Y108.359 E0.28316
G1 X60.300 Y108.359 E0.15795
G1 X60.328 Y105.771 E0.20719
G1 X59.925 Y101.308 E0.35873
G1 X58.494 Y96.813 E0.37764
G1 X56.748 Y93.335 E0.31154
G1 X56.535 Y93.045 E0.02880
G1 X53.610 Y88.235 E0.45067
G1 X53.426 Y87.995 E0.02421
G1 X52.771 Y86.244 E0.14966
G1 X53.040 Y86.169 E0.02236
G1 X53.704 Y88.029 E0.15810
G1 X53.847 Y88.339 E0.02733
G1 X56.691 Y93.079 E0.44252
G1 X56.859 Y93.299 E0.02216
G1 X58.344 Y96.000 E0.24675
G1 X58.318 Y96.014 E0.00236
G1 X58.618 Y96.709 E0.06060
