;###############################################################################
; File post-processed by the CEL Tech Roboxiser on Thu 2 Feb 2017 13:52:17
; Robox® AutoMaker™ - 2.02.00_RC7
;
; Pre print gcode
; Printed with safety features OFF
;
; Macro Start - before_print
;
M83				;Set Extruder to Relative moves
M139 E			;Set & heat first layer Bed temp.

;
; Macro Start - Home_all_Axis_in_sequence
;
;Home_all_Axis_in_sequence
G90 			;Use X Y Z Absolute positioning
G0 Z5			;Move up 5mm if homed
G28 Y			;Home Y
G0 Y115			;Position Y
T0				;Select Nozzle 0
G39				;Clear the bed levelling points
G28 Z			;Home Z
G0 Z10			;Move up 10mm if homed
G28 X			;Home X
;
; Macro End - Home_all_Axis_in_sequence
;

M190			;Wait for Bed to get to temp.
M103 T			;Set & heat first layer nozzle temp.
M109			;Wait for Nozzle to get to temp.
M170 E			;Set Ambient temp.

;
; Macro Start - Short_Purge
;
;Short_Purge_T1 (Dual Material)
G0 Y-6 X36 Z8
T1
M109
G0 Z4
G1 Y-4 F400
G36 E1200 F1000
G0 B1
G1 E2 F200
G1 E30 X23 F200
G0 B0
G0 Z4.5
G0 Y3
;
; Macro End - Short_Purge
;

;
; Macro Start - Level_Gantry_(2-points)
;
;Level_Gantry
T0			;Select Nozzle 0 (T0)
G0 X20 Y75		;Level Gantry Position 1
G28 Z			;Home Z
G0 Z4 			;Move up 4mm
G0 X190 Y75		;Level Gantry Position 2
G28 Z			;Home Z
G0 Z4 			;Move up 4mm
G38 			;Level gantry
;
; Macro End - Level_Gantry_(2-points)
;

;
; Macro Start - 7_point_Bed_probing-Set_Washout
;
;7_point_Bed_probing-Set_Washout
G0 Y20
G28 Z
G0 Z2
G0 X105
G28 Z
G0 Z2
G0 X20
G28 Z
G0 Z2
G0 Y130
G28 Z
G0 Z2
G0 X105
G28 Z
G0 Z2
G0 X190
G28 Z
G0 Z2
G0 X105 Y75
G28 Z
G0 Z2

G39 S0.5		;set washout over the first 2mm
;
; Macro End - 7_point_Bed_probing-Set_Washout
;

;Centre head and prime
G0 X105 Y75 Z5
G1 E0.5 F400
M129			;Head LED on
;
; Macro End - before_print
;
; End of Pre print gcode
;LAYER:0 height:0.300
M107
G1 F12000 X162.137 Y67.505 Z0.300 
T1 ; Tool Node duration: 32.65584445164348
;TYPE:WALL-INNER
M109
G1 B1
G1 F480 X166.571 Y67.505 E0.79866
G1 F480 X173.989 Y85.861 E3.56608
G1 F480 X168.162 Y85.352 E1.05356
G1 F480 X167.833 Y84.536 E0.15848
G1 F480 X168.117 Y84.182 E0.08175
G1 F480 X168.275 Y83.874 E0.06235
G1 F480 X168.384 Y83.552 E0.06123
G1 F480 X168.441 Y83.208 E0.06281
G1 F480 X168.445 Y82.863 E0.06215
G1 F480 X168.394 Y82.521 E0.06228
G1 F480 X168.301 Y82.224 E0.05606
G1 F480 X162.639 Y68.235 E2.71828
G1 F480 X162.361 Y67.767 E0.09805
G1 F480 X162.137 Y67.505 E0.06209
G1 F12000 X161.626 Y67.831 
;TYPE:WALL-OUTER
G1 F480 X161.321 Y67.568 E0.07254
G1 F480 X160.812 Y67.201 E0.11303
G1 F480 X160.454 Y66.905 E0.08367
G1 F480 X166.975 Y66.905 E1.17457
G1 F480 X174.912 Y86.544 E3.81536
G1 F480 X167.743 Y85.918 E1.29620
G1 F480 X167.113 Y84.359 E0.30287
G1 F480 X167.278 Y84.241 E0.03654
G1 F480 X167.454 Y84.068 E0.04445
G1 F480 X167.606 Y83.863 E0.04597
G1 F480 X167.721 Y83.640 E0.04519
G1 F480 X167.800 Y83.406 E0.04449
G1 F480 X167.842 Y83.155 E0.04584
G1 F480 X167.844 Y82.904 E0.04521
G1 F480 X167.807 Y82.656 E0.04516
G1 F480 X167.736 Y82.427 E0.04318
G1 F480 X162.100 Y68.502 E2.70584
G1 F480 X161.871 Y68.118 E0.08053
G1 F480 X161.626 Y67.831 E0.06797
G1 F12000 X162.932 Y68.322 
;TYPE:SKIN
G1 F480 X169.156 Y74.546 E1.58544
G1 F12000 X169.732 Y75.970 
G1 F480 X163.509 Y69.747 E1.58518
G1 F12000 X164.086 Y71.173 
G1 F480 X170.308 Y77.394 E1.58480
G1 F12000 X170.883 Y78.818 
G1 F480 X164.663 Y72.597 E1.58455
G1 F12000 X165.240 Y74.023 
G1 F480 X171.459 Y80.242 E1.58416
G1 F12000 X172.034 Y81.666 
G1 F480 X165.817 Y75.449 E1.58365
G1 F12000 X166.394 Y76.874 
G1 F480 X172.610 Y83.090 E1.58340
G1 F12000 X173.186 Y84.514 
G1 F480 X166.970 Y78.299 E1.58327
G1 F12000 X167.547 Y79.724 
G1 F480 X173.389 Y85.566 E1.48813
G1 F12000 X172.459 Y85.485 
G1 F480 X168.124 Y81.150 E1.10425
G1 F12000 X168.634 Y82.508 
G1 F480 X171.530 Y85.405 E0.73782
G1 F12000 X170.600 Y85.323 
G1 F480 X168.654 Y83.377 E0.49570
G1 F12000 X168.461 Y84.033 
G1 F480 X169.670 Y85.242 E0.30797
G1 F12000 X168.741 Y85.161 
G1 F480 X168.129 Y84.549 E0.15589
G1 F12000 X168.581 Y73.121 
G1 F480 X163.204 Y67.745 E1.36955
G1 F12000 X164.053 Y67.745 
G1 F480 X168.005 Y71.697 E1.00669
G1 F12000 X167.429 Y70.272 
G1 F480 X164.976 Y67.820 E0.62480 ;Remainder pre close towards end  MORE REM
G1 F480 X164.901 Y67.745 B0.94 ; Start of overwrite close towards end  PROC MORE START
G1 F12000 X165.750 Y67.745 
G1 F480 X166.853 Y68.848 B0 ;  PROC LESS
G1 F12000 X103.650 Y73.324 
;TYPE:WALL-INNER
M109
G1 B1 F150 E0.30000
G1 F480 X103.664 Y75.422 E0.37790
G1 F480 X103.716 Y75.568 E0.02792
G1 F480 X103.665 Y75.705 E0.02633
G1 F480 X103.637 Y76.411 E0.12727
G1 F480 X103.330 Y76.412 E0.05530
G1 F480 X103.311 Y73.325 E0.55604
G1 F480 X103.650 Y73.324 E0.06106
G1 F12000 X103.886 Y75.448 
G1 F12000 X104.263 Y75.316 
;TYPE:WALL-OUTER
G1 F480 X104.312 Y75.452 E0.02604
G1 F480 X104.393 Y75.555 E0.02360
G1 F480 X104.322 Y75.660 E0.02283
G1 F480 X104.261 Y75.824 E0.03152
G1 F480 X104.219 Y76.870 E0.18856
G1 F480 X104.199 Y76.896 E0.00591
G1 F480 X104.116 Y76.938 E0.01676
G1 F480 X103.691 Y77.011 E0.07767
G1 F480 X103.269 Y77.012 E0.07601
G1 F480 X102.848 Y76.940 E0.07693
G1 F480 X102.752 Y76.890 E0.01950
G1 F480 X102.733 Y76.875 E0.00436
G1 F480 X102.707 Y72.728 E0.74698
G1 F480 X104.246 Y72.721 E0.27721
G1 F480 X104.263 Y75.316 E0.46742
G1 F12000 X103.826 Y75.679 
M140;Go to bed temperature from loaded reel - don't wait
;LAYER:1 height:0.500
M104 T; Switch heater(s) to subsequent layer temperature
M106 S76
G1 F12000 X104.395 Y76.059 Z0.500 
; Suppressed Tool Node -T start 33.59534471493194 T finish 57.429802260841065 ; Tool Node duration: 23.834457545909242
;TYPE:WALL-INNER
G1 F1140 X104.363 Y76.728 E0.05362
G1 F1140 X104.191 Y76.770 E0.01417
G1 F1140 X103.675 Y76.806 E0.04141
G1 F1140 X103.284 Y76.807 E0.03130
G1 F1140 X102.802 Y76.775 E0.03867
G1 F1140 X102.604 Y76.729 E0.01627
G1 F1140 X102.586 Y73.020 E0.29692
G1 F1140 X104.373 Y73.020 E0.14306
G1 F1140 X104.377 Y75.045 E0.16211
G1 F1140 X104.387 Y75.173 E0.01028
G1 F1140 X104.433 Y75.347 E0.01441
G1 F1140 X104.527 Y75.509 E0.01499
G1 F1140 X104.616 Y75.614 E0.01102
G1 F1140 X104.495 Y75.782 E0.01657
G1 F1140 X104.395 Y76.059 E0.02358
G1 F12000 X104.792 Y76.138 
;TYPE:WALL-OUTER
G1 F1140 X104.757 Y76.866 E0.05835
G1 F1140 X104.749 Y76.941 E0.00604
G1 F1140 X104.737 Y76.966 E0.00222
G1 F1140 X104.712 Y76.995 E0.00307
G1 F1140 X104.571 Y77.090 E0.01361
G1 F1140 X104.255 Y77.167 E0.02604
G1 F1140 X103.688 Y77.206 E0.04550
G1 F1140 X103.273 Y77.207 E0.03322
G1 F1140 X102.746 Y77.172 E0.04228
G1 F1140 X102.379 Y77.087 E0.03016
G1 F1140 X102.320 Y77.052 E0.00549
G1 F1140 X102.220 Y76.957 E0.01104
G1 F1140 X102.209 Y76.935 E0.00197
G1 F1140 X102.185 Y72.823 E0.32919
G1 F1140 X102.174 Y72.676 E0.01180
G1 F1140 X102.150 Y72.620 E0.00488
G1 F1140 X104.772 Y72.620 E0.20990
G1 F1140 X104.777 Y75.029 E0.19285
G1 F1140 X104.783 Y75.106 E0.00618
G1 F1140 X104.806 Y75.192 E0.00713
G1 F1140 X104.855 Y75.277 E0.00785
G1 F1140 X104.912 Y75.345 E0.00710
G1 F1140 X105.058 Y75.444 E0.01412
G1 F1140 X105.233 Y75.500 E0.01471
G1 F1140 X106.528 Y75.501 E0.10367
G1 F1140 X105.913 Y75.516 E0.04925
G1 F1140 X105.426 Y75.574 E0.03926
G1 F1140 X105.317 Y75.605 E0.00907
G1 F1140 X105.178 Y75.664 E0.01209
G1 F1140 X105.052 Y75.745 E0.01199
G1 F1140 X104.945 Y75.842 E0.01156
G1 F1140 X104.852 Y75.971 E0.01273
G1 F1140 X104.792 Y76.138 E0.01421
G1 F12000 X104.287 Y75.883 
;TYPE:SKIN
G1 F1140 X103.523 Y76.646 E0.08644
G1 F12000 X102.978 Y76.627 
G1 F1140 X104.265 Y75.340 E0.14571
G1 F12000 X104.216 Y74.823 
G1 F1140 X102.761 Y76.278 E0.16473
G1 F12000 X102.758 Y75.714 
G1 F1140 X104.214 Y74.258 E0.16484
G1 F12000 X104.212 Y73.695 
G1 F1140 X102.780 Y75.128 E0.16219 ;Remainder pre close towards end  MORE REM
G1 F1140 X102.756 Y75.152 B0.99 ; Start of overwrite close towards end  PROC MORE START
G1 F12000 X102.753 Y74.588 
G1 F1140 X104.162 Y73.179 B0.46 ;  PROC LESS
G1 F12000 X103.596 Y73.179 
G1 F1140 X102.751 Y74.025 B0.14 ;  PROC LESS
G1 F12000 X102.748 Y73.462 
G1 F1140 X103.031 Y73.179 B0.03 ;  PROC LESS
G1 F12000 X104.210 Y76.525 
G1 F1140 X104.122 Y76.614 B0 ;  PROC LESS
G1 F12000 X161.331 Y67.205 
;TYPE:WALL-INNER
M109
G1 B1 F150 E0.30000
G1 F1140 X166.994 Y67.205 E0.45334
G1 F1140 X174.681 Y86.224 E1.64220
G1 F1140 X167.952 Y85.635 E0.54074
G1 F1140 X167.479 Y84.464 E0.10110
G1 F1140 X167.681 Y84.265 E0.02270
G1 F1140 X167.862 Y84.023 E0.02419
G1 F1140 X167.998 Y83.757 E0.02392
G1 F1140 X168.092 Y83.479 E0.02349
G1 F1140 X168.142 Y83.182 E0.02411
G1 F1140 X168.144 Y82.884 E0.02386
G1 F1140 X168.101 Y82.589 E0.02387
G1 F1140 X168.018 Y82.326 E0.02208
G1 F1140 X162.369 Y68.369 E1.20536
G1 F1140 X162.116 Y67.943 E0.03966
G1 F1140 X161.839 Y67.618 E0.03419
G1 F1140 X161.507 Y67.332 E0.03508
G1 F1140 X161.331 Y67.205 E0.01737
G1 F12000 X161.259 Y67.647 
;TYPE:WALL-OUTER
G1 F1140 X160.787 Y67.306 E0.04661
G1 F1140 X160.177 Y66.805 E0.06319
G1 F1140 X167.264 Y66.805 E0.56734
G1 F1140 X175.297 Y86.680 E1.71611
G1 F1140 X167.673 Y86.013 E0.61266
G1 F1140 X166.989 Y84.318 E0.14632
G1 F1140 X167.213 Y84.164 E0.02176
G1 F1140 X167.378 Y84.002 E0.01851
G1 F1140 X167.521 Y83.810 E0.01916
G1 F1140 X167.629 Y83.601 E0.01883
G1 F1140 X167.703 Y83.382 E0.01851
G1 F1140 X167.742 Y83.147 E0.01907
G1 F1140 X167.744 Y82.911 E0.01889
G1 F1140 X167.710 Y82.678 E0.01885
G1 F1140 X162.010 Y68.547 E1.21980
G1 F1140 X161.789 Y68.176 E0.03457
G1 F1140 X161.555 Y67.901 E0.02891
G1 F1140 X161.259 Y67.647 E0.03122
G1 F12000 X161.913 Y67.472 
;TYPE:SKIN
G1 F1140 X162.099 Y67.567 E0.01221
G1 F1140 X162.586 Y67.364 E0.04224
G1 F12000 X163.152 Y67.364 
G1 F1140 X162.404 Y68.112 E0.08468
G1 F12000 X162.591 Y68.491 
G1 F1140 X163.717 Y67.364 E0.12753
G1 F12000 X164.283 Y67.364 
G1 F1140 X162.754 Y68.894 E0.17316
G1 F12000 X162.917 Y69.296 
G1 F1140 X164.849 Y67.364 E0.21873
G1 F12000 X165.414 Y67.364 
G1 F1140 X163.080 Y69.699 E0.26430
G1 F12000 X163.243 Y70.101 
G1 F1140 X165.980 Y67.364 E0.30986
G1 F12000 X166.546 Y67.364 
G1 F1140 X163.406 Y70.504 E0.35549
G1 F12000 X163.569 Y70.907 
G1 F1140 X166.950 Y67.525 E0.38283
G1 F12000 X167.113 Y67.928 
G1 F1140 X163.731 Y71.310 E0.38289
G1 F12000 X163.895 Y71.712 
G1 F1140 X167.276 Y68.331 E0.38277
G1 F12000 X167.439 Y68.734 
G1 F1140 X164.057 Y72.115 E0.38283
G1 F12000 X164.221 Y72.518 
G1 F1140 X167.601 Y69.137 E0.38272
G1 F12000 X167.764 Y69.540 
G1 F1140 X164.383 Y72.921 E0.38277
G1 F12000 X164.547 Y73.323 
G1 F1140 X167.927 Y69.942 E0.38272
G1 F12000 X168.090 Y70.345 
G1 F1140 X164.709 Y73.726 E0.38277
G1 F12000 X164.873 Y74.128 
G1 F1140 X168.253 Y70.748 E0.38266
G1 F12000 X168.415 Y71.151 
G1 F1140 X165.035 Y74.531 E0.38266
G1 F12000 X165.199 Y74.934 
G1 F1140 X168.579 Y71.554 E0.38266
G1 F12000 X168.741 Y71.957 
G1 F1140 X165.361 Y75.337 E0.38266
G1 F12000 X165.525 Y75.739 
G1 F1140 X168.904 Y72.360 E0.38255
G1 F12000 X169.067 Y72.762 
G1 F1140 X165.687 Y76.142 E0.38266
G1 F12000 X165.851 Y76.545 
G1 F1140 X169.230 Y73.165 E0.38260
G1 F12000 X169.393 Y73.568 
G1 F1140 X166.013 Y76.948 E0.38266
G1 F12000 X166.177 Y77.350 
G1 F1140 X169.555 Y73.971 E0.38249
G1 F12000 X169.719 Y74.374 
G1 F1140 X166.339 Y77.753 E0.38260
G1 F12000 X166.503 Y78.155 
G1 F1140 X169.881 Y74.777 E0.38243
G1 F12000 X170.044 Y75.180 
G1 F1140 X166.665 Y78.558 E0.38249
G1 F12000 X166.829 Y78.961 
G1 F1140 X170.206 Y75.583 E0.38238
G1 F12000 X170.370 Y75.985 
G1 F1140 X166.991 Y79.364 E0.38255
G1 F12000 X167.155 Y79.766 
G1 F1140 X170.532 Y76.388 E0.38238
G1 F12000 X170.695 Y76.791 
G1 F1140 X167.317 Y80.169 E0.38243
G1 F12000 X167.481 Y80.571 
G1 F1140 X170.858 Y77.194 E0.38232
G1 F12000 X171.021 Y77.597 
G1 F1140 X167.643 Y80.975 E0.38243
G1 F12000 X167.807 Y81.377 
G1 F1140 X171.184 Y78.000 E0.38232
G1 F12000 X171.346 Y78.403 
G1 F1140 X167.969 Y81.780 E0.38232
G1 F12000 X168.133 Y82.182 
G1 F1140 X171.510 Y78.805 E0.38232
G1 F12000 X171.672 Y79.208 
G1 F1140 X168.266 Y82.614 E0.38560
G1 F12000 X168.302 Y83.145 
G1 F1140 X171.835 Y79.611 E0.40004
G1 F12000 X171.998 Y80.014 
G1 F1140 X168.094 Y83.918 E0.44198
G1 F12000 X167.784 Y84.794 
G1 F1140 X172.161 Y80.417 E0.49553
G1 F12000 X172.324 Y80.820 
G1 F1140 X167.947 Y85.197 E0.49553
G1 F12000 X168.211 Y85.498 
G1 F1140 X172.486 Y81.223 E0.48399
G1 F12000 X172.650 Y81.625 
G1 F1140 X168.731 Y85.543 E0.44363
G1 F12000 X169.251 Y85.589 
G1 F1140 X172.812 Y82.028 E0.40315
G1 F12000 X172.975 Y82.431 
G1 F1140 X169.772 Y85.634 E0.36262
G1 F12000 X170.291 Y85.680 
G1 F1140 X173.137 Y82.834 E0.32220
G1 F12000 X173.301 Y83.237 
G1 F1140 X170.812 Y85.726 E0.28179
G1 F12000 X171.332 Y85.771 
G1 F1140 X173.463 Y83.640 E0.24126
G1 F12000 X173.626 Y84.043 
G1 F1140 X171.852 Y85.817 E0.20084
G1 F12000 X172.372 Y85.862 
G1 F1140 X173.789 Y84.446 E0.16037
G1 F12000 X173.952 Y84.848 
G1 F1140 X172.892 Y85.908 E0.12001
G1 F12000 X173.412 Y85.953 
G1 F1140 X174.115 Y85.251 E0.07953
G1 F12000 X174.277 Y85.654 
G1 F1140 X173.933 Y85.999 E0.03900
;LAYER:2 height:0.700
M106 S163
G1 F12000 X174.807 Y86.235 Z0.700 
; Suppressed Tool Node -T start 57.429802260841065 T finish 76.00829232551712 ; Tool Node duration: 18.5784900646761
;TYPE:WALL-INNER
G1 F1680 X167.952 Y85.635 E0.55087
G1 F1680 X167.479 Y84.464 E0.10110
G1 F1680 X167.681 Y84.265 E0.02270
G1 F1680 X167.862 Y84.023 E0.02419
G1 F1680 X167.998 Y83.757 E0.02392
G1 F1680 X168.092 Y83.479 E0.02349
G1 F1680 X168.142 Y83.182 E0.02411
G1 F1680 X168.144 Y82.884 E0.02386
G1 F1680 X168.101 Y82.589 E0.02387
G1 F1680 X168.018 Y82.326 E0.02208
G1 F1680 X162.369 Y68.369 E1.20536
G1 F1680 X162.116 Y67.943 E0.03966
G1 F1680 X161.839 Y67.618 E0.03419
G1 F1680 X161.507 Y67.333 E0.03503
G1 F1680 X161.330 Y67.205 E0.01749
G1 F1680 X167.117 Y67.205 E0.46327
G1 F1680 X174.807 Y86.235 E1.64311
G1 F12000 X175.423 Y86.691 
;TYPE:WALL-OUTER
G1 F1680 X167.673 Y86.013 E0.62279
G1 F1680 X166.989 Y84.318 E0.14632
G1 F1680 X167.213 Y84.164 E0.02176
G1 F1680 X167.378 Y84.002 E0.01851
G1 F1680 X167.521 Y83.810 E0.01916
G1 F1680 X167.629 Y83.601 E0.01883
G1 F1680 X167.703 Y83.382 E0.01851
G1 F1680 X167.742 Y83.147 E0.01907
G1 F1680 X167.744 Y82.911 E0.01889
G1 F1680 X167.710 Y82.678 E0.01885
G1 F1680 X162.010 Y68.547 E1.21980
G1 F1680 X161.789 Y68.176 E0.03457
G1 F1680 X161.555 Y67.901 E0.02891
G1 F1680 X161.259 Y67.647 E0.03122
G1 F1680 X160.714 Y67.253 E0.05384
G1 F1680 X160.173 Y66.805 E0.05623
G1 F1680 X167.387 Y66.805 E0.57751
G1 F1680 X175.423 Y86.691 E1.71702
G1 F12000 X174.546 Y86.016 
;TYPE:SKIN
G1 F1680 X166.377 Y77.848 E0.92478
G1 F12000 X166.762 Y78.798 
G1 F1680 X173.965 Y86.001 E0.81547
G1 F12000 X173.345 Y85.947 
G1 F1680 X167.147 Y79.748 E0.70175
G1 F12000 X165.993 Y76.897 
G1 F1680 X174.162 Y85.067 E0.92489
G1 F12000 X173.779 Y84.118 
G1 F1680 X165.608 Y75.947 E0.92506
G1 F12000 X165.223 Y74.997 
G1 F1680 X173.395 Y83.168 E0.92512
G1 F12000 X173.012 Y82.219 
G1 F1680 X164.839 Y74.046 E0.92529
G1 F12000 X164.454 Y73.096 
G1 F1680 X172.628 Y81.269 E0.92535
G1 F12000 X172.244 Y80.320 
G1 F1680 X164.069 Y72.146 E0.92546
G1 F12000 X163.685 Y71.195 
G1 F1680 X171.860 Y79.371 E0.92557
G1 F12000 X171.477 Y78.422 
G1 F1680 X163.300 Y70.245 E0.92574
G1 F12000 X162.915 Y69.295 
G1 F1680 X171.094 Y77.473 E0.92591
G1 F12000 X170.710 Y76.523 
G1 F1680 X162.531 Y68.344 E0.92597
G1 F12000 X162.683 Y67.365 
G1 F1680 X169.943 Y74.625 E0.82193
G1 F12000 X170.327 Y75.574 
G1 F1680 X162.117 Y67.365 E0.92942
G1 F12000 X163.249 Y67.365 
G1 F1680 X169.559 Y73.676 E0.71443
G1 F12000 X169.176 Y72.726 
G1 F1680 X163.814 Y67.365 E0.60699
G1 F12000 X164.380 Y67.365 
G1 F1680 X168.792 Y71.777 E0.49950
G1 F12000 X168.408 Y70.828 
G1 F1680 X164.946 Y67.365 E0.39200
G1 F12000 X165.511 Y67.365 
G1 F1680 X168.025 Y69.879 E0.28462
G1 F12000 X167.641 Y68.929 
G1 F1680 X166.077 Y67.365 E0.17707
G1 F12000 X166.643 Y67.365 
G1 F1680 X167.258 Y67.980 E0.06963
G1 F12000 X167.531 Y80.699 
G1 F1680 X172.725 Y85.892 E0.58797
G1 F12000 X172.105 Y85.838 
G1 F1680 X167.916 Y81.649 E0.47425
G1 F12000 X168.257 Y82.556 
G1 F1680 X171.486 Y85.784 E0.36551
G1 F12000 X170.865 Y85.730 
G1 F1680 X168.301 Y83.165 E0.29034
G1 F12000 X168.206 Y83.636 
G1 F1680 X170.245 Y85.675 E0.23084
G1 F12000 X169.625 Y85.621 
G1 F1680 X168.960 Y84.956 E0.07530 ;Remainder pre close towards end  MORE REM
G1 F1680 X168.035 Y84.031 B0.65 ; Start of overwrite close towards end  PROC MORE START
G1 F12000 X167.804 Y84.365 
G1 F1680 X169.005 Y85.566 B0.2 ;  PROC LESS
G1 F12000 X168.386 Y85.513 
G1 F1680 X167.862 Y84.989 B0 ;  PROC LESS
G1 F12000 X105.868 Y73.095 
;TYPE:WALL-INNER
M109
G1 B1 F150 E0.30000
G1 F1680 X104.666 Y74.856 E0.17068
G1 F1680 X104.686 Y75.057 E0.01617
G1 F1680 X104.768 Y75.265 E0.01790
G1 F1680 X104.947 Y75.497 E0.02346
G1 F1680 X105.109 Y75.599 E0.01533
G1 F1680 X104.948 Y75.754 E0.01789
G1 F1680 X104.804 Y75.977 E0.02125
G1 F1680 X104.709 Y76.232 E0.02178
G1 F1680 X104.667 Y76.759 E0.04232
G1 F1680 X104.536 Y76.796 E0.01090
G1 F1680 X102.536 Y76.810 E0.16011
G1 F1680 X102.456 Y76.803 E0.00643
G1 F1680 X102.303 Y76.762 E0.01268
G1 F1680 X102.289 Y73.096 E0.29348
G1 F1680 X105.868 Y73.095 E0.28651
G1 F12000 X105.535 Y72.956 
G1 F12000 X104.807 Y74.729 
G1 F12000 X105.066 Y74.836 
;TYPE:WALL-OUTER
G1 F1680 X105.079 Y74.962 E0.01014
G1 F1680 X105.119 Y75.066 E0.00892
G1 F1680 X105.220 Y75.196 E0.01318
G1 F1680 X105.338 Y75.271 E0.01119
G1 F1680 X105.555 Y75.336 E0.01813
G1 F1680 X112.774 Y75.343 E0.57791
G1 F1680 X106.085 Y75.634 E0.53599
G1 F1680 X105.805 Y75.689 E0.02284
G1 F1680 X105.513 Y75.803 E0.02509
G1 F1680 X105.379 Y75.894 E0.01297
G1 F1680 X105.259 Y76.009 E0.01331
G1 F1680 X105.164 Y76.157 E0.01408
G1 F1680 X105.100 Y76.328 E0.01462
G1 F1680 X105.079 Y76.502 E0.01403
G1 F1680 X105.058 Y76.956 E0.03638
G1 F1680 X105.052 Y76.972 E0.00137
G1 F1680 X104.979 Y77.060 E0.00915
G1 F1680 X104.764 Y77.153 E0.01875
G1 F1680 X104.584 Y77.196 E0.01482
G1 F1680 X102.514 Y77.210 E0.16572
G1 F1680 X102.386 Y77.199 E0.01028
G1 F1680 X102.107 Y77.124 E0.02313
G1 F1680 X101.975 Y77.058 E0.01181
G1 F1680 X101.911 Y76.981 E0.00802
G1 F1680 X101.904 Y76.962 E0.00162
G1 F1680 X101.889 Y73.042 E0.31381
G1 F1680 X101.872 Y72.885 E0.01264
G1 F1680 X101.831 Y72.759 E0.01061
G1 F1680 X101.800 Y72.696 E0.00562
G1 F1680 X105.468 Y72.695 E0.29364
G1 F1680 X105.066 Y74.836 E0.17439
G1 F12000 X104.734 Y74.470 
;TYPE:SKIN
G1 F1680 X103.519 Y73.255 E0.13755
G1 F12000 X102.954 Y73.255 
G1 F1680 X104.505 Y74.806 E0.17559
G1 F12000 X104.964 Y74.134 
G1 F1680 X104.085 Y73.255 E0.09951
G1 F12000 X104.651 Y73.255 
G1 F1680 X105.308 Y73.630 E0.06132
G1 F1680 X105.216 Y73.255 E0.03091
G1 F12000 X104.689 Y75.057 
G1 F12000 X104.808 Y75.675 
G1 F1680 X102.449 Y73.316 E0.26707
G1 F12000 X102.451 Y73.884 
G1 F1680 X104.608 Y76.041 E0.24420
G1 F12000 X104.525 Y76.523 
G1 F1680 X102.453 Y74.451 E0.23458
G1 F12000 X102.455 Y75.019 
G1 F1680 X104.074 Y76.639 E0.18335
G1 F12000 X103.513 Y76.643 
G1 F1680 X102.457 Y75.587 E0.11955
G1 F12000 X102.459 Y76.155 
G1 F1680 X102.951 Y76.646 E0.05564
;LAYER:3 height:0.900
M106 S211
G1 F12000 X102.456 Y76.820 Z0.900 
; Suppressed Tool Node -T start 76.00829232551712 T finish 95.67343613567927 ; Tool Node duration: 19.66514381016207
;TYPE:WALL-INNER
G1 F1260 X102.082 Y76.799 E0.02999
G1 F1260 X102.047 Y76.787 E0.00296
G1 F1260 X102.053 Y73.251 E0.28307
G1 F1260 X102.033 Y73.020 E0.01856
G1 F1260 X104.905 Y73.020 E0.22991
G1 F1260 X104.905 Y74.677 E0.13265
G1 F1260 X104.920 Y74.843 E0.01334
G1 F1260 X105.021 Y75.100 E0.02211
G1 F1260 X105.143 Y75.270 E0.01675
G1 F1260 X105.367 Y75.451 E0.02305
G1 F1260 X105.614 Y75.542 E0.02107
G1 F1260 X105.451 Y75.629 E0.01479
G1 F1260 X105.218 Y75.846 E0.02549
G1 F1260 X105.051 Y76.092 E0.02380
G1 F1260 X104.944 Y76.388 E0.02520
G1 F1260 X104.917 Y76.782 E0.03162
G1 F1260 X104.858 Y76.805 E0.00507
G1 F1260 X102.456 Y76.820 E0.19229
G1 F12000 X102.454 Y77.220 
;TYPE:WALL-OUTER
G1 F1260 X102.022 Y77.197 E0.03463
G1 F1260 X101.863 Y77.145 E0.01339
G1 F1260 X101.784 Y77.105 E0.00709
G1 F1260 X101.716 Y77.049 E0.00705
G1 F1260 X101.688 Y77.019 E0.00329
G1 F1260 X101.663 Y76.981 E0.00364
G1 F1260 X101.650 Y76.944 E0.00314
G1 F1260 X101.647 Y76.911 E0.00265
G1 F1260 X101.653 Y73.268 E0.29164
G1 F1260 X101.632 Y73.033 E0.01889
G1 F1260 X101.583 Y72.896 E0.01165
G1 F1260 X101.515 Y72.770 E0.01146
G1 F1260 X101.422 Y72.657 E0.01172
G1 F1260 X101.378 Y72.620 E0.00460
G1 F1260 X105.305 Y72.620 E0.31437
G1 F1260 X105.305 Y74.647 E0.16227
G1 F1260 X105.314 Y74.752 E0.00844
G1 F1260 X105.375 Y74.907 E0.01333
G1 F1260 X105.436 Y74.993 E0.00844
G1 F1260 X105.567 Y75.098 E0.01344
G1 F1260 X105.745 Y75.164 E0.01520
G1 F1260 X117.090 Y75.173 E0.90821
G1 F1260 X112.921 Y75.517 E0.33488
G1 F1260 X106.718 Y75.658 E0.49670
G1 F1260 X106.342 Y75.693 E0.03023
G1 F1260 X106.046 Y75.766 E0.02441
G1 F1260 X105.685 Y75.958 E0.03273
G1 F1260 X105.523 Y76.108 E0.01767
G1 F1260 X105.410 Y76.275 E0.01614
G1 F1260 X105.339 Y76.471 E0.01669
G1 F1260 X105.306 Y76.948 E0.03828
G1 F1260 X105.267 Y77.023 E0.00677
G1 F1260 X105.173 Y77.105 E0.00999
G1 F1260 X105.015 Y77.177 E0.01390
G1 F1260 X104.796 Y77.214 E0.01778
G1 F1260 X102.454 Y77.220 E0.18749
G1 F12000 X103.377 Y76.654 
;TYPE:FILL
G1 F1260 X104.871 Y75.160 E0.16914
G1 F12000 X104.743 Y73.403 
G1 F1260 X102.208 Y75.939 E0.28705
G1 F12000 X102.211 Y74.050 
G1 F1260 X103.082 Y73.179 E0.09861
G1 F12000 X103.031 Y73.179 
;TYPE:SKIN
G1 F1260 X102.211 Y73.999 E0.09283
G1 F12000 X102.212 Y73.433 
G1 F1260 X102.465 Y73.179 E0.02870
G1 F12000 X103.350 Y73.425 
G1 F1260 X102.210 Y74.566 E0.12912
G1 F12000 X102.209 Y75.132 
G1 F1260 X103.354 Y73.988 E0.12957
G1 F12000 X103.612 Y73.730 
G1 F1260 X103.879 Y73.179 E0.06225
G1 F1260 X103.411 Y73.365 E0.04032
G1 F12000 X103.615 Y74.292 
G1 F1260 X104.728 Y73.179 E0.12601
G1 F12000 X104.743 Y73.730 
G1 F1260 X103.619 Y74.854 E0.12725
G1 F12000 X103.361 Y75.112 
G1 F1260 X102.207 Y76.266 E0.13065
G1 F12000 X102.383 Y76.656 
G1 F1260 X103.364 Y75.675 E0.11106
G1 F12000 X103.622 Y75.416 
G1 F1260 X104.743 Y74.295 E0.12691
G1 F12000 X104.759 Y74.845 
G1 F1260 X103.613 Y75.992 E0.12980
G1 F12000 X103.367 Y76.237 
G1 F1260 X102.947 Y76.657 E0.04755
G1 F12000 X103.516 Y76.653 
G1 F1260 X104.663 Y75.506 E0.12987 ;Remainder pre close towards end  MORE REM
G1 F1260 X104.926 Y75.243 B0.9 ; Start of overwrite close towards end  PROC MORE START
G1 F12000 X105.207 Y75.528 
G1 F1260 X104.086 Y76.650 B0.48 ;  PROC LESS
G1 F12000 X104.656 Y76.646 
G1 F1260 X104.772 Y76.529 B0.43 ;  PROC LESS
G1 F12000 X103.357 Y74.550 
G1 F1260 X102.208 Y75.699 B0 ;  PROC LESS
G1 F12000 X161.330 Y67.205 
;TYPE:WALL-INNER
M109
G1 B1 F150 E0.30000
G1 F1260 X167.186 Y67.205 E0.46880
G1 F1260 X174.878 Y86.241 E1.64361
G1 F1260 X167.952 Y85.635 E0.55657
G1 F1260 X167.479 Y84.464 E0.10110
G1 F1260 X167.681 Y84.265 E0.02270
G1 F1260 X167.862 Y84.023 E0.02419
G1 F1260 X167.998 Y83.757 E0.02392
G1 F1260 X168.092 Y83.479 E0.02349
G1 F1260 X168.142 Y83.182 E0.02411
G1 F1260 X168.144 Y82.884 E0.02386
G1 F1260 X168.101 Y82.589 E0.02387
G1 F1260 X168.018 Y82.326 E0.02208
G1 F1260 X162.369 Y68.369 E1.20536
G1 F1260 X162.116 Y67.943 E0.03966
G1 F1260 X161.839 Y67.618 E0.03419
G1 F1260 X161.507 Y67.333 E0.03503
G1 F1260 X161.330 Y67.205 E0.01749
G1 F12000 X161.259 Y67.647 
;TYPE:WALL-OUTER
G1 F1260 X160.714 Y67.253 E0.05384
G1 F1260 X160.173 Y66.805 E0.05623
G1 F1260 X167.456 Y66.805 E0.58303
G1 F1260 X175.494 Y86.697 E1.71752
G1 F1260 X167.673 Y86.013 E0.62849
G1 F1260 X166.989 Y84.318 E0.14632
G1 F1260 X167.213 Y84.164 E0.02176
G1 F1260 X167.378 Y84.002 E0.01851
G1 F1260 X167.521 Y83.810 E0.01916
G1 F1260 X167.629 Y83.601 E0.01883
G1 F1260 X167.703 Y83.382 E0.01851
G1 F1260 X167.742 Y83.147 E0.01907
G1 F1260 X167.744 Y82.911 E0.01889
G1 F1260 X167.710 Y82.678 E0.01885
G1 F1260 X162.010 Y68.547 E1.21980
G1 F1260 X161.789 Y68.176 E0.03457
G1 F1260 X161.555 Y67.901 E0.02891
G1 F1260 X161.259 Y67.647 E0.03122
G1 F12000 X162.547 Y68.383 
;TYPE:FILL
G1 F1260 X163.566 Y67.364 E0.11536
G1 F12000 X165.451 Y67.364 
G1 F1260 X163.090 Y69.725 E0.26730
G1 F12000 X163.634 Y71.067 
G1 F1260 X167.152 Y67.549 E0.39828
G1 F12000 X167.694 Y68.891 
G1 F1260 X164.177 Y72.409 E0.39823
G1 F12000 X164.720 Y73.751 
G1 F1260 X168.236 Y70.234 E0.39811
G1 F12000 X168.779 Y71.577 
G1 F1260 X165.263 Y75.093 E0.39806
G1 F12000 X165.806 Y76.435 
G1 F1260 X169.322 Y72.919 E0.39806
G1 F12000 X169.864 Y74.262 
G1 F1260 X166.349 Y77.777 E0.39794
G1 F12000 X166.892 Y79.119 
G1 F1260 X170.407 Y75.605 E0.39789
G1 F12000 X170.949 Y76.948 
G1 F1260 X167.436 Y80.460 E0.39766
G1 F12000 X167.979 Y81.803 
G1 F1260 X171.492 Y78.290 E0.39772
G1 F12000 X172.034 Y79.632 
G1 F1260 X168.268 Y83.399 E0.42642
G1 F12000 X168.067 Y85.485 
G1 F1260 X172.577 Y80.975 E0.51059
G1 F12000 X173.119 Y82.318 
G1 F1260 X169.800 Y85.637 E0.37575
G1 F12000 X171.534 Y85.789 
G1 F1260 X173.662 Y83.660 E0.24097
G1 F12000 X174.204 Y85.003 
G1 F1260 X173.267 Y85.941 E0.10614
G1 F12000 X173.412 Y85.953 
;TYPE:SKIN
G1 F1260 X173.699 Y85.665 E0.01912
G1 F1260 X174.331 Y85.317 E0.04880
G1 F1260 X174.193 Y86.021 E0.05427
G1 F1260 X174.576 Y85.921 E0.03169
G1 F12000 X173.656 Y85.144 
G1 F1260 X174.005 Y84.511 E0.04875
G1 F1260 X173.411 Y84.540 E0.04880
G1 F1260 X173.680 Y83.706 E0.04876
G1 F1260 X173.085 Y83.734 E0.04876
G1 F1260 X173.354 Y82.900 E0.04876
G1 F1260 X172.760 Y82.929 E0.04892
G1 F1260 X173.029 Y82.094 E0.04881
G1 F1260 X172.434 Y82.122 E0.04876
G1 F1260 X172.703 Y81.288 E0.04876
G1 F1260 X172.108 Y81.317 E0.04888
G1 F1260 X172.378 Y80.482 E0.04883
G1 F1260 X171.783 Y80.511 E0.04888
G1 F1260 X172.052 Y79.677 E0.04876
G1 F1260 X171.457 Y79.706 E0.04888
G1 F1260 X171.726 Y78.870 E0.04869
G1 F1260 X171.132 Y78.899 E0.04880
G1 F1260 X171.400 Y78.065 E0.04874
G1 F1260 X170.806 Y78.094 E0.04880
G1 F1260 X171.075 Y77.259 E0.04881
G1 F1260 X170.481 Y77.288 E0.04880
G1 F1260 X170.749 Y76.454 E0.04874
G1 F1260 X170.155 Y76.483 E0.04892
G1 F1260 X170.424 Y75.647 E0.04869
G1 F1260 X169.829 Y75.676 E0.04888
G1 F1260 X170.098 Y74.842 E0.04876
G1 F1260 X169.503 Y74.871 E0.04888
G1 F1260 X169.773 Y74.036 E0.04883
G1 F1260 X169.178 Y74.065 E0.04888
G1 F1260 X169.447 Y73.230 E0.04881
G1 F1260 X168.852 Y73.260 E0.04888
G1 F1260 X169.121 Y72.424 E0.04869
G1 F1260 X168.527 Y72.453 E0.04880
G1 F1260 X168.796 Y71.618 E0.04881
G1 F1260 X168.201 Y71.648 E0.04900
G1 F1260 X168.470 Y70.813 E0.04881
G1 F1260 X167.876 Y70.842 E0.04880
G1 F1260 X168.145 Y70.007 E0.04881
G1 F1260 X167.550 Y70.037 E0.04900
G1 F1260 X167.819 Y69.201 E0.04869
G1 F1260 X167.224 Y69.230 E0.04888
G1 F1260 X167.494 Y68.395 E0.04883
G1 F1260 X166.898 Y68.425 E0.04897
G1 F1260 X167.168 Y67.590 E0.04900
G1 F1260 X166.510 Y67.682 E0.04880
G1 F1260 X166.263 Y67.364 E0.02039
G1 F1260 X165.607 Y67.454 E0.02028
G1 F1260 X165.041 Y67.454 E0.02028
G1 F1260 X164.475 Y67.454 E0.02039
G1 F1260 X163.910 Y67.454 E0.02024
G1 F1260 X163.344 Y67.454 E0.02028
G1 F1260 X162.778 Y67.454 E0.02039
G1 F1260 X162.356 Y67.593 E0.02027
G1 F1260 X162.046 Y67.621 E0.01445
G1 F1260 X162.020 Y67.364 E0.02068
G1 F12000 X162.534 Y67.982 
G1 F1260 X162.566 Y68.232 E0.01463
G1 F1260 X162.741 Y68.623 E0.01552
G1 F1260 X162.904 Y69.026 E0.01549
G1 F1260 X163.067 Y69.428 E0.01545
G1 F1260 X163.230 Y69.831 E0.01549
G1 F1260 X163.393 Y70.234 E0.01540
G1 F1260 X163.556 Y70.637 E0.01540
G1 F1260 X163.719 Y71.039 E0.01545
G1 F1260 X163.881 Y71.442 E0.01556
G1 F1260 X164.045 Y71.844 E0.01538
G1 F1260 X164.208 Y72.247 E0.01557
G1 F1260 X164.371 Y72.650 E0.01557
G1 F1260 X164.534 Y73.053 E0.01557
G1 F1260 X164.697 Y73.455 E0.01563
G1 F1260 X164.860 Y73.858 E0.01557
G1 F1260 X165.023 Y74.260 E0.01563
G1 F1260 X165.186 Y74.663 E0.01557
G1 F1260 X165.349 Y75.066 E0.01557
G1 F1260 X165.512 Y75.469 E0.01557
G1 F1260 X165.675 Y75.871 E0.01563
G1 F1260 X165.838 Y76.274 E0.01557
G1 F1260 X166.001 Y76.677 E0.01557
G1 F1260 X166.164 Y77.080 E0.01557
G1 F1260 X166.327 Y77.482 E0.01563
G1 F1260 X166.490 Y77.885 E0.01557
G1 F1260 X166.653 Y78.287 E0.01563
G1 F1260 X166.816 Y78.690 E0.01557
G1 F1260 X166.979 Y79.093 E0.01557
G1 F1260 X167.141 Y79.496 E0.01556
G1 F1260 X167.305 Y79.898 E0.01547
G1 F1260 X167.467 Y80.301 E0.01556
G1 F1260 X167.631 Y80.704 E0.01541
G1 F1260 X167.793 Y81.107 E0.01556
G1 F1260 X167.957 Y81.509 E0.01547
G1 F1260 X168.119 Y81.912 E0.01556
G1 F1260 X168.275 Y82.323 E0.01548
G1 F1260 X168.374 Y82.789 E0.01697
G1 F1260 X168.354 Y83.375 E0.02042
G1 F1260 X168.008 Y84.286 E0.03530
G1 F1260 X167.934 Y84.926 E0.01560
G1 F1260 X168.079 Y85.347 E0.01559
G1 F1260 X168.555 Y85.436 E0.01890
G1 F1260 X169.075 Y85.482 E0.01901
G1 F1260 X169.595 Y85.527 E0.01891
G1 F1260 X170.116 Y85.573 E0.01895
G1 F1260 X170.636 Y85.618 E0.01901
G1 F1260 X171.156 Y85.664 E0.01912
G1 F1260 X171.676 Y85.710 E0.01891
G1 F1260 X172.196 Y85.755 E0.01912
G1 F1260 X172.717 Y85.800 E0.01915
G1 F1260 X173.061 Y85.739 E0.02797
;LAYER:4 height:1.100
M106 S232
G1 F12000 X174.904 Y86.243 Z1.100 
; Suppressed Tool Node -T start 95.67343613567927 T finish 115.1514622032379 ; Tool Node duration: 19.478026067558567
;TYPE:WALL-INNER
G1 F1080 X167.952 Y85.635 E0.55866
G1 F1080 X167.479 Y84.464 E0.10110
G1 F1080 X167.681 Y84.265 E0.02270
G1 F1080 X167.862 Y84.023 E0.02419
G1 F1080 X167.998 Y83.757 E0.02392
G1 F1080 X168.092 Y83.479 E0.02349
G1 F1080 X168.142 Y83.182 E0.02411
G1 F1080 X168.144 Y82.884 E0.02386
G1 F1080 X168.101 Y82.589 E0.02387
G1 F1080 X168.018 Y82.326 E0.02208
G1 F1080 X162.369 Y68.369 E1.20536
G1 F1080 X162.116 Y67.943 E0.03966
G1 F1080 X161.836 Y67.614 E0.03458
G1 F1080 X161.325 Y67.205 E0.05240
G1 F1080 X167.212 Y67.205 E0.47128
G1 F1080 X174.904 Y86.243
G1 F12000 X175.520 Y86.699 
;TYPE:WALL-OUTER
G1 F1080 X167.673 Y86.013 E0.63058
G1 F1080 X166.989 Y84.318 E0.14632
G1 F1080 X167.213 Y84.164 E0.02176
G1 F1080 X167.378 Y84.002 E0.01851
G1 F1080 X167.521 Y83.810 E0.01916
G1 F1080 X167.629 Y83.601 E0.01883
G1 F1080 X167.703 Y83.382 E0.01851
G1 F1080 X167.742 Y83.147 E0.01907
G1 F1080 X167.744 Y82.911 E0.01889
G1 F1080 X167.710 Y82.678 E0.01885
G1 F1080 X162.010 Y68.547 E1.21980
G1 F1080 X161.789 Y68.176 E0.03457
G1 F1080 X161.556 Y67.902 E0.02879
G1 F1080 X160.186 Y66.805 E0.14050
G1 F1080 X167.482 Y66.805 E0.58407
G1 F1080 X175.520 Y86.699 E1.71767
G1 F12000 X174.904 Y86.243 ; Travel to start of close
G1 F1080 X170.008 Y74.124 B0 ; End of copy close segment - backwards to start ab439d180b284996
G1 F12000 X173.630 Y85.971 
;TYPE:FILL
M109
G1 B1 F150 E0.30000
G1 F1080 X166.969 Y79.311 E0.75406
G1 F12000 X165.688 Y76.144 
G1 F1080 X174.016 Y84.472 E0.94284
G1 F12000 X171.564 Y85.791 
G1 F1080 X168.225 Y82.452 E0.37802
G1 F12000 X167.995 Y84.107 
G1 F1080 X169.498 Y85.610 E0.17016
G1 F12000 X172.738 Y81.309 
G1 F1080 X164.406 Y72.977 E0.94329
G1 F12000 X163.124 Y69.810 
G1 F1080 X171.459 Y78.145 E0.94363
G1 F12000 X170.182 Y74.983 
G1 F1080 X162.564 Y67.365 E0.86246
G1 F12000 X164.449 Y67.365 
G1 F1080 X167.545 Y70.461 E0.35046 ;Remainder pre close towards end  MORE REM
G1 F1080 X168.903 Y71.819 B0.49 ; Start of overwrite close towards end  PROC MORE START
G1 F12000 X167.626 Y68.656 
G1 F1080 X166.334 Y67.365 B0 ;  PROC LESS
G1 F12000 X106.221 Y75.401 
;TYPE:WALL-INNER
M109
G1 B1 F150 E0.30000
G1 F1080 X106.100 Y75.436 E0.01008
G1 F1080 X105.775 Y75.606 E0.02936
G1 F1080 X105.605 Y75.735 E0.01708
G1 F1080 X105.436 Y75.906 E0.01925
G1 F1080 X105.331 Y76.044 E0.01388
G1 F1080 X105.212 Y76.262 E0.01988
G1 F1080 X105.137 Y76.513 E0.02097
G1 F1080 X105.110 Y76.798 E0.02292
G1 F1080 X105.076 Y76.810 E0.00289
G1 F1080 X102.042 Y76.820 E0.24288
G1 F1080 X101.867 Y76.801 E0.01409
G1 F1080 X101.858 Y73.470 E0.26666
G1 F1080 X101.834 Y73.234 E0.01899
G1 F1080 X101.778 Y73.020 E0.01771
G1 F1080 X105.112 Y73.020 E0.26690
G1 F1080 X105.107 Y74.483 E0.11712
G1 F1080 X105.162 Y74.826 E0.02781
G1 F1080 X105.361 Y75.128 E0.02895
G1 F1080 X105.643 Y75.317 E0.02718
G1 F1080 X105.920 Y75.401 E0.02317
G1 F1080 X106.221 Y75.401 E0.02410
G1 F12000 X105.979 Y75.001 
;TYPE:WALL-OUTER
G1 F1080 X119.268 Y75.005 E1.06383
G1 F1080 X115.953 Y75.373 E0.26701
G1 F1080 X106.797 Y75.674 E0.73337
G1 F1080 X106.647 Y75.695 E0.01213
G1 F1080 X106.249 Y75.809 E0.03314
G1 F1080 X105.990 Y75.945 E0.02342
G1 F1080 X105.870 Y76.036 E0.01206
G1 F1080 X105.739 Y76.169 E0.01494
G1 F1080 X105.668 Y76.262 E0.00937
G1 F1080 X105.583 Y76.417 E0.01415
G1 F1080 X105.532 Y76.590 E0.01444
G1 F1080 X105.497 Y76.959 E0.02967
G1 F1080 X105.489 Y76.985 E0.00218
G1 F1080 X105.428 Y77.074 E0.00864
G1 F1080 X105.334 Y77.145 E0.00943
G1 F1080 X105.167 Y77.201 E0.01410
G1 F1080 X102.018 Y77.220 E0.25209
G1 F1080 X101.760 Y77.192 E0.02078
G1 F1080 X101.627 Y77.147 E0.01124
G1 F1080 X101.526 Y77.070 E0.01017
G1 F1080 X101.475 Y76.994 E0.00733
G1 F1080 X101.467 Y76.968 E0.00218
G1 F1080 X101.458 Y73.491 E0.27835
G1 F1080 X101.439 Y73.305 E0.01497
G1 F1080 X101.402 Y73.159 E0.01206
G1 F1080 X101.345 Y73.029 E0.01136
G1 F1080 X101.173 Y72.802 E0.02280
G1 F1080 X101.055 Y72.710 E0.01198
G1 F1080 X100.913 Y72.635 E0.01286
G1 F1080 X100.857 Y72.620 E0.00464
G1 F1080 X105.513 Y72.620 E0.37273
G1 F1080 X105.507 Y74.452 E0.14666
G1 F1080 X105.543 Y74.677 E0.01824
G1 F1080 X105.651 Y74.841 E0.01572
G1 F1080 X105.816 Y74.952 E0.01592
G1 F1080 X105.979 Y75.001 E0.01363
G1 F12000 X105.189 Y75.970 
;TYPE:FILL
G1 F1080 X102.398 Y73.179 E0.31598
G1 F12000 X102.019 Y74.686 
G1 F1080 X103.986 Y76.652 E0.22263
G1 F12000 X102.107 Y76.658 
G1 F1080 X102.025 Y76.576 E0.00928
G1 F12000 X104.948 Y73.844 
G1 F1080 X104.284 Y73.179 E0.07523
G1 F12000 X104.575 Y73.179 
;TYPE:SKIN
G1 F1080 X104.949 Y73.553 E0.04234
G1 F12000 X104.948 Y74.118 
G1 F1080 X104.332 Y73.503 E0.06968
G1 F12000 X104.333 Y74.069 
G1 F1080 X104.982 Y74.718 E0.07348
G1 F12000 X104.335 Y74.636 
G1 F1080 X105.406 Y75.708 E0.12131
G1 F12000 X105.158 Y76.025 
G1 F1080 X104.358 Y75.225 E0.09057
G1 F12000 X104.424 Y75.857 
G1 F1080 X104.994 Y76.427 E0.06453
G1 F12000 X104.651 Y76.650 
G1 F1080 X104.340 Y76.339 E0.03521
G1 F12000 X102.640 Y76.336 
G1 F1080 X102.023 Y75.719 E0.06985
G1 F12000 X102.024 Y76.286 
G1 F1080 X102.396 Y76.658 E0.04212
G1 F12000 X102.638 Y75.768 
G1 F1080 X102.021 Y75.151 E0.06985
G1 F12000 X102.019 Y74.584 
G1 F1080 X102.635 Y75.200 E0.06974
G1 F12000 X102.633 Y74.632 
G1 F1080 X102.018 Y74.017 E0.06963
G1 F12000 X102.015 Y73.448 
G1 F1080 X102.630 Y74.063 E0.06963
G1 F12000 X102.628 Y73.495 
G1 F1080 X102.312 Y73.179 E0.03578
G1 F12000 X105.921 Y75.398 
G1 F12000 X106.597 Y75.202 
G1 F1080 X107.015 Y75.336 E0.03048
G1 F1080 X107.572 Y75.327 E0.02832
G1 F1080 X108.128 Y75.318 E0.02626
G1 F1080 X108.685 Y75.309 E0.02430
G1 F1080 X109.241 Y75.300 E0.02226
G1 F1080 X109.798 Y75.291 E0.02018
G1 F1080 X110.355 Y75.283 E0.01817
G1 F1080 X110.912 Y75.273 E0.01617
G1 F1080 X111.469 Y75.265 E0.01416
G1 F1080 X112.025 Y75.255 E0.01202
G1 F1080 X112.344 Y75.292 E0.02571
;LAYER:5 height:1.300
M106 S204
G1 F12000 X112.340 Y75.151 Z1.300 
G1 F12000 X106.884 Y75.246 
; Suppressed Tool Node -T start 115.1514622032379 T finish 133.55719074813294 ; Tool Node duration: 18.40572854489518
;TYPE:WALL-INNER
G1 F1320 X106.138 Y75.416 E0.06125
G1 F1320 X106.138 Y75.510 E0.00753
G1 F1320 X105.998 Y75.585 E0.01271
G1 F1320 X105.647 Y75.880 E0.03670
G1 F1320 X105.464 Y76.143 E0.02565
G1 F1320 X105.365 Y76.355 E0.01873
G1 F1320 X105.298 Y76.595 E0.01995
G1 F1320 X105.283 Y76.807 E0.01701
G1 F1320 X105.264 Y76.814 E0.00162
G1 F1320 X101.719 Y76.814 E0.28379
G1 F1320 X101.688 Y76.806 E0.00256
G1 F1320 X101.695 Y73.701 E0.24857
G1 F1320 X101.670 Y73.388 E0.02514
G1 F1320 X101.600 Y73.142 E0.02047
G1 F1320 X101.530 Y73.020 E0.01126
G1 F1320 X105.267 Y73.020 E0.29916
G1 F1320 X105.266 Y74.290 E0.10167
G1 F1320 X105.314 Y74.576 E0.02322
G1 F1320 X105.454 Y74.855 E0.02499
G1 F1320 X105.687 Y75.082 E0.02604
G1 F1320 X105.955 Y75.199 E0.02341
G1 F1320 X106.142 Y75.236 E0.01526
G1 F1320 X107.159 Y75.236 E0.08141
G1 F1320 X106.884 Y75.246 E0.02203
G1 F12000 X106.936 Y75.645 
;TYPE:WALL-OUTER
G1 F1320 X106.538 Y75.735 E0.03267
G1 F1320 X106.538 Y75.761 E0.00208
G1 F1320 X106.465 Y75.789 E0.00626
G1 F1320 X106.223 Y75.918 E0.02195
G1 F1320 X105.945 Y76.152 E0.02909
G1 F1320 X105.812 Y76.343 E0.01863
G1 F1320 X105.742 Y76.494 E0.01332
G1 F1320 X105.694 Y76.664 E0.01414
G1 F1320 X105.673 Y76.959 E0.02368
G1 F1320 X105.642 Y77.030 E0.00620
G1 F1320 X105.538 Y77.129 E0.01149
G1 F1320 X105.370 Y77.201 E0.01463
G1 F1320 X105.296 Y77.214 E0.00601
G1 F1320 X101.668 Y77.214 E0.29044
G1 F1320 X101.483 Y77.163 E0.01536
G1 F1320 X101.391 Y77.106 E0.00866
G1 F1320 X101.317 Y77.026 E0.00872
G1 F1320 X101.297 Y76.991 E0.00323
G1 F1320 X101.288 Y76.961 E0.00251
G1 F1320 X101.295 Y73.716 E0.25978
G1 F1320 X101.275 Y73.460 E0.02056
G1 F1320 X101.229 Y73.299 E0.01340
G1 F1320 X101.090 Y73.058 E0.02227
G1 F1320 X100.980 Y72.943 E0.01274
G1 F1320 X100.785 Y72.818 E0.01854
G1 F1320 X100.485 Y72.733 E0.02496
G1 F1320 X73.940 Y72.708 E2.12503
G1 F1320 X73.680 Y72.679 E0.02094
G1 F1320 X73.680 Y72.620 E0.00472
G1 F1320 X105.667 Y72.620 E2.56068
G1 F1320 X105.666 Y74.257 E0.13105
G1 F1320 X105.699 Y74.451 E0.01575
G1 F1320 X105.781 Y74.616 E0.01475
G1 F1320 X105.914 Y74.745 E0.01483
G1 F1320 X106.075 Y74.815 E0.01405
G1 F1320 X106.181 Y74.836 E0.00865
G1 F1320 X120.917 Y74.838 E1.17967
G1 F1320 X120.192 Y74.968 E0.05896
G1 F1320 X117.836 Y75.253 E0.18998
G1 F1320 X106.936 Y75.645 E0.87315
G1 F12000 X106.926 Y75.346 
G1 F12000 X105.241 Y74.790 
;TYPE:FILL
G1 F1320 X103.378 Y76.653 E0.21092
G1 F12000 X101.848 Y76.298 
G1 F1320 X104.967 Y73.179 E0.35311
G1 F12000 X103.082 Y73.179 
G1 F1320 X101.853 Y74.408 E0.13914
G1 F12000 X101.853 Y74.357 
;TYPE:SKIN
G1 F1320 X102.092 Y73.835 E0.05389
G1 F1320 X102.113 Y73.248 E0.05349
G1 F1320 X101.804 Y73.274 E0.02482
G1 F12000 X102.332 Y74.444 
G1 F1320 X102.092 Y74.966 E0.05439
G1 F1320 X102.093 Y75.531 E0.05473
G1 F1320 X102.093 Y76.096 E0.05529
G1 F1320 X101.847 Y76.626 E0.04678
G1 F12000 X104.648 Y76.653 
G1 F1320 X105.515 Y75.786 E0.09816
G1 F12000 X105.551 Y75.750 
G1 F1320 X105.942 Y75.359 E0.04427
G1 F12000 X105.557 Y75.178 
G1 F1320 X104.762 Y75.974 E0.09006
G1 F12000 X104.799 Y75.371 
G1 F1320 X105.210 Y74.676 E0.05527
G1 F1320 X104.636 Y74.968 E0.05155
G1 F12000 X107.577 Y75.422 
G1 F1320 X108.063 Y75.218 E0.04357
G1 F1320 X108.639 Y75.207 E0.04105
G1 F1320 X109.150 Y75.198 E0.03435 ;Remainder pre close towards end  MORE REM
G1 F1320 X109.215 Y75.197 B0.99 ; Start of overwrite close towards end  PROC MORE START
G1 F1320 X109.792 Y75.186 B0.86 ;  PROC LESS
G1 F1320 X110.368 Y75.176 B0.75 ;  PROC LESS
G1 F1320 X110.944 Y75.165 B0.65 ;  PROC LESS
G1 F1320 X111.520 Y75.155 B0.55 ;  PROC LESS
G1 F1320 X112.096 Y75.144 B0.46 ;  PROC LESS
G1 F1320 X112.673 Y75.133 B0.38 ;  PROC LESS
G1 F1320 X113.249 Y75.123 B0.3 ;  PROC LESS
G1 F1320 X113.825 Y75.113 B0.24 ;  PROC LESS
G1 F1320 X114.401 Y75.102 B0.18 ;  PROC LESS
G1 F1320 X114.978 Y75.091 B0.13 ;  PROC LESS
G1 F1320 X115.554 Y75.081 B0.09 ;  PROC LESS
G1 F1320 X115.882 Y75.036 B0 ;  PROC LESS
G1 F12000 X161.325 Y67.205 
;TYPE:WALL-INNER
M109
G1 B1 F150 E0.30000
G1 F1320 X167.202 Y67.205 E0.47048
G1 F1320 X174.903 Y86.243 E1.64403
G1 F1320 X167.952 Y85.635 E0.55858
G1 F1320 X167.479 Y84.464 E0.10110
G1 F1320 X167.681 Y84.265 E0.02270
G1 F1320 X167.862 Y84.023 E0.02419
G1 F1320 X167.998 Y83.757 E0.02392
G1 F1320 X168.092 Y83.479 E0.02349
G1 F1320 X168.142 Y83.182 E0.02411
G1 F1320 X168.144 Y82.884 E0.02386
G1 F1320 X168.101 Y82.589 E0.02387
G1 F1320 X168.018 Y82.326 E0.02208
G1 F1320 X162.369 Y68.369 E1.20536
G1 F1320 X162.116 Y67.943 E0.03966
G1 F1320 X161.836 Y67.614 E0.03458
G1 F1320 X161.325 Y67.205 E0.05240
G1 F12000 X161.556 Y67.902 
;TYPE:WALL-OUTER
G1 F1320 X160.186 Y66.805 E0.14050
G1 F1320 X167.472 Y66.805 E0.58327
G1 F1320 X175.519 Y86.699 E1.71794
G1 F1320 X167.673 Y86.013 E0.63050
G1 F1320 X166.989 Y84.318 E0.14632
G1 F1320 X167.213 Y84.164 E0.02176
G1 F1320 X167.378 Y84.002 E0.01851
G1 F1320 X167.521 Y83.810 E0.01916
G1 F1320 X167.629 Y83.601 E0.01883
G1 F1320 X167.703 Y83.382 E0.01851
G1 F1320 X167.742 Y83.147 E0.01907
G1 F1320 X167.744 Y82.911 E0.01889
G1 F1320 X167.710 Y82.678 E0.01885
G1 F1320 X162.010 Y68.547 E1.21980
G1 F1320 X161.789 Y68.176 E0.03457
G1 F1320 X161.556 Y67.902 E0.02879
G1 F12000 X162.547 Y68.383 
;TYPE:FILL
G1 F1320 X163.566 Y67.364 E0.11536
G1 F12000 X165.451 Y67.364 
G1 F1320 X163.090 Y69.725 E0.26730
G1 F12000 X163.634 Y71.067 
G1 F1320 X167.163 Y67.537 E0.39959
G1 F12000 X167.706 Y68.879 
G1 F1320 X164.177 Y72.409 E0.39959
G1 F12000 X164.720 Y73.751 
G1 F1320 X168.249 Y70.222 E0.39953
G1 F12000 X168.792 Y71.564 
G1 F1320 X165.263 Y75.093 E0.39953
G1 F12000 X165.806 Y76.435 
G1 F1320 X169.335 Y72.906 E0.39953
G1 F12000 X169.878 Y74.249 
G1 F1320 X166.349 Y77.777 E0.39947
G1 F12000 X166.892 Y79.119 
G1 F1320 X170.421 Y75.591 E0.39947
G1 F12000 X170.964 Y76.933 
G1 F1320 X167.436 Y80.460 E0.39936
G1 F12000 X167.979 Y81.803 
G1 F1320 X171.506 Y78.276 E0.39930
G1 F12000 X172.049 Y79.618 
G1 F1320 X168.268 Y83.399 E0.42806
G1 F12000 X168.067 Y85.485 
G1 F1320 X172.592 Y80.960 E0.51229
G1 F12000 X173.135 Y82.302 
G1 F1320 X169.800 Y85.637 E0.37757
G1 F12000 X171.534 Y85.789 
G1 F1320 X173.678 Y83.644 E0.24279
G1 F12000 X174.221 Y84.987 
G1 F1320 X173.267 Y85.941 E0.10801
;LAYER:6 height:1.500
M106 S198
G1 F12000 X174.904 Y86.243 Z1.500 
; Suppressed Tool Node -T start 133.55719074813294 T finish 153.35479091792257 ; Tool Node duration: 19.797600169789593
;TYPE:WALL-INNER
G1 F1380 X167.952 Y85.635 E0.55866
G1 F1380 X167.479 Y84.464 E0.10110
G1 F1380 X167.681 Y84.265 E0.02270
G1 F1380 X167.862 Y84.023 E0.02419
G1 F1380 X167.998 Y83.757 E0.02392
G1 F1380 X168.092 Y83.479 E0.02349
G1 F1380 X168.142 Y83.182 E0.02411
G1 F1380 X168.144 Y82.884 E0.02386
G1 F1380 X168.101 Y82.589 E0.02387
G1 F1380 X168.018 Y82.326 E0.02208
G1 F1380 X162.467 Y68.588 E1.18616
G1 F1380 X162.122 Y67.950 E0.05806
G1 F1380 X161.840 Y67.619 E0.03481
G1 F1380 X161.330 Y67.205 E0.05259
G1 F1380 X167.204 Y67.205 E0.47024
G1 F1380 X174.904 Y86.243
G1 F12000 X175.520 Y86.699 
;TYPE:WALL-OUTER
G1 F1380 X167.673 Y86.013 E0.63058
G1 F1380 X166.989 Y84.318 E0.14632
G1 F1380 X167.213 Y84.164 E0.02176
G1 F1380 X167.378 Y84.002 E0.01851
G1 F1380 X167.521 Y83.810 E0.01916
G1 F1380 X167.629 Y83.601 E0.01883
G1 F1380 X167.703 Y83.382 E0.01851
G1 F1380 X167.742 Y83.147 E0.01907
G1 F1380 X167.744 Y82.911 E0.01889
G1 F1380 X167.710 Y82.678 E0.01885
G1 F1380 X162.104 Y68.759 E1.20125
G1 F1380 X161.790 Y68.177 E0.05294
G1 F1380 X161.555 Y67.902 E0.02896
G1 F1380 X161.259 Y67.647 E0.03128
G1 F1380 X160.714 Y67.253 E0.05384
G1 F1380 X160.173 Y66.805 E0.05623
G1 F1380 X167.474 Y66.805 E0.58447
G1 F1380 X175.520 Y86.699 E1.71791
G1 F12000 X174.904 Y86.243 ; Travel to start of close
G1 F1380 X169.992 Y74.097 B0 ; End of copy close segment - backwards to start d535857a57f945a7
G1 F12000 X173.630 Y85.971 
;TYPE:FILL
M109
G1 B1 F150 E0.30000
G1 F1380 X166.973 Y79.314 E0.75366
G1 F12000 X165.694 Y76.150 
G1 F1380 X174.015 Y84.471 E0.94205
G1 F12000 X171.564 Y85.791 
G1 F1380 X168.225 Y82.452 E0.37802
G1 F12000 X167.995 Y84.107 
G1 F1380 X169.498 Y85.610 E0.17016
G1 F12000 X172.734 Y81.305 
G1 F1380 X164.415 Y72.986 E0.94182
G1 F12000 X163.137 Y69.823 
G1 F1380 X171.455 Y78.140 E0.94165
G1 F12000 X170.174 Y74.975 
G1 F1380 X162.563 Y67.364 E0.86167
G1 F12000 X164.448 Y67.364 
G1 F1380 X167.525 Y70.441 E0.34832 ;Remainder pre close towards end  MORE REM
G1 F1380 X168.894 Y71.810 B0.48 ; Start of overwrite close towards end  PROC MORE START
G1 F12000 X167.614 Y68.645 
G1 F1380 X166.334 Y67.364 B0 ;  PROC LESS
G1 F12000 X110.961 Y75.070 
;TYPE:WALL-INNER
M109
G1 B1 F150 E0.30000
G1 F1380 X107.014 Y75.166 E0.31607
G1 F1380 X106.454 Y75.363 E0.04752
G1 F1380 X106.033 Y75.636 E0.04017
G1 F1380 X105.782 Y75.889 E0.02853
G1 F1380 X105.632 Y76.100 E0.02072
G1 F1380 X105.510 Y76.345 E0.02191
G1 F1380 X105.441 Y76.593 E0.02061
G1 F1380 X105.416 Y76.814 E0.01780
G1 F1380 X101.561 Y76.811 E0.30861
G1 F1380 X101.551 Y73.905 E0.23264
G1 F1380 X101.495 Y73.514 E0.03162
G1 F1380 X101.427 Y73.298 E0.01813
G1 F1380 X101.333 Y73.103 E0.01733
G1 F1380 X101.268 Y73.020 E0.00844
G1 F1380 X105.411 Y73.020 E0.33166
G1 F1380 X105.403 Y74.086 E0.08534
G1 F1380 X105.452 Y74.418 E0.02687
G1 F1380 X105.608 Y74.707 E0.02629
G1 F1380 X105.790 Y74.880 E0.02010
G1 F1380 X106.012 Y75.008 E0.02051
G1 F1380 X106.298 Y75.069 E0.02341
G1 F1380 X110.961 Y75.070 E0.37329
G1 F12000 X107.080 Y75.266 
G1 F12000 X107.087 Y75.565 
;TYPE:WALL-OUTER
G1 F1380 X106.631 Y75.724 E0.03866
G1 F1380 X106.287 Y75.948 E0.03286
G1 F1380 X106.089 Y76.148 E0.02253
G1 F1380 X105.976 Y76.306 E0.01555
G1 F1380 X105.885 Y76.488 E0.01629
G1 F1380 X105.835 Y76.670 E0.01511
G1 F1380 X105.792 Y76.997 E0.02640
G1 F1380 X105.739 Y77.084 E0.00816
G1 F1380 X105.664 Y77.150 E0.00800
G1 F1380 X105.542 Y77.202 E0.01062
G1 F1380 X105.474 Y77.214 E0.00553
G1 F1380 X101.469 Y77.211 E0.32062
G1 F1380 X101.415 Y77.201 E0.00440
G1 F1380 X101.299 Y77.151 E0.01011
G1 F1380 X101.225 Y77.090 E0.00768
G1 F1380 X101.162 Y76.974 E0.01057
G1 F1380 X101.151 Y73.934 E0.24337
G1 F1380 X101.104 Y73.603 E0.02676
G1 F1380 X101.054 Y73.446 E0.01319
G1 F1380 X100.992 Y73.316 E0.01153
G1 F1380 X100.878 Y73.172 E0.01470
G1 F1380 X100.668 Y73.010 E0.02123
G1 F1380 X100.483 Y72.935 E0.01598
G1 F1380 X100.187 Y72.891 E0.02396
G1 F1380 X74.530 Y72.876 E2.05394
G1 F1380 X73.993 Y72.811 E0.04330
G1 F1380 X73.680 Y72.754 E0.02547
G1 F1380 X73.680 Y72.620 E0.01073
G1 F1380 X105.814 Y72.620 E2.57245
G1 F1380 X105.803 Y74.058 E0.11512
G1 F1380 X105.837 Y74.289 E0.01869
G1 F1380 X105.930 Y74.461 E0.01565
G1 F1380 X106.031 Y74.557 E0.01116
G1 F1380 X106.157 Y74.630 E0.01166
G1 F1380 X106.340 Y74.669 E0.01498
G1 F1380 X122.474 Y74.671 E1.29159
G1 F1380 X120.449 Y75.009 E0.16435
G1 F1380 X117.287 Y75.315 E0.25431
G1 F1380 X107.087 Y75.565 E0.81679
G1 F12000 X107.080 Y75.266 
G1 F12000 X106.454 Y75.364 
G1 F12000 X105.409 Y76.190 
;TYPE:FILL
G1 F1380 X102.399 Y73.180 E0.34077
G1 F12000 X101.711 Y74.377 
G1 F1380 X103.986 Y76.652 E0.25756
G1 F12000 X102.099 Y76.651 
G1 F1380 X101.718 Y76.269 E0.04319
G1 F12000 X104.284 Y73.180 
G1 F1380 X105.250 Y74.145 E0.10931
G1 F12000 X105.244 Y73.848 
;TYPE:SKIN
G1 F1380 X105.002 Y73.324 E0.04297
G1 F1380 X105.248 Y73.287 E0.01991
G1 F12000 X104.863 Y74.034 
G1 F1380 X105.295 Y74.466 E0.04891
G1 F12000 X104.863 Y74.599 
G1 F1380 X105.853 Y75.589 E0.11208
G1 F12000 X105.586 Y75.888 
G1 F1380 X105.224 Y75.809 E0.02581
G1 F1380 X105.300 Y76.450 E0.03268
G1 F1380 X105.025 Y76.377 E0.02275 ;Remainder pre close towards end  MORE REM
G1 F1380 X104.914 Y76.347 B0.97 ; Start of overwrite close towards end  PROC MORE START
G1 F12000 X105.999 Y75.169 
G1 F1380 X106.179 Y75.349 B0.9 ;  PROC LESS
G1 F12000 X102.088 Y75.218 
G1 F1380 X101.901 Y74.748 B0.76 ;  PROC LESS
G1 F1380 X101.900 Y74.182 B0.62 ;  PROC LESS
G1 F1380 X101.885 Y73.600 B0.46 ;  PROC LESS
G1 F1380 X101.747 Y73.179 B0.34 ;  PROC LESS
G1 F12000 X101.715 Y75.410 
G1 F1380 X101.901 Y75.880 B0.2 ;  PROC LESS
G1 F1380 X101.955 Y76.499 B0.06 ;  PROC LESS
G1 F1380 X101.718 Y76.545 B0 ;  PROC LESS
G1 F12000 X111.357 Y74.870 
T1; Reselect nozzle
M109
G1 B1 F150 E0.30000
G1 F1380 X111.829 Y75.060 E0.04307
G1 F1380 X112.388 Y75.053 E0.04140
G1 F1380 X112.947 Y75.046 E0.03994
G1 F1380 X113.506 Y75.039 E0.03826
G1 F1380 X114.065 Y75.033 E0.03681
G1 F1380 X114.624 Y75.026 E0.03536
G1 F1380 X115.183 Y75.020 E0.03368
G1 F1380 X115.742 Y75.013 E0.03211
G1 F1380 X116.301 Y75.006 E0.03066
G1 F1380 X116.860 Y74.999 E0.02898
G1 F1380 X117.419 Y74.993 E0.02752
G1 F1380 X117.960 Y74.968 E0.02200
G1 F1380 X118.501 Y74.943 E0.01637
G1 F1380 X118.807 Y74.966 E0.02457
;LAYER:7 height:1.700
M106 S193
G1 F12000 X114.993 Y74.903 Z1.700 
; Suppressed Tool Node -T start 153.35479091792257 T finish 172.21133949072714 ; Tool Node duration: 18.856548572804662
;TYPE:WALL-INNER
G1 F1380 X107.366 Y75.009 E0.61063
G1 F1380 X107.122 Y75.038 E0.01967
G1 F1380 X106.832 Y75.121 E0.02415
G1 F1380 X106.538 Y75.270 E0.02639
G1 F1380 X106.102 Y75.608 E0.04416
G1 F1380 X105.899 Y75.836 E0.02444
G1 F1380 X105.722 Y76.111 E0.02618
G1 F1380 X105.627 Y76.324 E0.01867
G1 F1380 X105.555 Y76.580 E0.02129
G1 F1380 X105.535 Y76.814 E0.01880
G1 F1380 X101.439 Y76.816 E0.32790
G1 F1380 X101.444 Y74.149 E0.21350
G1 F1380 X101.419 Y73.823 E0.02617
G1 F1380 X101.293 Y73.437 E0.03251
G1 F1380 X101.171 Y73.228 E0.01937
G1 F1380 X100.985 Y73.020 E0.02234
G1 F1380 X105.524 Y73.020 E0.36336
G1 F1380 X105.527 Y73.895 E0.07005
G1 F1380 X105.567 Y74.146 E0.02035
G1 F1380 X105.668 Y74.432 E0.02428
G1 F1380 X105.872 Y74.668 E0.02497
G1 F1380 X106.030 Y74.781 E0.01555
G1 F1380 X106.192 Y74.851 E0.01413
G1 F1380 X106.349 Y74.891 E0.01297
G1 F1380 X114.993 Y74.903 E0.69199
G1 F12000 X117.599 Y74.966 
G1 F12000 X117.615 Y75.266 
;TYPE:WALL-OUTER
G1 F1380 X107.393 Y75.408 E0.81839
G1 F1380 X107.201 Y75.431 E0.01548
G1 F1380 X106.979 Y75.495 E0.01850
G1 F1380 X106.753 Y75.609 E0.02026
G1 F1380 X106.377 Y75.901 E0.03811
G1 F1380 X106.218 Y76.079 E0.01911
G1 F1380 X106.075 Y76.302 E0.02121
G1 F1380 X106.004 Y76.460 E0.01387
G1 F1380 X105.950 Y76.652 E0.01597
G1 F1380 X105.924 Y76.960 E0.02474
G1 F1380 X105.884 Y77.057 E0.00840
G1 F1380 X105.832 Y77.116 E0.00630
G1 F1380 X105.727 Y77.181 E0.00989
G1 F1380 X105.609 Y77.214 E0.00981
G1 F1380 X101.377 Y77.216 E0.33879
G1 F1380 X101.236 Y77.181 E0.01163
G1 F1380 X101.115 Y77.103 E0.01152
G1 F1380 X101.039 Y76.977 E0.01178
G1 F1380 X101.044 Y74.164 E0.22519
G1 F1380 X101.024 Y73.902 E0.02104
G1 F1380 X100.926 Y73.602 E0.02527
G1 F1380 X100.842 Y73.459 E0.01328
G1 F1380 X100.742 Y73.340 E0.01244
G1 F1380 X100.627 Y73.238 E0.01231
G1 F1380 X100.494 Y73.158 E0.01242
G1 F1380 X100.343 Y73.100 E0.01295
G1 F1380 X100.174 Y73.067 E0.01378
G1 F1380 X75.076 Y73.039 E2.00919
G1 F1380 X74.432 Y72.955 E0.05199
G1 F1380 X73.737 Y72.813 E0.05679
G1 F1380 X73.680 Y72.797 E0.00474
G1 F1380 X73.680 Y72.620 E0.01417
G1 F1380 X105.923 Y72.620 E2.58117
G1 F1380 X105.927 Y73.863 E0.09951
G1 F1380 X105.956 Y74.047 E0.01491
G1 F1380 X106.020 Y74.228 E0.01537
G1 F1380 X106.143 Y74.370 E0.01504
G1 F1380 X106.227 Y74.430 E0.00826
G1 F1380 X106.416 Y74.495 E0.01600
G1 F1380 X106.512 Y74.503 E0.00771
G1 F1380 X123.766 Y74.502 E1.38125
G1 F1380 X122.667 Y74.732 E0.08989
G1 F1380 X120.701 Y75.017 E0.15903
G1 F1380 X117.615 Y75.266 E0.24785
G1 F12000 X117.599 Y74.966 
G1 F12000 X106.031 Y74.779 
G1 F12000 X105.524 Y74.507 
;TYPE:FILL
G1 F1380 X103.376 Y76.655 E0.24318
G1 F12000 X101.599 Y76.547 
G1 F1380 X104.967 Y73.179 E0.38130
G1 F12000 X103.082 Y73.179 
G1 F1380 X101.602 Y74.659 E0.16756
G1 F12000 X105.262 Y76.654 
G1 F1380 X105.407 Y76.509 E0.01642
G1 F12000 X105.872 Y75.429 
;TYPE:SKIN
G1 F1380 X106.069 Y74.949 E0.04465
G1 F1380 X105.342 Y75.111 E0.04442
G1 F1380 X105.499 Y74.388 E0.04309
G1 F1380 X105.071 Y74.250 E0.03825
G1 F1380 X105.217 Y73.538 E0.03360
G1 F1380 X105.293 Y73.179 E0.02938
G1 F12000 X101.867 Y73.211 
G1 F1380 X101.701 Y73.660 E0.04091
G1 F1380 X101.747 Y74.179 E0.03399
G1 F1380 X101.751 Y74.742 E0.03358
G1 F1380 X101.751 Y75.307 E0.03370
G1 F1380 X101.751 Y75.872 E0.03392
G1 F1380 X101.751 Y76.438 E0.03432
G1 F1380 X101.817 Y76.656 E0.01823
G1 F12000 X107.366 Y75.009 
G1 F12000 X115.252 Y74.998 
G1 F12000 X115.253 Y75.099 
G1 F1380 X115.738 Y74.896 E0.04493
G1 F1380 X115.852 Y74.895 E0.00878 ;Remainder pre close towards end  MORE REM
G1 F1380 X116.308 Y74.892 B0.88 ; Start of overwrite close towards end  PROC MORE START
G1 F1380 X116.878 Y74.888 B0.74 ;  PROC LESS
G1 F1380 X117.447 Y74.884 B0.6 ;  PROC LESS
G1 F1380 X118.036 Y74.861 B0.46 ;  PROC LESS
G1 F1380 X118.626 Y74.837 B0.34 ;  PROC LESS
G1 F1380 X119.217 Y74.812 B0.24 ;  PROC LESS
G1 F1380 X119.807 Y74.787 B0.16 ;  PROC LESS
G1 F1380 X120.398 Y74.762 B0.09 ;  PROC LESS
G1 F1380 X120.742 Y74.702 B0 ;  PROC LESS
G1 F12000 X161.325 Y67.205 
;TYPE:WALL-INNER
M109
G1 B1 F150 E0.30000
G1 F1380 X167.207 Y67.205 E0.47088
G1 F1380 X174.904 Y86.243 E1.64391
G1 F1380 X167.952 Y85.635 E0.55866
G1 F1380 X167.479 Y84.464 E0.10110
G1 F1380 X167.681 Y84.265 E0.02270
G1 F1380 X167.875 Y84.003 E0.02610
G1 F1380 X168.088 Y83.503 E0.04351
G1 F1380 X168.142 Y83.181 E0.02614
G1 F1380 X168.144 Y82.884 E0.02378
G1 F1380 X168.101 Y82.589 E0.02387
G1 F1380 X168.018 Y82.326 E0.02208
G1 F1380 X162.369 Y68.369 E1.20536
G1 F1380 X162.116 Y67.943 E0.03966
G1 F1380 X161.836 Y67.614 E0.03458
G1 F1380 X161.325 Y67.205 E0.05240
G1 F12000 X161.556 Y67.902 
;TYPE:WALL-OUTER
G1 F1380 X160.186 Y66.805 E0.14050
G1 F1380 X167.477 Y66.805 E0.58367
G1 F1380 X175.520 Y86.699 E1.71782
G1 F1380 X167.673 Y86.013 E0.63058
G1 F1380 X166.989 Y84.318 E0.14632
G1 F1380 X167.213 Y84.164 E0.02176
G1 F1380 X167.378 Y84.002 E0.01851
G1 F1380 X167.526 Y83.803 E0.01985
G1 F1380 X167.701 Y83.390 E0.03591
G1 F1380 X167.742 Y83.146 E0.01981
G1 F1380 X167.744 Y82.911 E0.01881
G1 F1380 X167.710 Y82.678 E0.01885
G1 F1380 X162.010 Y68.547 E1.21980
G1 F1380 X161.789 Y68.176 E0.03457
G1 F1380 X161.556 Y67.902 E0.02879
G1 F12000 X162.547 Y68.383 
;TYPE:FILL
G1 F1380 X163.566 Y67.364 E0.11536
G1 F12000 X165.451 Y67.364 
G1 F1380 X163.090 Y69.725 E0.26730
G1 F12000 X163.634 Y71.067 
G1 F1380 X167.167 Y67.534 E0.39998
G1 F12000 X167.710 Y68.876 
G1 F1380 X164.177 Y72.409 E0.39998
G1 F12000 X164.720 Y73.751 
G1 F1380 X168.252 Y70.219 E0.39987
G1 F12000 X168.795 Y71.561 
G1 F1380 X165.263 Y75.093 E0.39987
G1 F12000 X165.806 Y76.435 
G1 F1380 X169.337 Y72.904 E0.39976
G1 F12000 X169.880 Y74.246 
G1 F1380 X166.349 Y77.777 E0.39976
G1 F12000 X166.892 Y79.119 
G1 F1380 X170.423 Y75.589 E0.39970
G1 F12000 X170.966 Y76.931 
G1 F1380 X167.436 Y80.460 E0.39959
G1 F12000 X167.979 Y81.803 
G1 F1380 X171.508 Y78.273 E0.39959
G1 F12000 X172.051 Y79.615 
G1 F1380 X168.268 Y83.399 E0.42834
G1 F12000 X168.067 Y85.485 
G1 F1380 X172.594 Y80.958 E0.51252
G1 F12000 X173.137 Y82.300 
G1 F1380 X169.800 Y85.637 E0.37779
G1 F12000 X171.534 Y85.789 
G1 F1380 X173.679 Y83.643 E0.24290
G1 F12000 X174.222 Y84.985 
G1 F1380 X173.267 Y85.941 E0.10818
;LAYER:8 height:1.900
M106 S183
G1 F12000 X174.904 Y86.243 Z1.900 
; Suppressed Tool Node -T start 172.21133949072714 T finish 192.93064326688216 ; Tool Node duration: 20.71930377615511
;TYPE:WALL-INNER
G1 F1500 X167.952 Y85.635 E0.55866
G1 F1500 X167.480 Y84.466 E0.10092
G1 F1500 X167.851 Y84.045 E0.04492
G1 F1500 X167.998 Y83.757 E0.02589
G1 F1500 X168.092 Y83.479 E0.02349
G1 F1500 X168.142 Y83.182 E0.02411
G1 F1500 X168.144 Y82.884 E0.02386
G1 F1500 X168.101 Y82.589 E0.02387
G1 F1500 X168.018 Y82.326 E0.02208
G1 F1500 X162.369 Y68.369 E1.20536
G1 F1500 X162.116 Y67.943 E0.03966
G1 F1500 X161.839 Y67.618 E0.03419
G1 F1500 X161.507 Y67.333 E0.03503
G1 F1500 X161.330 Y67.205 E0.01749
G1 F1500 X167.209 Y67.205 E0.47064
G1 F1500 X174.904 Y86.243
G1 F12000 X175.520 Y86.699 
;TYPE:WALL-OUTER
G1 F1500 X167.673 Y86.013 E0.63058
G1 F1500 X166.989 Y84.318 E0.14632
G1 F1500 X167.220 Y84.160 E0.02240
G1 F1500 X167.517 Y83.819 E0.03620
G1 F1500 X167.629 Y83.601 E0.01962
G1 F1500 X167.703 Y83.382 E0.01851
G1 F1500 X167.742 Y83.147 E0.01907
G1 F1500 X167.744 Y82.911 E0.01889
G1 F1500 X167.710 Y82.678 E0.01885
G1 F1500 X162.010 Y68.547 E1.21980
G1 F1500 X161.789 Y68.176 E0.03457
G1 F1500 X161.555 Y67.901 E0.02891
G1 F1500 X161.259 Y67.647 E0.03122
G1 F1500 X160.714 Y67.253 E0.05384
G1 F1500 X160.173 Y66.805 E0.05623
G1 F1500 X167.479 Y66.805 E0.58487
G1 F1500 X175.520 Y86.699 E1.71776
G1 F12000 X174.904 Y86.243 ; Travel to start of close
G1 F1500 X169.999 Y74.108 B0 ; End of copy close segment - backwards to start 208fbc39531845eb
G1 F12000 X173.630 Y85.971 
;TYPE:FILL
M109
G1 B1 F150 E0.30000
G1 F1500 X166.969 Y79.311 E0.75406
G1 F12000 X165.688 Y76.144 
G1 F1500 X174.015 Y84.471 E0.94273
G1 F12000 X171.564 Y85.791 
G1 F1500 X168.225 Y82.452 E0.37802
G1 F12000 X167.996 Y84.108 
G1 F1500 X169.498 Y85.610 E0.17005
G1 F12000 X172.736 Y81.308 
G1 F1500 X164.406 Y72.977 E0.94312
G1 F12000 X163.124 Y69.810 
G1 F1500 X171.457 Y78.143 E0.94341
G1 F12000 X170.179 Y74.980 
G1 F1500 X162.564 Y67.365 E0.86212
G1 F12000 X164.449 Y67.365 
G1 F1500 X167.537 Y70.452 E0.34957 ;Remainder pre close towards end  MORE REM
G1 F1500 X168.900 Y71.815 B0.49 ; Start of overwrite close towards end  PROC MORE START
G1 F12000 X167.621 Y68.652 
G1 F1500 X166.334 Y67.365 B0 ;  PROC LESS
G1 F12000 X117.415 Y74.734 
;TYPE:WALL-INNER
M109
G1 B1 F150 E0.30000
G1 F1500 X107.389 Y74.840 E0.80266
G1 F1500 X107.130 Y74.870 E0.02087
G1 F1500 X106.849 Y74.962 E0.02367
G1 F1500 X106.594 Y75.107 E0.02348
G1 F1500 X106.369 Y75.294 E0.02342
G1 F1500 X106.163 Y75.513 E0.02407
G1 F1500 X105.906 Y75.873 E0.03541
G1 F1500 X105.811 Y76.046 E0.01580
G1 F1500 X105.700 Y76.338 E0.02501
G1 F1500 X105.651 Y76.535 E0.01625
G1 F1500 X105.626 Y76.814 E0.02242
G1 F1500 X101.347 Y76.813 E0.34255
G1 F1500 X101.336 Y74.376 E0.19509
G1 F1500 X101.311 Y73.984 E0.03144
G1 F1500 X101.176 Y73.584 E0.03380
G1 F1500 X101.031 Y73.347 E0.02224
G1 F1500 X100.730 Y73.057 E0.03346
G1 F1500 X100.655 Y73.020 E0.00669
G1 F1500 X105.617 Y73.020 E0.39723
G1 F1500 X105.611 Y73.695 E0.05404
G1 F1500 X105.660 Y74.016 E0.02599
G1 F1500 X105.793 Y74.303 E0.02532
G1 F1500 X106.025 Y74.548 E0.02701
G1 F1500 X106.300 Y74.688 E0.02470
G1 F1500 X106.506 Y74.731 E0.01685
G1 F1500 X117.415 Y74.734 E0.87331
G1 F12000 X119.351 Y74.813 
G1 F12000 X119.371 Y75.113 
;TYPE:WALL-OUTER
G1 F1500 X107.414 Y75.240 E0.95726
G1 F1500 X107.215 Y75.263 E0.01604
G1 F1500 X107.012 Y75.329 E0.01709
G1 F1500 X106.823 Y75.437 E0.01743
G1 F1500 X106.644 Y75.586 E0.01864
G1 F1500 X106.472 Y75.768 E0.02005
G1 F1500 X106.175 Y76.214 E0.04290
G1 F1500 X106.083 Y76.457 E0.02080
G1 F1500 X106.047 Y76.601 E0.01188
G1 F1500 X106.016 Y76.953 E0.02829
G1 F1500 X105.980 Y77.058 E0.00889
G1 F1500 X105.931 Y77.121 E0.00639
G1 F1500 X105.834 Y77.187 E0.00939
G1 F1500 X105.737 Y77.214 E0.00806
G1 F1500 X101.218 Y77.213 E0.36176
G1 F1500 X101.165 Y77.202 E0.00433
G1 F1500 X101.081 Y77.162 E0.00745
G1 F1500 X101.041 Y77.131 E0.00405
G1 F1500 X100.978 Y77.050 E0.00821
G1 F1500 X100.948 Y76.964 E0.00729
G1 F1500 X100.936 Y74.390 E0.20606
G1 F1500 X100.915 Y74.062 E0.02631
G1 F1500 X100.811 Y73.755 E0.02595
G1 F1500 X100.716 Y73.600 E0.01455
G1 F1500 X100.497 Y73.388 E0.02440
G1 F1500 X100.275 Y73.279 E0.01980
G1 F1500 X100.110 Y73.238 E0.01361
G1 F1500 X75.763 Y73.212 E1.94907
G1 F1500 X75.225 Y73.154 E0.04332
G1 F1500 X74.478 Y73.015 E0.06083
G1 F1500 X73.866 Y72.855 E0.05064
G1 F1500 X73.680 Y72.793 E0.01570
G1 F1500 X73.680 Y72.620 E0.01385
G1 F1500 X106.021 Y72.620 E2.58902
G1 F1500 X106.011 Y73.666 E0.08374
G1 F1500 X106.047 Y73.899 E0.01887
G1 F1500 X106.128 Y74.076 E0.01558
G1 F1500 X106.268 Y74.223 E0.01625
G1 F1500 X106.434 Y74.307 E0.01489
G1 F1500 X106.547 Y74.331 E0.00925
G1 F1500 X124.906 Y74.336 E1.46971
G1 F1500 X124.136 Y74.532 E0.06361
G1 F1500 X122.350 Y74.831 E0.14497
G1 F1500 X119.371 Y75.113 E0.23955
G1 F12000 X119.351 Y74.813 
G1 F12000 X106.849 Y74.963 
G1 F12000 X106.271 Y75.166 
;TYPE:FILL
G1 F1500 X104.284 Y73.180 E0.22490
G1 F12000 X102.399 Y73.180 
G1 F1500 X105.539 Y76.320 E0.35549
G1 F12000 X103.987 Y76.653 
G1 F1500 X101.480 Y74.146 E0.28383
G1 F12000 X101.502 Y76.053 
G1 F1500 X102.101 Y76.653 E0.06787
G1 F12000 X101.727 Y76.554 
;TYPE:SKIN
G1 F1500 X101.616 Y76.160 E0.02531
G1 F1500 X101.615 Y75.594 E0.02583
G1 F1500 X101.615 Y75.028 E0.02617
G1 F1500 X101.613 Y74.461 E0.02678
G1 F1500 X101.603 Y73.884 E0.02922
G1 F1500 X100.815 Y73.097 E0.06263
G1 F1500 X100.255 Y72.819 E0.05005
G1 F12000 X100.255 Y72.920 
G1 F12000 X105.225 Y73.264 
G1 F1500 X105.338 Y73.660 E0.02571
G1 F1500 X105.544 Y74.149 E0.04248
G1 F12000 X105.245 Y74.415 
G1 F1500 X106.136 Y75.306 E0.10087
G1 F12000 X106.430 Y75.035 
G1 F1500 X106.344 Y74.949 E0.00976 ;Remainder pre close towards end  MORE REM
G1 F1500 X106.224 Y74.828 B0.95 ; Start of overwrite close towards end  PROC MORE START
G1 F12000 X117.597 Y74.538 
G1 F12000 X117.809 Y74.534 
G1 F1500 X118.287 Y74.729 B0.81 ;  PROC LESS
G1 F1500 X118.850 Y74.726 B0.66 ;  PROC LESS
G1 F1500 X119.412 Y74.723 B0.52 ;  PROC LESS
G1 F1500 X119.955 Y74.700 B0.4 ;  PROC LESS
G1 F1500 X120.496 Y74.676 B0.29 ;  PROC LESS
G1 F1500 X121.037 Y74.651 B0.2 ;  PROC LESS
G1 F1500 X121.579 Y74.627 B0.13 ;  PROC LESS
G1 F1500 X122.120 Y74.602 B0.08 ;  PROC LESS
G1 F1500 X122.415 Y74.615 B0 ;  PROC LESS
G1 F12000 X99.907 Y73.037 
M109
G1 B1 F150 E0.30000
G1 F1500 X99.515 Y72.927 E0.02453
G1 F1500 X98.949 Y72.927 E0.02447
G1 F1500 X98.383 Y72.927 E0.02435
G1 F1500 X97.817 Y72.926 E0.02435
G1 F1500 X97.251 Y72.926 E0.02424
G1 F1500 X96.685 Y72.926 E0.02424
G1 F1500 X96.119 Y72.925 E0.02413
G1 F1500 X95.553 Y72.925 E0.02401
G1 F1500 X94.987 Y72.925 E0.02401
G1 F1500 X94.421 Y72.925 E0.02401
G1 F1500 X93.855 Y72.924 E0.02390
G1 F1500 X93.289 Y72.924 E0.02379
G1 F1500 X92.723 Y72.924 E0.02367
G1 F1500 X92.157 Y72.923 E0.02367
G1 F1500 X91.591 Y72.923 E0.02356
G1 F1500 X91.025 Y72.923 E0.02356
G1 F1500 X90.459 Y72.923 E0.02345
G1 F1500 X89.893 Y72.922 E0.02345
G1 F1500 X89.327 Y72.922 E0.02333
G1 F1500 X88.761 Y72.922 E0.02311
G1 F1500 X88.195 Y72.922 E0.02311
G1 F1500 X87.629 Y72.921 E0.02311
G1 F1500 X87.063 Y72.921 E0.02311
G1 F1500 X86.497 Y72.920 E0.02288
G1 F1500 X85.931 Y72.920 E0.02288
G1 F1500 X85.365 Y72.920 E0.02288
G1 F1500 X84.800 Y72.920 E0.02273
G1 F1500 X84.233 Y72.919 E0.02281
G1 F1500 X83.667 Y72.919 E0.02266
G1 F1500 X83.101 Y72.919 E0.02266
G1 F1500 X82.535 Y72.918 E0.02254
G1 F1500 X81.969 Y72.918 E0.02243
G1 F1500 X81.404 Y72.918 E0.02239
G1 F1500 X80.838 Y72.918 E0.02232
G1 F1500 X80.271 Y72.917 E0.02235
G1 F1500 X79.706 Y72.917 E0.02216
G1 F1500 X79.139 Y72.917 E0.02213
G1 F1500 X78.573 Y72.916 E0.02209
G1 F1500 X78.007 Y72.916 E0.02198
G1 F1500 X77.442 Y72.916 E0.02194
G1 F1500 X76.875 Y72.916 E0.02190
G1 F1500 X76.309 Y72.915 E0.02175
G1 F1500 X75.731 Y72.902 E0.02175
G1 F1500 X75.365 Y72.819 E0.03004
;LAYER:9 height:2.100
M106 S173
G1 F12000 X75.365 Y72.920 Z2.100 
G1 F12000 X100.051 Y73.020 
; Suppressed Tool Node -T start 192.93064326688216 T finish 211.983131106366 ; Tool Node duration: 19.052487839483568
;TYPE:WALL-INNER
G1 F1560 X105.697 Y73.020 E0.45198
G1 F1560 X105.695 Y73.540 E0.04163
G1 F1560 X105.747 Y73.861 E0.02603
G1 F1560 X105.881 Y74.136 E0.02449
G1 F1560 X106.013 Y74.292 E0.01636
G1 F1560 X106.217 Y74.449 E0.02061
G1 F1560 X106.528 Y74.561 E0.02646
G1 F1560 X120.427 Y74.566 E1.11267
G1 F1560 X119.028 Y74.648 E0.11219
G1 F1560 X107.413 Y74.672 E0.92983
G1 F1560 X107.157 Y74.700 E0.02062
G1 F1560 X106.879 Y74.788 E0.02334
G1 F1560 X106.616 Y74.935 E0.02412
G1 F1560 X106.347 Y75.171 E0.02865
G1 F1560 X106.172 Y75.383 E0.02201
G1 F1560 X106.027 Y75.619 E0.02217
G1 F1560 X105.840 Y76.029 E0.03607
G1 F1560 X105.782 Y76.212 E0.01537
G1 F1560 X105.718 Y76.544 E0.02707
G1 F1560 X105.701 Y76.814 E0.02166
G1 F1560 X101.263 Y76.814 E0.35528
G1 F1560 X101.265 Y74.593 E0.17780
G1 F1560 X101.240 Y74.312 E0.02258
G1 F1560 X101.129 Y73.906 E0.03369
G1 F1560 X101.042 Y73.698 E0.01805
G1 F1560 X100.889 Y73.478 E0.02145
G1 F1560 X100.701 Y73.288 E0.02140
G1 F1560 X100.317 Y73.068 E0.03543
G1 F1560 X100.051 Y73.020 E0.02164
G1 F12000 X100.178 Y73.449 
;TYPE:WALL-OUTER
G1 F1560 X99.882 Y73.396 E0.02407
G1 F1560 X76.396 Y73.377 E1.88014
G1 F1560 X75.943 Y73.334 E0.03643
G1 F1560 X74.943 Y73.156 E0.08131
G1 F1560 X74.446 Y73.021 E0.04123
G1 F1560 X73.956 Y72.860 E0.04129
G1 F1560 X73.680 Y72.753 E0.02370
G1 F1560 X73.680 Y72.620 E0.01065
G1 F1560 X106.099 Y72.620 E2.59526
G1 F1560 X106.095 Y73.509 E0.07117
G1 F1560 X106.132 Y73.738 E0.01857
G1 F1560 X106.219 Y73.916 E0.01586
G1 F1560 X106.291 Y74.001 E0.00892
G1 F1560 X106.411 Y74.094 E0.01215
G1 F1560 X106.598 Y74.161 E0.01590
G1 F1560 X125.997 Y74.168 E1.55296
G1 F1560 X125.391 Y74.338 E0.05039
G1 F1560 X123.659 Y74.663 E0.14107
G1 F1560 X121.714 Y74.890 E0.15676
G1 F1560 X119.035 Y75.048 E0.21484
G1 F1560 X107.435 Y75.072 E0.92863
G1 F1560 X107.240 Y75.093 E0.01570
G1 F1560 X107.038 Y75.157 E0.01696
G1 F1560 X106.848 Y75.264 E0.01746
G1 F1560 X106.635 Y75.450 E0.02264
G1 F1560 X106.498 Y75.616 E0.01723
G1 F1560 X106.259 Y76.060 E0.04037
G1 F1560 X106.170 Y76.311 E0.02132
G1 F1560 X106.115 Y76.595 E0.02316
G1 F1560 X106.091 Y76.974 E0.03040
G1 F1560 X106.056 Y77.062 E0.00758
G1 F1560 X105.994 Y77.133 E0.00755
G1 F1560 X105.860 Y77.206 E0.01222
G1 F1560 X101.136 Y77.214 E0.37817
G1 F1560 X101.076 Y77.198 E0.00497
G1 F1560 X100.952 Y77.121 E0.01168
G1 F1560 X100.893 Y77.045 E0.00770
G1 F1560 X100.876 Y77.002 E0.00370
G1 F1560 X100.863 Y76.935 E0.00546
G1 F1560 X100.865 Y74.611 E0.18605
G1 F1560 X100.844 Y74.377 E0.01881
G1 F1560 X100.752 Y74.042 E0.02781
G1 F1560 X100.689 Y73.891 E0.01310
G1 F1560 X100.580 Y73.735 E0.01523
G1 F1560 X100.455 Y73.608 E0.01427
G1 F1560 X100.178 Y73.449 E0.02557
G1 F12000 X101.006 Y73.370 
;TYPE:FILL
G1 F1560 X101.196 Y73.179 E0.02157
G1 F12000 X101.424 Y74.837 
G1 F1560 X103.082 Y73.179 E0.18771
G1 F12000 X104.967 Y73.179 
G1 F1560 X101.493 Y76.653 E0.39330
G1 F12000 X103.378 Y76.653 
G1 F1560 X105.774 Y74.257 E0.27126
G1 F12000 X105.597 Y76.320 
G1 F1560 X105.263 Y76.653 E0.03776
G1 F12000 X106.015 Y75.287 
;TYPE:SKIN
G1 F1560 X106.252 Y75.048 E0.01799
G1 F1560 X106.348 Y74.669 E0.02527
G1 F1560 X105.664 Y74.787 E0.03848
G1 F1560 X105.731 Y74.155 E0.03511
G1 F1560 X105.373 Y73.947 E0.02743
G1 F1560 X105.534 Y73.505 E0.03766
G1 F12000 X101.590 Y74.054 
G1 F1560 X101.490 Y74.436 E0.02276
G1 F1560 X101.509 Y74.984 E0.01888
G1 F1560 X101.509 Y75.548 E0.01919
G1 F1560 X101.510 Y76.114 E0.01948
G1 F1560 X101.423 Y76.484 E0.03043
G1 F12000 X101.264 Y73.814 
G1 F1560 X101.436 Y73.360 E0.03090
G1 F1560 X101.063 Y73.450 E0.03072
G1 F12000 X99.854 Y72.962 
G1 F1560 X99.525 Y73.007 E0.02638
G1 F1560 X98.960 Y73.007 E0.04252
G1 F1560 X98.394 Y73.007 E0.04248
G1 F1560 X97.829 Y73.006 E0.04229
G1 F1560 X97.263 Y73.006 E0.04237
G1 F1560 X96.698 Y73.006 E0.04229
G1 F1560 X96.133 Y73.006 E0.04218
G1 F1560 X95.567 Y73.006 E0.04225
G1 F1560 X95.001 Y73.005 E0.04214
G1 F1560 X94.436 Y73.005 E0.04206
G1 F1560 X93.871 Y73.005 E0.04206
G1 F1560 X93.305 Y73.005 E0.04203
G1 F1560 X92.740 Y73.004 E0.04184
G1 F1560 X92.174 Y73.004 E0.04191
G1 F1560 X91.609 Y73.004 E0.04184
G1 F1560 X91.043 Y73.004 E0.04169
G1 F1560 X90.478 Y73.004 E0.04173
G1 F1560 X89.912 Y73.003 E0.04169
G1 F1560 X89.347 Y73.003 E0.04161
G1 F1560 X88.782 Y73.003 E0.04150
G1 F1560 X88.216 Y73.002 E0.04146
G1 F1560 X87.650 Y73.002 E0.04146
G1 F1560 X87.085 Y73.002 E0.04139
G1 F1560 X86.520 Y73.002 E0.04139
G1 F1560 X85.954 Y73.002 E0.04135
G1 F1560 X85.389 Y73.001 E0.04127
G1 F1560 X84.823 Y73.001 E0.04123
G1 F1560 X84.258 Y73.001 E0.04116
G1 F1560 X83.693 Y73.001 E0.04105
G1 F1560 X83.127 Y73.000 E0.04101
G1 F1560 X82.561 Y73.000 E0.04101
G1 F1560 X81.996 Y73.000 E0.04093
G1 F1560 X81.431 Y73.000 E0.04082
G1 F1560 X80.865 Y73.000 E0.04089
G1 F1560 X80.299 Y72.999 E0.04078
G1 F1560 X79.735 Y72.999 E0.04064
G1 F1560 X79.169 Y72.999 E0.04067
G1 F1560 X78.603 Y72.999 E0.04067
G1 F1560 X78.038 Y72.999 E0.04059
G1 F1560 X77.472 Y72.998 E0.04055
G1 F1560 X76.957 Y72.998 E0.03693 ;Remainder pre close towards end  MORE REM
G1 F1560 X76.907 Y72.998 B0.99 ; Start of overwrite close towards end  PROC MORE START
G1 F1560 X76.342 Y72.998 B0.85 ;  PROC LESS
G1 F1560 X75.800 Y72.973 B0.74 ;  PROC LESS
G1 F1560 X75.277 Y72.931 B0.65 ;  PROC LESS
G1 F1560 X74.970 Y72.956 B0.57 ;  PROC LESS
G1 F12000 X120.695 Y74.748 
G1 F1560 X121.187 Y74.539 B0.43 ;  PROC LESS
G1 F1560 X121.777 Y74.515 B0.3 ;  PROC LESS
G1 F1560 X122.379 Y74.478 B0.18 ;  PROC LESS
G1 F1560 X122.982 Y74.441 B0.1 ;  PROC LESS
G1 F1560 X123.341 Y74.365 B0 ;  PROC LESS
G1 F12000 X161.325 Y67.205 
;TYPE:WALL-INNER
M109
G1 B1 F150 E0.30000
G1 F1560 X167.212 Y67.205 E0.47128
G1 F1560 X174.904 Y86.243 E1.64376
G1 F1560 X167.952 Y85.635 E0.55866
G1 F1560 X167.479 Y84.464 E0.10110
G1 F1560 X167.681 Y84.265 E0.02270
G1 F1560 X167.861 Y84.023 E0.02414
G1 F1560 X168.010 Y83.735 E0.02596
G1 F1560 X168.141 Y83.210 E0.04332
G1 F1560 X168.144 Y82.884 E0.02610
G1 F1560 X168.101 Y82.589 E0.02387
G1 F1560 X168.018 Y82.326 E0.02208
G1 F1560 X162.470 Y68.596 E1.18548
G1 F1560 X162.290 Y68.234 E0.03236
G1 F1560 X162.115 Y67.942 E0.02725
G1 F1560 X161.834 Y67.613 E0.03464
G1 F1560 X161.325 Y67.205 E0.05222
G1 F12000 X161.555 Y67.902 
;TYPE:WALL-OUTER
G1 F1560 X160.187 Y66.805 E0.14038
G1 F1560 X167.482 Y66.805 E0.58399
G1 F1560 X175.520 Y86.699 E1.71767
G1 F1560 X167.673 Y86.013 E0.63058
G1 F1560 X166.989 Y84.318 E0.14632
G1 F1560 X167.213 Y84.164 E0.02176
G1 F1560 X167.378 Y84.002 E0.01851
G1 F1560 X167.521 Y83.810 E0.01916
G1 F1560 X167.633 Y83.593 E0.01955
G1 F1560 X167.742 Y83.159 E0.03582
G1 F1560 X167.744 Y82.911 E0.01985
G1 F1560 X167.710 Y82.678 E0.01885
G1 F1560 X162.105 Y68.760 E1.20115
G1 F1560 X161.789 Y68.176 E0.05316
G1 F1560 X161.555 Y67.902 E0.02885
G1 F12000 X162.544 Y68.386 
;TYPE:FILL
G1 F1560 X163.566 Y67.364 E0.11570
G1 F12000 X165.451 Y67.364 
G1 F1560 X163.097 Y69.719 E0.26656
G1 F12000 X163.639 Y71.062 
G1 F1560 X167.170 Y67.530 E0.39981
G1 F12000 X167.713 Y68.873 
G1 F1560 X164.181 Y72.404 E0.39981
G1 F12000 X164.724 Y73.746 
G1 F1560 X168.255 Y70.216 E0.39970
G1 F12000 X168.797 Y71.559 
G1 F1560 X165.267 Y75.089 E0.39964
G1 F12000 X165.809 Y76.432 
G1 F1560 X169.340 Y72.901 E0.39976
G1 F12000 X169.883 Y74.244 
G1 F1560 X166.351 Y77.775 E0.39981
G1 F12000 X166.894 Y79.117 
G1 F1560 X170.425 Y75.586 E0.39976
G1 F12000 X170.967 Y76.929 
G1 F1560 X167.437 Y80.460 E0.39970
G1 F12000 X167.979 Y81.803 
G1 F1560 X171.510 Y78.272 E0.39976
G1 F12000 X172.053 Y79.614 
G1 F1560 X168.253 Y83.413 E0.43015
G1 F12000 X168.067 Y85.485 
G1 F1560 X172.595 Y80.957 E0.51263
G1 F12000 X173.137 Y82.300 
G1 F1560 X169.800 Y85.637 E0.37779
G1 F12000 X171.534 Y85.789 
G1 F1560 X173.680 Y83.642 E0.24301
G1 F12000 X174.222 Y84.985 
G1 F1560 X173.267 Y85.941 E0.10818
;LAYER:10 height:2.300
M106 S155
G1 F12000 X174.878 Y86.241 Z2.300 
; Suppressed Tool Node -T start 211.983131106366 T finish 231.82907571372883 ; Tool Node duration: 19.845944607362906
;TYPE:WALL-INNER
G1 F1740 X167.952 Y85.635 E0.55657
G1 F1740 X167.474 Y84.450 E0.10229
G1 F1740 X167.672 Y84.280 E0.02089
G1 F1740 X167.865 Y84.015 E0.02624
G1 F1740 X168.025 Y83.686 E0.02929
G1 F1740 X168.104 Y83.408 E0.02314
G1 F1740 X168.142 Y83.181 E0.01843
G1 F1740 X168.144 Y82.884 E0.02378
G1 F1740 X168.101 Y82.589 E0.02387
G1 F1740 X168.018 Y82.326 E0.02208
G1 F1740 X162.470 Y68.598 E1.18533
G1 F1740 X162.305 Y68.259 E0.03018
G1 F1740 X162.115 Y67.941 E0.02965
G1 F1740 X161.836 Y67.615 E0.03435
G1 F1740 X161.355 Y67.223 E0.04967
G1 F1740 X161.330 Y67.205 E0.00247
G1 F1740 X167.187 Y67.205 E0.46888
G1 F1740 X174.878 Y86.241
G1 F12000 X175.494 Y86.697 
;TYPE:WALL-OUTER
G1 F1740 X167.673 Y86.013 E0.62849
G1 F1740 X166.987 Y84.314 E0.14668
G1 F1740 X167.076 Y84.266 E0.00809
G1 F1740 X167.376 Y84.007 E0.03173
G1 F1740 X167.521 Y83.808 E0.01971
G1 F1740 X167.650 Y83.543 E0.02359
G1 F1740 X167.713 Y83.320 E0.01855
G1 F1740 X167.742 Y83.146 E0.01412
G1 F1740 X167.744 Y82.911 E0.01881
G1 F1740 X167.710 Y82.678 E0.01885
G1 F1740 X162.105 Y68.761 E1.20107
G1 F1740 X161.953 Y68.450 E0.02771
G1 F1740 X161.789 Y68.176 E0.02556
G1 F1740 X161.555 Y67.902 E0.02885
G1 F1740 X161.111 Y67.540 E0.04586
G1 F1740 X160.173 Y66.805 E0.09540
G1 F1740 X167.457 Y66.805 E0.58311
G1 F1740 X175.494 Y86.697 E1.71749
G1 F12000 X174.878 Y86.241 ; Travel to start of close
G1 F1740 X169.957 Y74.061 B0 ; End of copy close segment - backwards to start 74deaf00bc5d483a
G1 F12000 X173.630 Y85.972 
;TYPE:FILL
M109
G1 B1 F150 E0.30000
G1 F1740 X166.973 Y79.314 E0.75372
G1 F12000 X165.694 Y76.150 
G1 F1740 X173.973 Y84.429 E0.93729
G1 F12000 X171.564 Y85.791 
G1 F1740 X168.225 Y82.452 E0.37802
G1 F12000 X167.995 Y84.106 
G1 F1740 X169.498 Y85.610 E0.17022
G1 F12000 X172.695 Y81.267 
G1 F1740 X164.415 Y72.986 E0.93746
G1 F12000 X163.136 Y69.822 
G1 F1740 X171.418 Y78.104 E0.93763
G1 F12000 X170.140 Y74.941 
G1 F1740 X162.563 Y67.364 E0.85782
G1 F12000 X164.448 Y67.364 
G1 F1740 X168.862 Y71.778 E0.49972
G1 F12000 X167.585 Y68.615 
G1 F1740 X166.334 Y67.364 E0.14163
G1 F12000 X166.894 Y67.616 
;TYPE:SKIN
G1 F1740 X167.326 Y68.331 E0.05434
G1 F1740 X167.710 Y69.280 E0.05430
G1 F1740 X168.093 Y70.230 E0.05432
G1 F1740 X168.477 Y71.179 E0.05430
G1 F1740 X168.860 Y72.128 E0.05428
G1 F1740 X169.244 Y73.078 E0.05434
G1 F1740 X169.627 Y74.026 E0.05423
G1 F1740 X170.011 Y74.976 E0.05414
G1 F1740 X170.394 Y75.925 E0.05428
G1 F1740 X170.778 Y76.874 E0.05430
G1 F1740 X171.162 Y77.823 E0.05430
G1 F1740 X171.545 Y78.773 E0.05412
G1 F1740 X171.928 Y79.722 E0.05407
G1 F1740 X172.312 Y80.671 E0.05409
G1 F1740 X172.514 Y81.171 E0.02851 ;Remainder pre close towards end  MORE REM
G1 F1740 X172.696 Y81.620 B0.91 ; Start of overwrite close towards end  PROC MORE START
G1 F1740 X173.079 Y82.569 B0.73 ;  PROC LESS
G1 F1740 X173.462 Y83.518 B0.55 ;  PROC LESS
G1 F1740 X173.846 Y84.468 B0.37 ;  PROC LESS
G1 F1740 X174.230 Y85.417 B0.19 ;  PROC LESS
G1 F1740 X174.585 Y86.055 B0 ;  PROC LESS
G1 F12000 X122.182 Y74.397 
;TYPE:WALL-INNER
M109
G1 B1 F150 E0.30000
G1 F1740 X121.902 Y74.423 E0.02251
G1 F1740 X107.214 Y74.522 E1.17586
G1 F1740 X106.915 Y74.613 E0.02502
G1 F1740 X106.659 Y74.753 E0.02336
G1 F1740 X106.431 Y74.934 E0.02330
G1 F1740 X106.234 Y75.157 E0.02382
G1 F1740 X106.033 Y75.480 E0.03046
G1 F1740 X105.925 Y75.739 E0.02246
G1 F1740 X105.842 Y76.030 E0.02422
G1 F1740 X105.839 Y76.071 E0.00329
G1 F1740 X105.787 Y76.327 E0.02091
G1 F1740 X105.765 Y76.814 E0.03903
G1 F1740 X101.202 Y76.813 E0.36529
G1 F1740 X101.203 Y74.823 E0.15931
G1 F1740 X101.177 Y74.454 E0.02961
G1 F1740 X101.068 Y74.087 E0.03065
G1 F1740 X100.931 Y73.818 E0.02417
G1 F1740 X100.788 Y73.631 E0.01885
G1 F1740 X100.622 Y73.468 E0.01862
G1 F1740 X100.431 Y73.338 E0.01850
G1 F1740 X100.211 Y73.236 E0.01941
G1 F1740 X99.954 Y73.173 E0.02118
G1 F1740 X76.919 Y73.126 E1.84404
G1 F1740 X76.334 Y73.056 E0.04717
G1 F1740 X100.197 Y73.048 E1.91032
G1 F1740 X100.281 Y73.020 E0.00709
G1 F1740 X105.764 Y73.020 E0.43893
G1 F1740 X105.768 Y73.322 E0.02418
G1 F1740 X105.761 Y73.355 E0.00270
G1 F1740 X105.840 Y73.721 E0.02997
G1 F1740 X105.978 Y73.987 E0.02399
G1 F1740 X106.132 Y74.162 E0.01866
G1 F1740 X106.408 Y74.332 E0.02595
G1 F1740 X106.632 Y74.393 E0.01859
G1 F1740 X122.182 Y74.397 E1.24484
G1 F12000 X121.918 Y74.823 
;TYPE:WALL-OUTER
G1 F1740 X107.275 Y74.921 E1.17225
G1 F1740 X107.071 Y74.984 E0.01709
G1 F1740 X106.881 Y75.088 E0.01734
G1 F1740 X106.708 Y75.225 E0.01767
G1 F1740 X106.556 Y75.397 E0.01838
G1 F1740 X106.390 Y75.664 E0.02517
G1 F1740 X106.303 Y75.872 E0.01805
G1 F1740 X106.238 Y76.099 E0.01890
G1 F1740 X106.236 Y76.126 E0.00217
G1 F1740 X106.185 Y76.378 E0.02058
G1 F1740 X106.165 Y76.738 E0.02886
G1 F1740 X106.166 Y76.904 E0.01329
G1 F1740 X106.146 Y77.019 E0.00934
G1 F1740 X106.130 Y77.057 E0.00330
G1 F1740 X106.081 Y77.125 E0.00671
G1 F1740 X105.999 Y77.183 E0.00804
G1 F1740 X105.896 Y77.214 E0.00861
G1 F1740 X101.045 Y77.213 E0.38834
G1 F1740 X101.009 Y77.204 E0.00297
G1 F1740 X100.965 Y77.187 E0.00378
G1 F1740 X100.890 Y77.135 E0.00731
G1 F1740 X100.830 Y77.053 E0.00813
G1 F1740 X100.802 Y76.967 E0.00724
G1 F1740 X100.803 Y74.837 E0.17051
G1 F1740 X100.781 Y74.526 E0.02496
G1 F1740 X100.695 Y74.236 E0.02421
G1 F1740 X100.591 Y74.032 E0.01833
G1 F1740 X100.487 Y73.896 E0.01371
G1 F1740 X100.367 Y73.779 E0.01342
G1 F1740 X100.233 Y73.687 E0.01301
G1 F1740 X100.078 Y73.615 E0.01368
G1 F1740 X99.905 Y73.573 E0.01425
G1 F1740 X76.897 Y73.526 E1.84188
G1 F1740 X76.619 Y73.502 E0.02234
G1 F1740 X76.083 Y73.424 E0.04336
G1 F1740 X75.047 Y73.189 E0.08504
G1 F1740 X74.552 Y73.031 E0.04160
G1 F1740 X73.680 Y72.665 E0.07571
G1 F1740 X100.131 Y72.648 E2.11750
G1 F1740 X100.215 Y72.620 E0.00709
G1 F1740 X106.162 Y72.620 E0.47608
G1 F1740 X106.165 Y73.273 E0.05228
G1 F1740 X106.173 Y73.339 E0.00532
G1 F1740 X106.170 Y73.352 E0.00107
G1 F1740 X106.220 Y73.584 E0.01900
G1 F1740 X106.311 Y73.760 E0.01586
G1 F1740 X106.393 Y73.853 E0.00993
G1 F1740 X106.569 Y73.961 E0.01653
G1 F1740 X106.685 Y73.993 E0.00963
G1 F1740 X127.072 Y73.999 E1.63206
G1 F1740 X125.584 Y74.367 E0.12271
G1 F1740 X123.817 Y74.648 E0.14323
G1 F1740 X121.918 Y74.823 E0.15267
G1 F12000 X121.900 Y74.523 
G1 F12000 X106.916 Y74.614 
G1 F12000 X106.133 Y75.028 
;TYPE:FILL
G1 F1740 X104.284 Y73.179 E0.20933
G1 F12000 X102.398 Y73.179 
G1 F1740 X105.623 Y76.404 E0.36511
G1 F12000 X103.987 Y76.653 
G1 F1740 X101.065 Y73.731 E0.33081
G1 F12000 X101.360 Y75.912 
G1 F1740 X102.101 Y76.653 E0.08389
G1 F12000 X101.479 Y76.306 
;TYPE:SKIN
G1 F1740 X101.420 Y75.964 E0.01341
G1 F1740 X101.421 Y75.399 E0.01334
G1 F1740 X101.421 Y74.834 E0.01346
G1 F1740 X101.337 Y74.467 E0.03014
G1 F12000 X101.475 Y74.039 
G1 F1740 X100.615 Y73.179 E0.09736
G1 F12000 X105.484 Y73.523 
G1 F1740 X105.673 Y73.712 E0.02140
G1 F12000 X105.522 Y74.126 
G1 F1740 X106.269 Y74.874 E0.08463
G1 F12000 X105.963 Y75.133 
G1 F1740 X106.022 Y75.193 E0.00674
G1 F12000 X106.575 Y74.614 
G1 F1740 X106.478 Y74.517 E0.01098
G1 F12000 X122.563 Y74.297 
G1 F12000 X122.563 Y74.197 
G1 F1740 X123.013 Y74.364 E0.03785
G1 F1740 X123.555 Y74.340 E0.03236
G1 F1740 X124.092 Y74.312 E0.02604
G1 F1740 X124.619 Y74.273 E0.01724
G1 F1740 X124.901 Y74.272 E0.02258
;LAYER:11 height:2.500
M106 S153
G1 F12000 X122.146 Y74.317 Z2.500 
; Suppressed Tool Node -T start 231.82907571372883 T finish 252.5012577704892 ; Tool Node duration: 20.672182056760683
;TYPE:WALL-INNER
G1 F1800 X107.445 Y74.338 E1.17687
G1 F1800 X107.191 Y74.365 E0.02045
G1 F1800 X106.936 Y74.445 E0.02139
G1 F1800 X106.698 Y74.571 E0.02156
G1 F1800 X106.473 Y74.746 E0.02282
G1 F1800 X106.275 Y74.962 E0.02346
G1 F1800 X106.112 Y75.206 E0.02349
G1 F1800 X105.933 Y75.610 E0.03537
G1 F1800 X105.862 Y75.869 E0.02150
G1 F1800 X105.825 Y76.159 E0.02340
G1 F1800 X105.811 Y76.814 E0.05245
G1 F1800 X101.157 Y76.814 E0.37257
G1 F1800 X101.137 Y74.806 E0.16076
G1 F1800 X101.058 Y74.393 E0.03366
G1 F1800 X100.958 Y74.140 E0.02178
G1 F1800 X100.702 Y73.760 E0.03668
G1 F1800 X100.327 Y73.478 E0.03756
G1 F1800 X99.935 Y73.344 E0.03316
G1 F1800 X77.886 Y73.316 E1.76511
G1 F1800 X77.376 Y73.272 E0.04098
G1 F1800 X77.097 Y73.226 E0.02264
G1 F1800 X100.041 Y73.226 E1.83675
G1 F1800 X100.216 Y73.207 E0.01409
G1 F1800 X100.422 Y73.140 E0.01734
G1 F1800 X100.612 Y73.020 E0.01799
G1 F1800 X105.804 Y73.020 E0.41564
G1 F1800 X105.802 Y73.098 E0.00625
G1 F1800 X105.847 Y73.422 E0.02619
G1 F1800 X105.912 Y73.597 E0.01494
G1 F1800 X105.988 Y73.744 E0.01325
G1 F1800 X106.090 Y73.880 E0.01361
G1 F1800 X106.213 Y74.003 E0.01393
G1 F1800 X106.353 Y74.098 E0.01354
G1 F1800 X106.514 Y74.177 E0.01436
G1 F1800 X106.709 Y74.226 E0.01610
G1 F1800 X123.457 Y74.230 E1.34074
G1 F1800 X122.146 Y74.317 E0.10518
G1 F12000 X122.158 Y74.717 
;TYPE:WALL-OUTER
G1 F1800 X107.466 Y74.738 E1.17615
G1 F1800 X107.273 Y74.758 E0.01553
G1 F1800 X107.091 Y74.816 E0.01529
G1 F1800 X106.916 Y74.908 E0.01583
G1 F1800 X106.745 Y75.041 E0.01734
G1 F1800 X106.590 Y75.210 E0.01836
G1 F1800 X106.460 Y75.405 E0.01876
G1 F1800 X106.314 Y75.733 E0.02874
G1 F1800 X106.255 Y75.948 E0.01785
G1 F1800 X106.224 Y76.189 E0.01945
G1 F1800 X106.209 Y76.901 E0.05701
G1 F1800 X106.175 Y77.055 E0.01263
G1 F1800 X106.074 Y77.167 E0.01207
G1 F1800 X106.049 Y77.182 E0.00233
G1 F1800 X105.948 Y77.214 E0.00848
G1 F1800 X101.003 Y77.214 E0.39587
G1 F1800 X100.975 Y77.208 E0.00229
G1 F1800 X100.884 Y77.162 E0.00816
G1 F1800 X100.794 Y77.066 E0.01053
G1 F1800 X100.759 Y76.976 E0.00773
G1 F1800 X100.738 Y74.846 E0.17052
G1 F1800 X100.672 Y74.505 E0.02780
G1 F1800 X100.602 Y74.327 E0.01531
G1 F1800 X100.408 Y74.039 E0.02780
G1 F1800 X100.138 Y73.836 E0.02704
G1 F1800 X99.868 Y73.744 E0.02283
G1 F1800 X77.863 Y73.716 E1.76159
G1 F1800 X77.329 Y73.670 E0.04291
G1 F1800 X76.246 Y73.493 E0.08785
G1 F1800 X75.695 Y73.357 E0.04543
G1 F1800 X75.176 Y73.201 E0.04338
G1 F1800 X74.712 Y73.034 E0.03948
G1 F1800 X74.257 Y72.826 E0.04005
G1 F1800 X100.019 Y72.826 E2.06235
G1 F1800 X100.131 Y72.814 E0.00902
G1 F1800 X100.251 Y72.775 E0.01010
G1 F1800 X100.422 Y72.664 E0.01632
G1 F1800 X100.459 Y72.620 E0.00460
G1 F1800 X106.213 Y72.620 E0.46063
G1 F1800 X106.203 Y73.075 E0.03643
G1 F1800 X106.237 Y73.323 E0.02004
G1 F1800 X106.328 Y73.531 E0.01818
G1 F1800 X106.470 Y73.694 E0.01731
G1 F1800 X106.554 Y73.751 E0.00813
G1 F1800 X106.652 Y73.799 E0.00874
G1 F1800 X106.759 Y73.826 E0.00883
G1 F1800 X128.002 Y73.832 E1.70058
G1 F1800 X127.967 Y73.844 E0.00296
G1 F1800 X127.338 Y74.027 E0.05244
G1 F1800 X125.706 Y74.373 E0.13355
G1 F1800 X124.022 Y74.594 E0.13597
G1 F1800 X122.158 Y74.717 E0.14954
G1 F12000 X122.150 Y74.417 
G1 F12000 X106.007 Y74.024 
;TYPE:FILL
G1 F1800 X103.377 Y76.654 E0.29775
G1 F12000 X105.262 Y76.654 
G1 F1800 X105.661 Y76.255 E0.04517
G1 F12000 X104.967 Y73.179 
G1 F1800 X101.492 Y76.654 E0.39342
G1 F12000 X101.297 Y74.963 
G1 F1800 X103.082 Y73.179 E0.20203
G1 F12000 X101.196 Y73.179 
G1 F1800 X100.801 Y73.643 E0.04866
G1 F1800 X100.939 Y73.291 E0.03087
G1 F1800 X100.607 Y73.398 E0.02794 ;Remainder pre close towards end  MORE REM
G1 F1800 X100.522 Y73.425 B0.98 ; Start of overwrite close towards end  PROC MORE START
G1 F12000 X101.066 Y74.013 
;TYPE:SKIN
G1 F1800 X101.327 Y74.034 B0.89 ;  PROC LESS
G1 F1800 X101.225 Y74.419 B0.79 ;  PROC LESS
G1 F12000 X105.614 Y73.990 
G1 F1800 X105.950 Y73.937 B0.71 ;  PROC LESS
G1 F1800 X105.941 Y74.511 B0.6 ;  PROC LESS
G1 F1800 X106.425 Y74.310 B0.46 ;  PROC LESS
G1 F12000 X105.572 Y73.466 
G1 F1800 X105.676 Y73.363 B0.42 ;  PROC LESS
G1 F12000 X106.710 Y74.224 
G1 F12000 X123.863 Y74.304 
G1 F12000 X123.868 Y74.404 
G1 F1800 X124.376 Y74.178 B0.28 ;  PROC LESS
G1 F1800 X124.984 Y74.135 B0.17 ;  PROC LESS
G1 F1800 X125.600 Y74.086 B0.09 ;  PROC LESS
G1 F1800 X125.939 Y74.030 B0 ;  PROC LESS
G1 F12000 X161.391 Y67.250 
;TYPE:WALL-INNER
M109
G1 B1 F150 E0.30000
G1 F1800 X161.329 Y67.205 E0.00613
G1 F1800 X167.117 Y67.205 E0.46335
G1 F1800 X174.806 Y86.235 E1.64308
G1 F1800 X167.952 Y85.635 E0.55079
G1 F1800 X167.479 Y84.464 E0.10110
G1 F1800 X167.681 Y84.265 E0.02270
G1 F1800 X167.862 Y84.023 E0.02419
G1 F1800 X167.998 Y83.757 E0.02392
G1 F1800 X168.092 Y83.479 E0.02349
G1 F1800 X168.142 Y83.182 E0.02411
G1 F1800 X168.145 Y82.877 E0.02442
G1 F1800 X168.085 Y82.542 E0.02724
G1 F1800 X168.019 Y82.326 E0.01808
G1 F1800 X162.369 Y68.369 E1.20539
G1 F1800 X162.116 Y67.943 E0.03966
G1 F1800 X161.835 Y67.613 E0.03470
G1 F1800 X161.391 Y67.250 E0.04591
G1 F12000 X161.554 Y67.900 
;TYPE:WALL-OUTER
G1 F1800 X161.147 Y67.567 E0.04210
G1 F1800 X160.714 Y67.253 E0.04282
G1 F1800 X160.173 Y66.805 E0.05623
G1 F1800 X167.387 Y66.805 E0.57751
G1 F1800 X175.422 Y86.691 E1.71699
G1 F1800 X167.673 Y86.013 E0.62271
G1 F1800 X166.989 Y84.318 E0.14632
G1 F1800 X167.213 Y84.164 E0.02176
G1 F1800 X167.378 Y84.002 E0.01851
G1 F1800 X167.521 Y83.810 E0.01916
G1 F1800 X167.629 Y83.601 E0.01883
G1 F1800 X167.703 Y83.382 E0.01851
G1 F1800 X167.742 Y83.147 E0.01907
G1 F1800 X167.744 Y82.910 E0.01897
G1 F1800 X167.696 Y82.636 E0.02227
G1 F1800 X167.642 Y82.461 E0.01466
G1 F1800 X162.010 Y68.547 E1.20166
G1 F1800 X161.789 Y68.176 E0.03457
G1 F1800 X161.554 Y67.900 E0.02902
G1 F12000 X162.547 Y68.383 
;TYPE:FILL
G1 F1800 X163.565 Y67.365 E0.11525
G1 F12000 X165.450 Y67.365 
G1 F1800 X163.090 Y69.725 E0.26718
G1 F12000 X163.634 Y71.067 
G1 F1800 X166.862 Y67.839 E0.36545
G1 F12000 X167.404 Y69.181 
G1 F1800 X164.177 Y72.409 E0.36540
G1 F12000 X164.720 Y73.751 
G1 F1800 X167.947 Y70.524 E0.36534
G1 F12000 X168.490 Y71.866 
G1 F1800 X165.263 Y75.093 E0.36534
G1 F12000 X165.807 Y76.434 
G1 F1800 X169.032 Y73.209 E0.36511
G1 F12000 X169.574 Y74.552 
G1 F1800 X166.350 Y77.776 E0.36500
G1 F12000 X166.893 Y79.118 
G1 F1800 X170.117 Y75.894 E0.36500
G1 F12000 X170.660 Y77.237 
G1 F1800 X167.436 Y80.460 E0.36494
G1 F12000 X167.980 Y81.802 
G1 F1800 X171.202 Y78.580 E0.36477
G1 F12000 X171.745 Y79.922 
G1 F1800 X168.268 Y83.399 E0.39364
G1 F12000 X168.142 Y85.410 
G1 F1800 X172.287 Y81.264 E0.46933
G1 F12000 X172.830 Y82.607 
G1 F1800 X169.875 Y85.562 E0.33454
G1 F12000 X171.608 Y85.714 
G1 F1800 X173.372 Y83.950 E0.19971
G1 F12000 X173.915 Y85.292 
G1 F1800 X173.341 Y85.866 E0.06498
G1 F12000 X173.591 Y85.774 
;TYPE:SKIN
G1 F1800 X174.200 Y85.166 E0.06889
G1 F12000 X174.038 Y84.763 
G1 F1800 X173.429 Y85.371 E0.06889
G1 F12000 X173.266 Y84.968 
G1 F1800 X173.874 Y84.360 E0.06883
G1 F12000 X173.712 Y83.957 
G1 F1800 X173.103 Y84.565 E0.06889
G1 F12000 X172.941 Y84.162 
G1 F1800 X173.549 Y83.554 E0.06883
G1 F12000 X173.386 Y83.151 
G1 F1800 X172.778 Y83.760 E0.06889
G1 F12000 X172.615 Y83.357 
G1 F1800 X173.224 Y82.748 E0.06895
G1 F12000 X173.060 Y82.346 
G1 F1800 X172.452 Y82.954 E0.06883
G1 F12000 X172.290 Y82.551 
G1 F1800 X172.898 Y81.943 E0.06883
G1 F12000 X172.735 Y81.540 
G1 F1800 X172.127 Y82.148 E0.06883
G1 F12000 X171.964 Y81.745 
G1 F1800 X172.572 Y81.136 E0.06889
G1 F12000 X172.410 Y80.733 
G1 F1800 X171.801 Y81.342 E0.06895
G1 F12000 X171.638 Y80.939 
G1 F1800 X172.246 Y80.331 E0.06883
G1 F12000 X172.084 Y79.928 
G1 F1800 X171.476 Y80.536 E0.06883
G1 F12000 X171.313 Y80.133 
G1 F1800 X171.921 Y79.525 E0.06883
G1 F12000 X171.759 Y79.122 
G1 F1800 X171.150 Y79.730 E0.06889
G1 F12000 X170.987 Y79.328 
G1 F1800 X171.596 Y78.719 E0.06895
G1 F12000 X171.433 Y78.317 
G1 F1800 X170.824 Y78.925 E0.06889
G1 F12000 X170.662 Y78.522 
G1 F1800 X171.270 Y77.913 E0.06889
G1 F12000 X171.107 Y77.510 
G1 F1800 X170.499 Y78.119 E0.06889
G1 F12000 X170.337 Y77.715 
G1 F1800 X170.945 Y77.107 E0.06883
G1 F12000 X170.782 Y76.704 
G1 F1800 X170.173 Y77.313 E0.06895
G1 F12000 X170.011 Y76.910 
G1 F1800 X170.619 Y76.302 E0.06883
G1 F12000 X170.456 Y75.899 
G1 F1800 X169.848 Y76.507 E0.06883
G1 F12000 X169.685 Y76.104 
G1 F1800 X170.293 Y75.496 E0.06883
G1 F12000 X170.131 Y75.093 
G1 F1800 X169.523 Y75.701 E0.06883
G1 F12000 X169.359 Y75.299 
G1 F1800 X169.968 Y74.690 E0.06895
G1 F12000 X169.805 Y74.287 
G1 F1800 X169.197 Y74.896 E0.06889
G1 F12000 X169.034 Y74.492 
G1 F1800 X169.642 Y73.884 E0.06883
G1 F12000 X169.480 Y73.481 
G1 F1800 X168.871 Y74.089 E0.06889
G1 F12000 X168.709 Y73.686 
G1 F1800 X169.317 Y73.078 E0.06883
G1 F12000 X169.154 Y72.675 
G1 F1800 X168.546 Y73.283 E0.06883
G1 F12000 X168.383 Y72.881 
G1 F1800 X168.991 Y72.273 E0.06883
G1 F12000 X168.828 Y71.870 
G1 F1800 X168.220 Y72.478 E0.06883
G1 F12000 X168.058 Y72.075 
G1 F1800 X168.666 Y71.467 E0.06883
G1 F12000 X168.503 Y71.064 
G1 F1800 X167.895 Y71.672 E0.06883
G1 F12000 X167.732 Y71.269 
G1 F1800 X168.340 Y70.661 E0.06883
G1 F12000 X168.177 Y70.258 
G1 F1800 X167.569 Y70.866 E0.06883
G1 F12000 X167.406 Y70.463 
G1 F1800 X168.014 Y69.855 E0.06883
G1 F12000 X167.852 Y69.452 
G1 F1800 X167.244 Y70.060 E0.06883
G1 F12000 X167.081 Y69.657 
G1 F1800 X167.689 Y69.049 E0.06883
G1 F12000 X167.527 Y68.646 
G1 F1800 X166.918 Y69.254 E0.06889
G1 F12000 X166.755 Y68.852 
G1 F1800 X167.363 Y68.244 E0.06883
G1 F12000 X167.201 Y67.841 
G1 F1800 X166.592 Y68.449 E0.06889
G1 F12000 X166.430 Y68.046 
G1 F1800 X167.038 Y67.438 E0.06883
G1 F12000 X166.546 Y67.364 
G1 F1800 X166.267 Y67.643 E0.03159
G1 F12000 X174.363 Y85.569 
G1 F1800 X174.192 Y86.021 E0.04865
G1 F1800 X174.525 Y85.972 E0.02694
;LAYER:12 height:2.700
G1 F12000 X174.680 Y86.224 Z2.700 
; Suppressed Tool Node -T start 252.5012577704892 T finish 276.0374084394897 ; Tool Node duration: 23.536150669000712
;TYPE:WALL-INNER
G1 F1800 X167.952 Y85.635 E0.54066
G1 F1800 X167.478 Y84.460 E0.10143
G1 F1800 X167.705 Y84.234 E0.02564
G1 F1800 X167.877 Y83.992 E0.02377
G1 F1800 X167.998 Y83.758 E0.02109
G1 F1800 X168.092 Y83.479 E0.02357
G1 F1800 X168.142 Y83.182 E0.02411
G1 F1800 X168.144 Y82.884 E0.02386
G1 F1800 X168.101 Y82.589 E0.02387
G1 F1800 X168.018 Y82.326 E0.02208
G1 F1800 X162.472 Y68.601 E1.18505
G1 F1800 X162.334 Y68.310 E0.02578
G1 F1800 X162.116 Y67.943 E0.03417
G1 F1800 X161.836 Y67.613 E0.03465
G1 F1800 X161.326 Y67.205 E0.05228
G1 F1800 X166.995 Y67.205 E0.45382
G1 F1800 X174.680 Y86.224 E1.64214
G1 F12000 X175.296 Y86.680 
;TYPE:WALL-OUTER
G1 F1800 X167.673 Y86.013 E0.61258
G1 F1800 X166.988 Y84.316 E0.14650
G1 F1800 X167.048 Y84.285 E0.00541
G1 F1800 X167.236 Y84.142 E0.01891
G1 F1800 X167.397 Y83.977 E0.01846
G1 F1800 X167.534 Y83.783 E0.01901
G1 F1800 X167.629 Y83.601 E0.01644
G1 F1800 X167.703 Y83.382 E0.01851
G1 F1800 X167.742 Y83.147 E0.01907
G1 F1800 X167.744 Y82.911 E0.01889
G1 F1800 X167.710 Y82.678 E0.01885
G1 F1800 X162.105 Y68.762 E1.20100
G1 F1800 X161.981 Y68.498 E0.02335
G1 F1800 X161.789 Y68.176 E0.03001
G1 F1800 X161.556 Y67.901 E0.02885
G1 F1800 X160.187 Y66.805 E0.14039
G1 F1800 X167.265 Y66.805 E0.56662
G1 F1800 X175.296 Y86.680 E1.71605
G1 F12000 X174.340 Y85.810 
;TYPE:SKIN
G1 F1800 X166.382 Y77.852 E0.90095
G1 F12000 X165.998 Y76.903 
G1 F1800 X173.956 Y84.861 E0.90095
G1 F12000 X173.573 Y83.912 
G1 F1800 X165.615 Y75.953 E0.90101
G1 F12000 X165.231 Y75.004 
G1 F1800 X173.189 Y82.962 E0.90095
G1 F12000 X172.806 Y82.013 
G1 F1800 X164.847 Y74.055 E0.90101
G1 F12000 X164.464 Y73.106 
G1 F1800 X172.423 Y81.064 E0.90101
G1 F12000 X172.039 Y80.115 
G1 F1800 X164.080 Y72.156 E0.90106
G1 F12000 X163.697 Y71.207 
G1 F1800 X171.655 Y79.166 E0.90101
G1 F12000 X171.271 Y78.216 
G1 F1800 X163.313 Y70.258 E0.90095
G1 F12000 X162.930 Y69.309 
G1 F1800 X170.888 Y77.267 E0.90095
G1 F12000 X170.505 Y76.318 
G1 F1800 X162.523 Y68.336 E0.90367
G1 F12000 X162.683 Y67.365 
G1 F1800 X169.738 Y74.420 E0.79872
G1 F12000 X170.121 Y75.369 
G1 F1800 X162.117 Y67.365 E0.90616
G1 F12000 X163.249 Y67.365 
G1 F1800 X169.354 Y73.470 E0.69117
G1 F12000 X168.970 Y72.521 
G1 F1800 X163.814 Y67.365 E0.58373
G1 F12000 X164.380 Y67.365 
G1 F1800 X168.587 Y71.572 E0.47629
G1 F12000 X168.203 Y70.622 
G1 F1800 X164.946 Y67.365 E0.36874
G1 F12000 X165.511 Y67.365 
G1 F1800 X167.820 Y69.674 E0.26141
G1 F12000 X167.436 Y68.724 
G1 F1800 X166.077 Y67.365 E0.15386
G1 F12000 X166.643 Y67.365 
G1 F1800 X167.053 Y67.775 E0.04642
G1 F12000 X166.766 Y78.802 
G1 F1800 X173.965 Y86.001 E0.81502
G1 F12000 X173.345 Y85.947 
G1 F1800 X167.149 Y79.751 E0.70147
G1 F12000 X167.533 Y80.700 
G1 F1800 X172.725 Y85.892 E0.58780
G1 F12000 X172.105 Y85.838 
G1 F1800 X167.917 Y81.650 E0.47414
G1 F12000 X168.257 Y82.556 
G1 F1800 X171.485 Y85.784 E0.36545
G1 F12000 X170.865 Y85.730 
G1 F1800 X168.301 Y83.165 E0.29034
G1 F12000 X168.206 Y83.636 
G1 F1800 X170.245 Y85.675 E0.23084
G1 F12000 X169.625 Y85.621 
G1 F1800 X168.958 Y84.954 E0.07553 ;Remainder pre close towards end  MORE REM
G1 F1800 X168.035 Y84.031 B0.65 ; Start of overwrite close towards end  PROC MORE START
G1 F12000 X167.802 Y84.363 
G1 F1800 X169.005 Y85.566 B0.2 ;  PROC LESS
G1 F12000 X168.386 Y85.513 
G1 F1800 X167.862 Y84.989 B0 ;  PROC LESS
G1 F12000 X124.617 Y74.064 
;TYPE:WALL-INNER
M109
G1 B1 F150 E0.30000
G1 F1800 X123.576 Y74.144 E0.08358
G1 F1800 X107.414 Y74.169 E1.29383
G1 F1800 X107.131 Y74.209 E0.02288
G1 F1800 X106.925 Y74.271 E0.01722
G1 F1800 X106.678 Y74.407 E0.02257
G1 F1800 X106.461 Y74.585 E0.02247
G1 F1800 X106.266 Y74.818 E0.02432
G1 F1800 X106.018 Y75.260 E0.04057
G1 F1800 X105.878 Y75.716 E0.03819
G1 F1800 X105.842 Y76.038 E0.02594
G1 F1800 X105.852 Y76.814 E0.06213
G1 F1800 X101.115 Y76.814 E0.37921
G1 F1800 X101.120 Y75.267 E0.12384
G1 F1800 X101.092 Y74.944 E0.02595
G1 F1800 X100.974 Y74.491 E0.03747
G1 F1800 X100.776 Y74.098 E0.03523
G1 F1800 X100.550 Y73.847 E0.02704
G1 F1800 X100.222 Y73.625 E0.03171
G1 F1800 X99.872 Y73.512 E0.02944
G1 F1800 X78.689 Y73.484 E1.69578
G1 F1800 X77.823 Y73.394 E0.06970
G1 F1800 X100.028 Y73.393 E1.77759
G1 F1800 X100.226 Y73.375 E0.01592
G1 F1800 X100.544 Y73.242 E0.02759
G1 F1800 X100.591 Y73.201 E0.00499
G1 F1800 X100.689 Y73.201 E0.00785
G1 F1800 X100.799 Y73.020 E0.01696
G1 F1800 X105.846 Y73.020 E0.40403
G1 F1800 X105.859 Y73.152 E0.01062
G1 F1800 X105.954 Y73.455 E0.02542
G1 F1800 X106.139 Y73.732 E0.02667
G1 F1800 X106.354 Y73.913 E0.02250
G1 F1800 X106.594 Y74.024 E0.02117
G1 F1800 X106.838 Y74.064 E0.01979
G1 F1800 X124.617 Y74.064 E1.42328
G1 F12000 X125.285 Y74.414 
;TYPE:WALL-OUTER
G1 F1800 X123.594 Y74.544 E0.13577
G1 F1800 X107.443 Y74.569 E1.29295
G1 F1800 X107.218 Y74.601 E0.01819
G1 F1800 X107.080 Y74.642 E0.01152
G1 F1800 X106.903 Y74.740 E0.01620
G1 F1800 X106.744 Y74.870 E0.01644
G1 F1800 X106.597 Y75.046 E0.01836
G1 F1800 X106.388 Y75.418 E0.03416
G1 F1800 X106.271 Y75.798 E0.03183
G1 F1800 X106.242 Y76.058 E0.02094
G1 F1800 X106.253 Y76.915 E0.06861
G1 F1800 X106.249 Y76.966 E0.00410
G1 F1800 X106.221 Y77.048 E0.00694
G1 F1800 X106.156 Y77.135 E0.00869
G1 F1800 X106.029 Y77.207 E0.01169
G1 F1800 X100.960 Y77.214 E0.40579
G1 F1800 X100.875 Y77.186 E0.00716
G1 F1800 X100.796 Y77.127 E0.00789
G1 F1800 X100.739 Y77.049 E0.00773
G1 F1800 X100.714 Y76.973 E0.00640
G1 F1800 X100.720 Y75.284 E0.13521
G1 F1800 X100.697 Y75.012 E0.02185
G1 F1800 X100.598 Y74.634 E0.03128
G1 F1800 X100.443 Y74.326 E0.02760
G1 F1800 X100.285 Y74.151 E0.01887
G1 F1800 X100.045 Y73.988 E0.02323
G1 F1800 X99.809 Y73.912 E0.01985
G1 F1800 X78.667 Y73.884 E1.69250
G1 F1800 X77.597 Y73.773 E0.08612
G1 F1800 X76.345 Y73.523 E0.10221
G1 F1800 X75.828 Y73.371 E0.04314
G1 F1800 X74.887 Y73.014 E0.08057
G1 F1800 X74.851 Y72.994 E0.00330
G1 F1800 X100.010 Y72.993 E2.01407
G1 F1800 X100.129 Y72.982 E0.00957
G1 F1800 X100.330 Y72.898 E0.01744
G1 F1800 X100.441 Y72.801 E0.01180
G1 F1800 X100.464 Y72.801 E0.00184
G1 F1800 X100.575 Y72.620 E0.01700
G1 F1800 X106.240 Y72.620 E0.45350
G1 F1800 X106.239 Y72.928 E0.02466
G1 F1800 X106.253 Y73.071 E0.01150
G1 F1800 X106.319 Y73.280 E0.01755
G1 F1800 X106.440 Y73.463 E0.01756
G1 F1800 X106.571 Y73.572 E0.01364
G1 F1800 X106.713 Y73.638 E0.01254
G1 F1800 X106.871 Y73.664 E0.01282
G1 F1800 X128.872 Y73.664 E1.76126
G1 F1800 X127.732 Y73.994 E0.09501
G1 F1800 X126.382 Y74.260 E0.11015
G1 F1800 X125.285 Y74.414 E0.08868
G1 F12000 X125.260 Y74.114 
G1 F12000 X106.926 Y74.273 
G1 F12000 X106.025 Y74.920 
;TYPE:FILL
G1 F1800 X104.284 Y73.179 E0.19710
G1 F12000 X102.398 Y73.179 
G1 F1800 X105.686 Y76.467 E0.37224
G1 F12000 X103.987 Y76.653 
G1 F1800 X100.695 Y73.361 E0.37270
G1 F12000 X101.276 Y75.828 
G1 F1800 X102.102 Y76.653 E0.09346
G1 F12000 X101.289 Y74.419 
;TYPE:SKIN
G1 F1800 X100.965 Y73.812 E0.03938
G1 F1800 X100.626 Y73.473 E0.02332
G1 F1800 X100.373 Y73.503 E0.02040
G1 F12000 X105.682 Y73.721 
G1 F1800 X106.392 Y74.431 E0.08038
G1 F12000 X106.130 Y74.734 
G1 F1800 X105.933 Y74.820 E0.01471
G1 F1800 X105.926 Y75.096 E0.02210
G1 F12000 X107.414 Y74.170 
G1 F12000 X127.161 Y73.883 
G1 F12000 X125.058 Y73.864 
G1 F1800 X125.507 Y74.030 E0.03765
G1 F1800 X126.038 Y73.995 E0.02961
G1 F1800 X126.568 Y73.959 E0.02158
G1 F1800 X126.854 Y73.962 E0.02290
;LAYER:13 height:2.900
G1 F12000 X125.461 Y73.935 Z2.900 
; Suppressed Tool Node -T start 276.0374084394897 T finish 299.16084672296194 ; Tool Node duration: 23.12343828347191
;TYPE:WALL-INNER
G1 F1800 X107.406 Y74.001 E1.44538
G1 F1800 X107.172 Y74.025 E0.01883
G1 F1800 X106.915 Y74.100 E0.02143
G1 F1800 X106.674 Y74.229 E0.02188
G1 F1800 X106.462 Y74.396 E0.02160
G1 F1800 X106.276 Y74.607 E0.02252
G1 F1800 X106.106 Y74.890 E0.02643
G1 F1800 X106.007 Y75.131 E0.02086
G1 F1800 X105.940 Y75.376 E0.02033
G1 F1800 X105.861 Y75.885 E0.04124
G1 F1800 X105.859 Y76.814 E0.07437
G1 F1800 X101.097 Y76.820 E0.38122
G1 F1800 X101.101 Y75.493 E0.10623
G1 F1800 X101.070 Y75.086 E0.03268
G1 F1800 X100.934 Y74.637 E0.03756
G1 F1800 X100.800 Y74.381 E0.02313
G1 F1800 X100.525 Y74.051 E0.03439
G1 F1800 X100.311 Y73.879 E0.02198
G1 F1800 X100.077 Y73.760 E0.02102
G1 F1800 X99.839 Y73.691 E0.01984
G1 F1800 X99.600 Y73.664 E0.01925
G1 F1800 X99.559 Y73.667 E0.00329
G1 F1800 X79.541 Y73.651 E1.60252
G1 F1800 X78.647 Y73.562 E0.07192
G1 F1800 X100.022 Y73.561 E1.71115
G1 F1800 X100.198 Y73.545 E0.01415
G1 F1800 X100.397 Y73.475 E0.01689
G1 F1800 X100.553 Y73.393 E0.01411
G1 F1800 X100.724 Y73.254 E0.01764
G1 F1800 X100.900 Y73.020 E0.02344
G1 F1800 X105.906 Y73.020 E0.40075
G1 F1800 X106.007 Y73.312 E0.02473
G1 F1800 X106.129 Y73.505 E0.01828
G1 F1800 X106.383 Y73.745 E0.02797
G1 F1800 X106.729 Y73.889 E0.03000
G1 F1800 X125.757 Y73.895 E1.52326
G1 F1800 X125.461 Y73.935 E0.02391
G1 F12000 X125.486 Y74.335 
;TYPE:WALL-OUTER
G1 F1800 X107.427 Y74.401 E1.44570
G1 F1800 X107.249 Y74.419 E0.01432
G1 F1800 X107.068 Y74.472 E0.01510
G1 F1800 X106.894 Y74.565 E0.01579
G1 F1800 X106.738 Y74.688 E0.01590
G1 F1800 X106.600 Y74.844 E0.01667
G1 F1800 X106.465 Y75.070 E0.02107
G1 F1800 X106.386 Y75.260 E0.01647
G1 F1800 X106.332 Y75.459 E0.01651
G1 F1800 X106.261 Y75.916 E0.03702
G1 F1800 X106.259 Y76.844 E0.07429
G1 F1800 X106.263 Y76.920 E0.00609
G1 F1800 X106.260 Y76.957 E0.00297
G1 F1800 X106.210 Y77.089 E0.01130
G1 F1800 X106.138 Y77.162 E0.00821
G1 F1800 X106.019 Y77.214 E0.01040
G1 F1800 X100.998 Y77.220 E0.40195
G1 F1800 X100.957 Y77.217 E0.00329
G1 F1800 X100.857 Y77.185 E0.00841
G1 F1800 X100.791 Y77.137 E0.00653
G1 F1800 X100.731 Y77.053 E0.00826
G1 F1800 X100.701 Y76.960 E0.00782
G1 F1800 X100.697 Y76.914 E0.00370
G1 F1800 X100.701 Y75.508 E0.11256
G1 F1800 X100.675 Y75.160 E0.02794
G1 F1800 X100.562 Y74.789 E0.03105
G1 F1800 X100.465 Y74.604 E0.01672
G1 F1800 X100.243 Y74.338 E0.02774
G1 F1800 X100.092 Y74.216 E0.01554
G1 F1800 X99.929 Y74.133 E0.01464
G1 F1800 X99.760 Y74.084 E0.01409
G1 F1800 X99.592 Y74.065 E0.01353
G1 F1800 X99.571 Y74.067 E0.00169
G1 F1800 X79.521 Y74.051 E1.60508
G1 F1800 X78.270 Y73.926 E0.10065
G1 F1800 X77.648 Y73.822 E0.05048
G1 F1800 X76.496 Y73.536 E0.09502
G1 F1800 X76.049 Y73.390 E0.03764
G1 F1800 X75.539 Y73.184 E0.04403
G1 F1800 X75.494 Y73.162 E0.00401
G1 F1800 X100.003 Y73.161 E1.96204
G1 F1800 X100.113 Y73.151 E0.00884
G1 F1800 X100.236 Y73.108 E0.01043
G1 F1800 X100.331 Y73.058 E0.00859
G1 F1800 X100.434 Y72.974 E0.01064
G1 F1800 X100.571 Y72.792 E0.01824
G1 F1800 X100.625 Y72.677 E0.01017
G1 F1800 X100.639 Y72.620 E0.00470
G1 F1800 X106.274 Y72.620 E0.45110
G1 F1800 X106.272 Y72.678 E0.00465
G1 F1800 X106.294 Y72.917 E0.01921
G1 F1800 X106.370 Y73.138 E0.01871
G1 F1800 X106.440 Y73.249 E0.01051
G1 F1800 X106.604 Y73.404 E0.01806
G1 F1800 X106.809 Y73.489 E0.01777
G1 F1800 X129.669 Y73.496 E1.83003
G1 F1800 X129.095 Y73.697 E0.04869
G1 F1800 X127.768 Y74.022 E0.10937
G1 F1800 X125.486 Y74.335 E0.18439
G1 F12000 X125.464 Y74.035 
G1 F12000 X106.220 Y73.812 
;TYPE:FILL
G1 F1800 X103.374 Y76.658 E0.32220
G1 F12000 X101.486 Y76.660 
G1 F1800 X104.967 Y73.179 E0.39410
G1 F12000 X103.082 Y73.179 
G1 F1800 X102.068 Y74.193 E0.11476 ;Remainder pre close towards end  MORE REM
G1 F1800 X101.223 Y75.038 B0.68 ; Start of overwrite close towards end  PROC MORE START
G1 F12000 X100.527 Y73.848 
G1 F1800 X101.196 Y73.179 B0.43 ;  PROC LESS
G1 F12000 X105.262 Y76.655 
G1 F1800 X105.699 Y76.218 B0.26 ;  PROC LESS
G1 F12000 X101.212 Y74.432 
;TYPE:SKIN
G1 F1800 X100.972 Y74.389 B0.21 ;  PROC LESS
G1 F1800 X100.837 Y73.958 B0.14 ;  PROC LESS
G1 F1800 X101.027 Y73.486 B0 ;  PROC LESS
G1 F12000 X161.331 Y67.205 
;TYPE:WALL-INNER
M109
G1 B1 F150 E0.30000
G1 F1800 X166.772 Y67.205 E0.43557
G1 F1800 X174.450 Y86.204 E1.64045
G1 F1800 X167.952 Y85.635 E0.52218
G1 F1800 X167.479 Y84.463 E0.10118
G1 F1800 X167.693 Y84.250 E0.02417
G1 F1800 X167.871 Y84.004 E0.02431
G1 F1800 X168.003 Y83.743 E0.02341
G1 F1800 X168.092 Y83.479 E0.02230
G1 F1800 X168.142 Y83.182 E0.02411
G1 F1800 X168.144 Y82.880 E0.02418
G1 F1800 X168.092 Y82.551 E0.02666
G1 F1800 X162.357 Y68.346 E1.22635
G1 F1800 X162.113 Y67.939 E0.03799
G1 F1800 X161.817 Y67.599 E0.03609
G1 F1800 X161.331 Y67.205 E0.05009
G1 F12000 X161.536 Y67.885 
;TYPE:WALL-OUTER
G1 F1800 X160.714 Y67.253 E0.08301
G1 F1800 X160.173 Y66.805 E0.05623
G1 F1800 X167.042 Y66.805 E0.54989
G1 F1800 X175.066 Y86.660 E1.71436
G1 F1800 X167.673 Y86.013 E0.59410
G1 F1800 X166.989 Y84.318 E0.14632
G1 F1800 X167.023 Y84.301 E0.00304
G1 F1800 X167.224 Y84.154 E0.01993
G1 F1800 X167.388 Y83.990 E0.01857
G1 F1800 X167.528 Y83.795 E0.01922
G1 F1800 X167.633 Y83.588 E0.01858
G1 F1800 X167.703 Y83.382 E0.01742
G1 F1800 X167.742 Y83.147 E0.01907
G1 F1800 X167.744 Y82.910 E0.01897
G1 F1800 X167.704 Y82.659 E0.02035
G1 F1800 X161.998 Y68.525 E1.22021
G1 F1800 X161.788 Y68.175 E0.03268
G1 F1800 X161.536 Y67.885 E0.03076
G1 F12000 X161.913 Y67.472 
