; generated by Slic3r 1.1.5 on 2014-09-15 at 14:33:40

; perimeters extrusion width = 0.80mm
; infill extrusion width = 0.80mm
; solid infill extrusion width = 0.80mm
; top infill extrusion width = 0.50mm

G21 ; set units to millimeters
M104 S200 T1 ; set temperature

M109 S200 T1 ; wait for temperature to be reached
G90 ; use absolute coordinates
M83 ; use relative distances for extrusion
T1 ; change extruder
M106 S215 ; enable fan
G1 Z0.200 F12000.000 ; move to next layer (0)
G1 F1200.000 E-0.05000 ; retract
G1 X102.250 Y70.711 F12000.000 ; move to first perimeter point
G1 E0.85000 F1200.000 ; compensate retraction
G1 X119.750 Y70.711 E2.79197 F1080.000 ; perimeter
G1 X119.750 Y91.289 E3.28313 ; perimeter
G1 X102.250 Y91.289 E2.79197 ; perimeter
G1 X102.250 Y70.831 E3.26398 ; perimeter
G1 X101.450 Y69.911 F12000.000 ; move to first perimeter point
G1 X120.550 Y69.911 E3.04724 F1080.000 ; perimeter
G1 X120.550 Y92.089 E3.53839 ; perimeter
G1 X101.450 Y92.089 E3.04724 ; perimeter
G1 X101.450 Y70.031 E3.51925 ; perimeter
G1 X102.143 Y70.311 F12000.000 ; move inwards before travel
G1 X119.150 Y71.271 F12000.000 ; move to first fill point
G1 X119.190 Y71.311 E0.00903 F1080.000 ; fill
G1 X119.190 Y72.464 E0.18403 ; fill
G1 X117.997 Y71.271 E0.26929 ; fill
G1 X116.843 Y71.271 E0.18403 ; fill
G1 X119.190 Y73.618 E0.52955 ; fill
G1 X119.190 Y74.771 E0.18403 ; fill
G1 X115.690 Y71.271 E0.78980 ; fill
G1 X114.536 Y71.271 E0.18403 ; fill
G1 X119.190 Y75.925 E1.05006 ; fill
G1 X119.190 Y77.078 E0.18403 ; fill
G1 X113.382 Y71.271 E1.31032 ; fill
G1 X112.229 Y71.271 E0.18403 ; fill
G1 X119.190 Y78.232 E1.57058 ; fill
G1 X119.190 Y79.385 E0.18403 ; fill
G1 X111.075 Y71.271 E1.83084 ; fill
G1 X109.922 Y71.271 E0.18403 ; fill
G1 X119.190 Y80.539 E2.09110 ; fill
G1 X119.190 Y81.692 E0.18403 ; fill
G1 X108.768 Y71.271 E2.35136 ; fill
G1 X107.615 Y71.271 E0.18403 ; fill
G1 X119.190 Y82.846 E2.61162 ; fill
G1 X119.190 Y83.999 E0.18403 ; fill
G1 X106.461 Y71.271 E2.87188 ; fill
G1 X105.308 Y71.271 E0.18403 ; fill
G1 X119.190 Y85.153 E3.13214 ; fill
G1 X119.190 Y86.306 E0.18403 ; fill
G1 X104.154 Y71.271 E3.39240 ; fill
G1 X103.001 Y71.271 E0.18403 ; fill
G1 X119.190 Y87.460 E3.65266 ; fill
G1 X119.190 Y88.613 E0.18403 ; fill
G1 X102.810 Y72.233 E3.69576 ; fill
G1 X102.810 Y73.387 E0.18403 ; fill
G1 X119.190 Y89.767 E3.69576 ; fill
G1 X118.999 Y90.729 E0.15655 ; fill
G1 X102.810 Y74.540 E3.65266 ; fill
G1 X102.810 Y75.694 E0.18403 ; fill
G1 X117.846 Y90.729 E3.39240 ; fill
G1 X116.692 Y90.729 E0.18403 ; fill
G1 X102.810 Y76.847 E3.13214 ; fill
G1 X102.810 Y78.001 E0.18403 ; fill
G1 X115.539 Y90.729 E2.87188 ; fill
G1 X114.385 Y90.729 E0.18403 ; fill
G1 X102.810 Y79.154 E2.61162 ; fill
G1 X102.810 Y80.308 E0.18403 ; fill
G1 X113.232 Y90.729 E2.35136 ; fill
G1 X112.078 Y90.729 E0.18403 ; fill
G1 X102.810 Y81.461 E2.09110 ; fill
G1 X102.810 Y82.615 E0.18403 ; fill
G1 X110.925 Y90.729 E1.83084 ; fill
G1 X109.771 Y90.729 E0.18403 ; fill
G1 X102.810 Y83.768 E1.57058 ; fill
G1 X102.810 Y84.922 E0.18403 ; fill
G1 X108.617 Y90.729 E1.31032 ; fill
G1 X107.464 Y90.729 E0.18403 ; fill
G1 X102.810 Y86.075 E1.05006 ; fill
G1 X102.810 Y87.229 E0.18403 ; fill
G1 X106.310 Y90.729 E0.78980 ; fill
G1 X105.157 Y90.729 E0.18403 ; fill
G1 X102.810 Y88.382 E0.52954 ; fill
G1 X102.810 Y89.536 E0.18403 ; fill
G1 X104.003 Y90.729 E0.26928 ; fill
G1 X102.850 Y90.729 E0.18403 ; fill
G1 X102.810 Y90.689 E0.00902 ; fill
M106 S251 ; enable fan
G1 Z0.500 F12000.000 ; move to next layer (1)
G1 X102.375 Y70.855 F12000.000 ; move to first perimeter point
G1 X119.625 Y70.855 E4.12813 F2100.000 ; perimeter
G1 X119.625 Y91.145 E4.85561 ; perimeter
G1 X102.375 Y91.145 E4.12813 ; perimeter
G1 X102.375 Y70.975 E4.82689 ; perimeter
G1 X101.575 Y70.055 F12000.000 ; move to first perimeter point
G1 X120.425 Y70.055 E4.51103 F2100.000 ; perimeter
G1 X120.425 Y91.945 E5.23851 ; perimeter
G1 X101.575 Y91.945 E4.51103 ; perimeter
G1 X101.575 Y70.175 E5.20979 ; perimeter
G1 X102.268 Y70.455 F12000.000 ; move inwards before travel
G1 X102.975 Y71.415 F12000.000 ; move to first fill point
G1 X102.935 Y71.455 E0.01354 F2100.000 ; fill
G1 X102.935 Y72.591 E0.27189 ; fill
G1 X104.111 Y71.415 E0.39805 ; fill
G1 X105.247 Y71.415 E0.27189 ; fill
G1 X102.935 Y73.727 E0.78256 ; fill
G1 X102.935 Y74.863 E0.27189 ; fill
G1 X106.383 Y71.415 E1.16706 ; fill
G1 X107.519 Y71.415 E0.27189 ; fill
G1 X102.935 Y76.000 E1.55157 ; fill
G1 X102.935 Y77.136 E0.27189 ; fill
G1 X108.656 Y71.415 E1.93608 ; fill
G1 X109.792 Y71.415 E0.27189 ; fill
G1 X102.935 Y78.272 E2.32059 ; fill
G1 X102.935 Y79.408 E0.27189 ; fill
G1 X110.928 Y71.415 E2.70510 ; fill
G1 X112.064 Y71.415 E0.27189 ; fill
G1 X102.935 Y80.544 E3.08961 ; fill
G1 X102.935 Y81.680 E0.27189 ; fill
G1 X113.200 Y71.415 E3.47412 ; fill
G1 X114.336 Y71.415 E0.27189 ; fill
G1 X102.935 Y82.816 E3.85863 ; fill
G1 X102.935 Y83.952 E0.27189 ; fill
G1 X115.472 Y71.415 E4.24314 ; fill
G1 X116.609 Y71.415 E0.27189 ; fill
G1 X102.935 Y85.089 E4.62765 ; fill
G1 X102.935 Y86.225 E0.27189 ; fill
G1 X117.745 Y71.415 E5.01215 ; fill
G1 X118.881 Y71.415 E0.27189 ; fill
G1 X102.935 Y87.361 E5.39666 ; fill
G1 X102.935 Y88.497 E0.27189 ; fill
G1 X119.065 Y72.367 E5.45902 ; fill
G1 X119.065 Y73.503 E0.27189 ; fill
G1 X102.935 Y89.633 E5.45902 ; fill
G1 X103.119 Y90.585 E0.23202 ; fill
G1 X119.065 Y74.639 E5.39666 ; fill
G1 X119.065 Y75.775 E0.27189 ; fill
G1 X104.255 Y90.585 E5.01215 ; fill
G1 X105.391 Y90.585 E0.27189 ; fill
G1 X119.065 Y76.911 E4.62765 ; fill
G1 X119.065 Y78.048 E0.27189 ; fill
G1 X106.528 Y90.585 E4.24314 ; fill
G1 X107.664 Y90.585 E0.27189 ; fill
G1 X119.065 Y79.184 E3.85863 ; fill
G1 X119.065 Y80.320 E0.27189 ; fill
G1 X108.800 Y90.585 E3.47412 ; fill
G1 X109.936 Y90.585 E0.27189 ; fill
G1 X119.065 Y81.456 E3.08961 ; fill
G1 X119.065 Y82.592 E0.27189 ; fill
G1 X111.072 Y90.585 E2.70510 ; fill
G1 X112.208 Y90.585 E0.27189 ; fill
G1 X119.065 Y83.728 E2.32059 ; fill
G1 X119.065 Y84.864 E0.27189 ; fill
G1 X113.344 Y90.585 E1.93608 ; fill
G1 X114.481 Y90.585 E0.27189 ; fill
G1 X119.065 Y86.000 E1.55157 ; fill
G1 X119.065 Y87.137 E0.27189 ; fill
G1 X115.617 Y90.585 E1.16706 ; fill
G1 X116.753 Y90.585 E0.27189 ; fill
G1 X119.065 Y88.273 E0.78256 ; fill
G1 X119.065 Y89.409 E0.27189 ; fill
G1 X117.889 Y90.585 E0.39805 ; fill
G1 X119.025 Y90.585 E0.27189 ; fill
G1 X119.065 Y90.545 E0.01354 ; fill
M106 S253 ; enable fan
G1 Z0.800 F12000.000 ; move to next layer (2)
G1 X102.525 Y71.028 F12000.000 ; move to first perimeter point
G1 X119.475 Y71.028 E4.05634 F2100.000 ; perimeter
G1 X119.475 Y90.972 E4.77271 ; perimeter
G1 X102.525 Y90.972 E4.05634 ; perimeter
G1 X102.525 Y71.148 E4.74399 ; perimeter
G1 X101.725 Y70.228 F12000.000 ; move to first perimeter point
G1 X120.275 Y70.228 E4.43924 F2100.000 ; perimeter
G1 X120.275 Y91.772 E5.15561 ; perimeter
G1 X101.725 Y91.772 E4.43924 ; perimeter
G1 X101.725 Y70.348 E5.12689 ; perimeter
G1 X102.418 Y70.628 F12000.000 ; move inwards before travel
G1 X118.875 Y71.588 F12000.000 ; move to first fill point
G1 X118.915 Y71.628 E0.01354 F2100.000 ; fill
G1 X118.915 Y72.781 E0.27580 ; fill
G1 X117.723 Y71.588 E0.40357 ; fill
G1 X116.570 Y71.588 E0.27580 ; fill
G1 X118.915 Y73.933 E0.79360 ; fill
G1 X118.915 Y75.086 E0.27580 ; fill
G1 X115.418 Y71.588 E1.18364 ; fill
G1 X114.265 Y71.588 E0.27580 ; fill
G1 X118.915 Y76.238 E1.57367 ; fill
G1 X118.915 Y77.391 E0.27580 ; fill
G1 X113.113 Y71.588 E1.96371 ; fill
G1 X111.960 Y71.588 E0.27580 ; fill
G1 X118.915 Y78.543 E2.35374 ; fill
G1 X118.915 Y79.695 E0.27580 ; fill
G1 X110.808 Y71.588 E2.74377 ; fill
G1 X109.655 Y71.588 E0.27580 ; fill
G1 X118.915 Y80.848 E3.13381 ; fill
G1 X118.915 Y82.000 E0.27580 ; fill
G1 X108.503 Y71.588 E3.52384 ; fill
G1 X107.351 Y71.588 E0.27580 ; fill
G1 X118.915 Y83.153 E3.91387 ; fill
G1 X118.915 Y84.305 E0.27580 ; fill
G1 X106.198 Y71.588 E4.30391 ; fill
G1 X105.046 Y71.588 E0.27580 ; fill
G1 X118.915 Y85.458 E4.69394 ; fill
G1 X118.915 Y86.610 E0.27580 ; fill
G1 X103.893 Y71.588 E5.08398 ; fill
G1 X103.085 Y71.933 E0.21022 ; fill
G1 X118.915 Y87.763 E5.35749 ; fill
G1 X118.915 Y88.915 E0.27580 ; fill
G1 X103.085 Y73.085 E5.35749 ; fill
G1 X103.085 Y74.237 E0.27580 ; fill
G1 X118.915 Y90.067 E5.35749 ; fill
G1 X118.107 Y90.412 E0.21022 ; fill
G1 X103.085 Y75.390 E5.08397 ; fill
G1 X103.085 Y76.542 E0.27580 ; fill
G1 X116.954 Y90.412 E4.69394 ; fill
G1 X115.802 Y90.412 E0.27580 ; fill
G1 X103.085 Y77.695 E4.30391 ; fill
G1 X103.085 Y78.847 E0.27580 ; fill
G1 X114.649 Y90.412 E3.91387 ; fill
G1 X113.497 Y90.412 E0.27580 ; fill
G1 X103.085 Y80.000 E3.52384 ; fill
G1 X103.085 Y81.152 E0.27580 ; fill
G1 X112.345 Y90.412 E3.13381 ; fill
G1 X111.192 Y90.412 E0.27580 ; fill
G1 X103.085 Y82.305 E2.74377 ; fill
G1 X103.085 Y83.457 E0.27580 ; fill
G1 X110.040 Y90.412 E2.35374 ; fill
G1 X108.887 Y90.412 E0.27580 ; fill
G1 X103.085 Y84.609 E1.96371 ; fill
G1 X103.085 Y85.762 E0.27580 ; fill
G1 X107.735 Y90.412 E1.57367 ; fill
G1 X106.582 Y90.412 E0.27580 ; fill
G1 X103.085 Y86.914 E1.18364 ; fill
G1 X103.085 Y88.067 E0.27580 ; fill
G1 X105.430 Y90.412 E0.79360 ; fill
G1 X104.277 Y90.412 E0.27580 ; fill
G1 X103.085 Y89.219 E0.40357 ; fill
G1 X103.085 Y90.372 E0.27580 ; fill
G1 X103.125 Y90.412 E0.01354 ; fill
M106 S255 ; enable fan
G1 Z1.100 F12000.000 ; move to next layer (3)
G1 X102.675 Y71.201 F12000.000 ; move to first perimeter point
G1 X119.325 Y71.201 E3.98454 F912.474 ; perimeter
G1 X119.325 Y90.799 E4.68981 ; perimeter
G1 X102.675 Y90.799 E3.98454 ; perimeter
G1 X102.675 Y71.321 E4.66109 ; perimeter
G1 X101.875 Y70.401 F12000.000 ; move to first perimeter point
G1 X120.125 Y70.401 E4.36744 F912.474 ; perimeter
G1 X120.125 Y91.599 E5.07271 ; perimeter
G1 X101.875 Y91.599 E4.36744 ; perimeter
G1 X101.875 Y70.521 E5.04399 ; perimeter
G1 X102.568 Y70.801 F12000.000 ; move inwards before travel
G1 X103.235 Y72.481 F12000.000 ; move to first fill point
G1 X103.954 Y71.761 E0.24343 F1042.827 ; fill
G1 X107.692 Y71.761 E0.89454 ; fill
G1 X103.235 Y78.976 E2.02951 ; fill
G1 X103.235 Y83.794 E1.15304 ; fill
G1 X115.268 Y71.761 E4.07242 ; fill
G1 X116.844 Y71.761 E0.37711 ; fill
G1 X105.429 Y90.239 E5.19754 ; fill
G1 X108.105 Y90.239 E0.64032 ; fill
G1 X118.765 Y79.578 E3.60789 ; fill
G1 X118.765 Y83.465 E0.93021 ; fill
G1 X114.581 Y90.239 E1.90533 ; fill
G1 Z1.400 F12000.000 ; move to next layer (4)
G1 X102.825 Y71.375 F12000.000 ; move to first perimeter point
G1 X119.175 Y71.375 E3.91275 F900.000 ; perimeter
G1 X119.175 Y90.625 E4.60691 ; perimeter
G1 X102.825 Y90.625 E3.91275 ; perimeter
G1 X102.825 Y71.495 E4.57819 ; perimeter
G1 X102.025 Y70.575 F12000.000 ; move to first perimeter point
G1 X119.975 Y70.575 E4.29565 F900.000 ; perimeter
G1 X119.975 Y91.425 E4.98981 ; perimeter
G1 X102.025 Y91.425 E4.29565 ; perimeter
G1 X102.025 Y70.695 E4.96109 ; perimeter
G1 X102.718 Y70.975 F12000.000 ; move inwards before travel
G1 X103.385 Y85.953 F12000.000 ; move to first fill point
G1 X110.011 Y90.065 E1.86624 F996.443 ; fill
G1 X114.408 Y90.065 E1.05243 ; fill
G1 X103.385 Y79.042 E3.73077 ; fill
G1 X103.385 Y76.785 E0.54015 ; fill
G1 X118.615 Y86.238 E4.28974 ; fill
G1 X118.615 Y82.958 E0.78488 ; fill
G1 X107.592 Y71.935 E3.73077 ; fill
G1 X110.342 Y71.935 E0.65814 ; fill
G1 X118.615 Y77.070 E2.33029 ; fill
G1 Z1.700 F12000.000 ; move to next layer (5)
G1 X102.975 Y71.548 F12000.000 ; move to first perimeter point
G1 X119.025 Y71.548 E3.84096 F900.000 ; perimeter
G1 X119.025 Y90.452 E4.52401 ; perimeter
G1 X102.975 Y90.452 E3.84096 ; perimeter
G1 X102.975 Y71.668 E4.49529 ; perimeter
G1 X102.175 Y70.748 F12000.000 ; move to first perimeter point
G1 X119.825 Y70.748 E4.22386 F900.000 ; perimeter
G1 X119.825 Y91.252 E4.90691 ; perimeter
G1 X102.175 Y91.252 E4.22386 ; perimeter
G1 X102.175 Y70.868 E4.87819 ; perimeter
G1 X102.868 Y71.148 F12000.000 ; move inwards before travel
G1 X103.535 Y72.181 F12000.000 ; move to first fill point
G1 X103.608 Y72.108 E0.02466 F999.185 ; fill
G1 X107.391 Y72.108 E0.90532 ; fill
G1 X103.535 Y78.403 E1.76669 ; fill
G1 X103.535 Y83.494 E1.21839 ; fill
G1 X114.922 Y72.108 E3.85365 ; fill
G1 X116.513 Y72.108 E0.38074 ; fill
G1 X105.620 Y89.892 E4.99086 ; fill
G1 X108.451 Y89.892 E0.67756 ; fill
G1 X118.465 Y79.878 E3.38912 ; fill
G1 X118.465 Y83.813 E0.94159 ; fill
G1 X114.741 Y89.892 E1.70609 ; fill
G1 Z2.000 F12000.000 ; move to next layer (6)
G1 X103.125 Y71.721 F12000.000 ; move to first perimeter point
G1 X118.875 Y71.721 E3.76916 F900.000 ; perimeter
G1 X118.875 Y90.279 E4.44111 ; perimeter
G1 X103.125 Y90.279 E3.76916 ; perimeter
G1 X103.125 Y71.841 E4.41239 ; perimeter
G1 X102.325 Y70.921 F12000.000 ; move to first perimeter point
G1 X119.675 Y70.921 E4.15206 F900.000 ; perimeter
G1 X119.675 Y91.079 E4.82401 ; perimeter
G1 X102.325 Y91.079 E4.15206 ; perimeter
G1 X102.325 Y71.041 E4.79529 ; perimeter
G1 X103.018 Y71.321 F12000.000 ; move inwards before travel
G1 X103.685 Y85.765 F12000.000 ; move to first fill point
G1 X110.708 Y89.719 E1.92878 F951.138 ; fill
G1 X114.062 Y89.719 E0.80262 ; fill
G1 X103.685 Y79.342 E3.51200 ; fill
G1 X103.685 Y76.924 E0.57873 ; fill
G1 X118.315 Y85.160 E4.01783 ; fill
G1 X118.315 Y82.658 E0.59868 ; fill
G1 X107.938 Y72.281 E3.51200 ; fill
G1 X111.144 Y72.281 E0.76717 ; fill
G1 X118.315 Y76.318 E1.96946 ; fill
G1 Z2.300 F12000.000 ; move to next layer (7)
G1 X103.275 Y71.894 F12000.000 ; move to first perimeter point
G1 X118.725 Y71.894 E3.69737 F900.000 ; perimeter
G1 X118.725 Y90.106 E4.35821 ; perimeter
G1 X103.275 Y90.106 E3.69737 ; perimeter
G1 X103.275 Y72.014 E4.32949 ; perimeter
G1 X102.475 Y71.094 F12000.000 ; move to first perimeter point
G1 X119.525 Y71.094 E4.08027 F900.000 ; perimeter
G1 X119.525 Y90.906 E4.74111 ; perimeter
G1 X102.475 Y90.906 E4.08027 ; perimeter
G1 X102.475 Y71.214 E4.71239 ; perimeter
G1 X103.168 Y71.494 F12000.000 ; move inwards before travel
G1 X107.468 Y72.454 F12000.000 ; move to first fill point
G1 X103.835 Y79.036 E1.79916 F936.979 ; fill
G1 X103.835 Y83.194 E0.99517 ; fill
G1 X114.575 Y72.454 E3.63488 ; fill
G1 X116.248 Y72.454 E0.40038 ; fill
G1 X106.813 Y89.546 E4.67206 ; fill
G1 X108.797 Y89.546 E0.47495 ; fill
G1 X118.165 Y80.178 E3.17035 ; fill
G1 X118.165 Y84.886 E1.12663 ; fill
G1 X115.593 Y89.546 E1.27379 ; fill
G1 Z2.600 F12000.000 ; move to next layer (8)
G1 X103.425 Y72.068 F12000.000 ; move to first perimeter point
G1 X118.575 Y72.068 E3.62558 F900.000 ; perimeter
G1 X118.575 Y89.932 E4.27531 ; perimeter
G1 X103.425 Y89.932 E3.62558 ; perimeter
G1 X103.425 Y72.188 E4.24659 ; perimeter
G1 X102.625 Y71.268 F12000.000 ; move to first perimeter point
G1 X119.375 Y71.268 E4.00848 F900.000 ; perimeter
G1 X119.375 Y90.732 E4.65821 ; perimeter
G1 X102.625 Y90.732 E4.00848 ; perimeter
G1 X102.625 Y71.388 E4.62949 ; perimeter
G1 X103.318 Y71.668 F12000.000 ; move inwards before travel
G1 X103.985 Y86.016 F12000.000 ; move to first fill point
G1 X110.022 Y89.373 E1.65301 F911.551 ; fill
G1 X113.716 Y89.373 E0.88398 ; fill
G1 X103.985 Y79.642 E3.29323 ; fill
G1 X103.985 Y77.213 E0.58114 ; fill
G1 X118.015 Y85.015 E3.84170 ; fill
G1 X118.015 Y82.358 E0.63576 ; fill
G1 X108.284 Y72.627 E3.29323 ; fill
G1 X111.568 Y72.627 E0.78576 ; fill
G1 X118.015 Y76.212 E1.76539 ; fill
G1 Z2.900 F12000.000 ; move to next layer (9)
G1 X103.575 Y72.241 F12000.000 ; move to first perimeter point
G1 X118.425 Y72.241 E3.55378 F900.000 ; perimeter
G1 X118.425 Y89.759 E4.19241 ; perimeter
G1 X103.575 Y89.759 E3.55378 ; perimeter
G1 X103.575 Y72.361 E4.16369 ; perimeter
G1 X102.775 Y71.441 F12000.000 ; move to first perimeter point
G1 X119.225 Y71.441 E3.93668 F900.000 ; perimeter
G1 X119.225 Y90.559 E4.57531 ; perimeter
G1 X102.775 Y90.559 E3.93668 ; perimeter
G1 X102.775 Y71.561 E4.54659 ; perimeter
G1 X103.468 Y71.841 F12000.000 ; move inwards before travel
G1 X107.183 Y72.801 F12000.000 ; move to first fill point
G1 X104.135 Y78.395 E1.52455 F900.000 ; fill
G1 X104.135 Y82.894 E1.07678 ; fill
G1 X114.229 Y72.801 E3.41611 ; fill
