; File post-processed by the CEL Tech Roboxiser on Thu 8 Oct 2015 11:53:40
; Robox? AutoMaker? - chrisdev
;
; Pre print gcode
; Printed with safety features OFF
;
; Macro Start - before_print
;
M83				;Set Extruder to Relative moves
M139			;Set & heat first layer Bed temp.

;
; Macro Start - Home_all_Axis_in_sequence
;
;Home_all_Axis_in_sequence
G90 			;Use X Y Z Absolute positioning
G0 Z5			;Move up 5mm if homed
G28 Y			;Home Y
G0 Y115			;Position Y
T0				;Select Nozzle 0
G39				;Clear the bed levelling points
G28 Z			;Home Z
G0 Z10			;Move up 10mm if homed
G28 X			;Home X
;
; Macro End - Home_all_Axis_in_sequence
;

M190			;Wait for Bed to get to temp.
M140			;Go to bed temperature from loaded reel - don't wait
M103 S T		;Set & heat first layer nozzle temp.
M109			;Wait for Nozzle to get to temp.
M170			;Set Ambient temp.

;
; Macro Start - Short_Purge#RBX01-DM#N0
;
;Short_Purge_T0
G0 Y-6 X11 Z10
T0
G0 Z4
G1 Y-4 F400
G36 D500 F400
G0 B1
G1 D2 F250
G1 D30 X24 F250
G0 B0
G0 Z4.5
G0 Y3
;
; Macro End - Short_Purge#RBX01-DM#N0

; Macro Start - Short_Purge#RBX01-DM#N1
;
;Short_Purge_T1
G0 Y-6 X37 Z8
T1
G0 Z4
G1 Y-4 F400
G36 E500 F400
G0 B1
G1 E2 F250
G1 E30 X24 F250
G0 B0
G0 Z4.5
G0 Y3

;
; Macro End - Short_Purge#RBX01-DM#N1
;

;
; Macro Start - Level_Gantry_(2-points)
;
;Level_Gantry
T0			;Select Nozzle 0 (T0)
G0 X20 Y75		;Level Gantry Position 1
G28 Z			;Home Z
G0 Z4 			;Move up 4mm
G0 X190 Y75		;Level Gantry Position 2
G28 Z			;Home Z
G0 Z4 			;Move up 4mm
G38 			;Level gantry

; Macro End - Level_Gantry_(2-points)
;
; Macro Start - 7_point_Bed_probing-Set_Washout

;7_point_Bed_probing-Set_Washout
G0 Y20
G28 Z
G0 Z2
G0 X105
G28 Z
G0 Z2
G0 X20
G28 Z
G0 Z2
G0 Y130
G28 Z
G0 Z2
G0 X105
G28 Z
G0 Z2
G0 X190
G28 Z
G0 Z2
G0 X105 Y75
G28 Z
G0 Z2

G39 S0.5		;set washout over the first 2mm
;
; Macro End - 7_point_Bed_probing-Set_Washout
;

;Centre head and prime
G0 X105 Y75 Z5
G1 E1 D1 F400
M129			;Head LED on
;
; Macro End - before_print
;
; End of Pre print gcode

M103 S0			;Switch off Nozzle 0 heater


;LAYER:0
M107
T1
G1 F12000 X76.211 Y46.905 Z0.300 
;TYPE:WALL-INNER
G1 B1
G1 F480 X76.408 Y46.634 E0.06035
G1 F480 X76.646 Y46.396 E0.06063
G1 F480 X76.760 Y46.306 E0.02616
G1 F480 X76.945 Y46.186 E0.03972
G1 F480 X77.192 Y46.063 E0.04970
G1 F480 X77.506 Y45.961 E0.05947
G1 F480 X77.834 Y45.909 E0.05982
G1 F480 X132.135 Y45.907 E9.78075
G1 F480 X132.496 Y45.962 E0.06577
G1 F480 X132.799 Y46.060 E0.05736
G1 F480 X133.093 Y46.211 E0.05953
G1 F480 X133.368 Y46.411 E0.06125
G1 F480 X133.602 Y46.645 E0.05961
G1 F480 X133.689 Y46.756 E0.02540
G1 F480 X133.868 Y47.047 E0.06154
G1 F480 X133.995 Y47.351 E0.05934
G1 F480 X134.071 Y47.668 E0.05872
G1 F480 X134.100 Y48.034 E0.06613
G1 F480 X134.090 Y102.165 E9.75013
G1 F480 X134.038 Y102.493 E0.05982
G1 F480 X133.938 Y102.799 E0.05799
G1 F480 X133.788 Y103.094 E0.05961
G1 F480 X133.591 Y103.365 E0.06035
G1 F480 X133.365 Y103.591 E0.05757
G1 F480 X133.089 Y103.792 E0.06150
G1 F480 X132.800 Y103.938 E0.05832
G1 F480 X132.496 Y104.037 E0.05759
G1 F480 X132.138 Y104.091 E0.06521
G1 F480 X111.748 Y104.083 E3.67267
G1 F480 X111.703 Y104.078 E0.00816
G1 F480 X111.346 Y103.991 E0.06619
G1 F480 X111.078 Y103.883 E0.05204
G1 F480 X110.788 Y103.712 E0.06064
G1 F480 X110.638 Y103.596 E0.03415
G1 F480 X110.406 Y103.364 E0.05910
G1 F480 X110.262 Y103.174 E0.04294
G1 F480 X110.117 Y102.923 E0.05221
G1 F480 X110.031 Y102.717 E0.04021
G1 F480 X109.970 Y102.526 E0.03612
G1 F480 X109.927 Y102.322 E0.03755
G1 F480 X109.900 Y101.985 E0.06090
G1 F480 X109.894 Y73.780 E5.08031
G1 F480 X109.815 Y73.185 E0.10811
G1 F480 X109.656 Y72.649 E0.10070
G1 F480 X109.497 Y72.270 E0.07403
G1 F480 X109.206 Y71.779 E0.10281
G1 F480 X108.952 Y71.449 E0.07501
G1 F480 X108.609 Y71.100 E0.08814
G1 F480 X108.069 Y70.690 E0.12212
G1 F480 X107.547 Y70.420 E0.10586
G1 F480 X107.159 Y70.275 E0.07461
G1 F480 X106.615 Y70.147 E0.10066
G1 F480 X106.354 Y70.116 E0.04734
G1 F480 X77.888 Y70.094 E5.12733
G1 F480 X77.690 Y70.075 E0.03583
G1 F480 X77.382 Y70.003 E0.05697
G1 F480 X76.924 Y69.801 E0.09016
G1 F480 X76.821 Y69.735 E0.02203
G1 F480 X76.417 Y69.377 E0.09723
G1 F480 X76.221 Y69.110 E0.05966
G1 F480 X76.046 Y68.763 E0.07000
G1 F480 X75.924 Y68.306 E0.08520
G1 F480 X75.909 Y47.834 E3.68744
G1 F480 X75.961 Y47.506 E0.05982
G1 F480 X76.061 Y47.200 E0.05799
G1 F480 X76.211 Y46.905 E0.05961
G1 F12000 X75.695 Y46.594 
;TYPE:WALL-OUTER
G1 F480 X75.950 Y46.244 E0.07800
G1 F480 X76.250 Y45.944 E0.07642
G1 F480 X76.407 Y45.820 E0.03604
G1 F480 X76.645 Y45.665 E0.05116
G1 F480 X76.968 Y45.505 E0.06493
G1 F480 X77.367 Y45.375 E0.07559
G1 F480 X77.784 Y45.309 E0.07605
G1 F480 X132.181 Y45.307 E9.79804
G1 F480 X132.637 Y45.377 E0.08310
G1 F480 X133.032 Y45.505 E0.07479
G1 F480 X133.404 Y45.695 E0.07524
G1 F480 X133.757 Y45.952 E0.07865
G1 F480 X134.050 Y46.245 E0.07464
G1 F480 X134.186 Y46.417 E0.03950
G1 F480 X134.403 Y46.770 E0.07464
G1 F480 X134.566 Y47.163 E0.07663
G1 F480 X134.665 Y47.575 E0.07632
G1 F480 X134.700 Y48.011 E0.07879
G1 F480 X134.690 Y102.215 E9.76328
G1 F480 X134.624 Y102.632 E0.07605
G1 F480 X134.494 Y103.032 E0.07576
G1 F480 X134.304 Y103.405 E0.07540
G1 F480 X134.049 Y103.755 E0.07800
G1 F480 X133.755 Y104.049 E0.07489
G1 F480 X133.403 Y104.304 E0.07829
G1 F480 X133.027 Y104.496 E0.07604
G1 F480 X132.637 Y104.622 E0.07382
G1 F480 X132.182 Y104.691 E0.08289
G1 F480 X111.716 Y104.683 E3.68636
G1 F480 X111.598 Y104.670 E0.02138
G1 F480 X111.162 Y104.564 E0.08082
G1 F480 X110.809 Y104.421 E0.06860
G1 F480 X110.455 Y104.212 E0.07405
G1 F480 X110.241 Y104.047 E0.04867
G1 F480 X109.949 Y103.755 E0.07438
G1 F480 X109.762 Y103.508 E0.05580
G1 F480 X109.577 Y103.188 E0.06658
G1 F480 X109.470 Y102.931 E0.05014
G1 F480 X109.389 Y102.676 E0.04819
G1 F480 X109.332 Y102.409 E0.04918
G1 F480 X109.300 Y102.008 E0.07246
G1 F480 X109.294 Y73.820 E5.07725
G1 F480 X109.226 Y73.310 E0.09267
G1 F480 X109.090 Y72.851 E0.08623
G1 F480 X108.960 Y72.540 E0.06071
G1 F480 X108.709 Y72.116 E0.08875
G1 F480 X108.499 Y71.844 E0.06190
G1 F480 X108.212 Y71.551 E0.07388
G1 F480 X107.748 Y71.199 E0.10490
G1 F480 X107.303 Y70.969 E0.09023
G1 F480 X106.985 Y70.850 E0.06116
G1 F480 X106.510 Y70.739 E0.08786
G1 F480 X106.318 Y70.716 E0.03483
G1 F480 X77.861 Y70.694 E5.12571
G1 F480 X77.586 Y70.667 E0.04977
G1 F480 X77.196 Y70.576 E0.07213
G1 F480 X76.721 Y70.374 E0.09297
G1 F480 X76.465 Y70.220 E0.05381
G1 F480 X76.041 Y69.854 E0.10089
G1 F480 X75.958 Y69.764 E0.02205
G1 F480 X75.708 Y69.424 E0.07601
G1 F480 X75.490 Y68.992 E0.08716
G1 F480 X75.389 Y68.676 E0.05975
G1 F480 X75.331 Y68.402 E0.05045
G1 F480 X75.309 Y68.214 E0.03409
G1 F480 X75.309 Y47.784 E3.67987
G1 F480 X75.375 Y47.367 E0.07605
G1 F480 X75.505 Y46.967 E0.07576
G1 F480 X75.695 Y46.594 E0.07540
G1 F12000 X76.377 Y47.103 
;TYPE:SKIN
G1 F480 X99.144 Y69.869 E5.79930
G1 F12000 X99.993 Y69.870 
G1 F480 X76.751 Y46.628 E5.92043
G1 F12000 X77.266 Y46.294 
G1 F480 X100.842 Y69.871 E6.00563
G1 F12000 X101.691 Y69.872 
G1 F480 X77.969 Y46.149 E6.04282
G1 F12000 X78.817 Y46.149 
G1 F480 X102.541 Y69.872 E6.04308
G1 F12000 X103.390 Y69.873 
G1 F480 X79.666 Y46.149 E6.04321
G1 F12000 X76.165 Y47.739 
G1 F480 X98.294 Y69.869 E5.63704
G1 F12000 X97.445 Y69.868 
G1 F480 X76.148 Y48.571 E5.42498
G1 F12000 X76.149 Y49.420 
G1 F480 X96.597 Y69.868 E5.20871
G1 F12000 X95.747 Y69.867 
G1 F480 X76.149 Y50.269 E4.99219
G1 F12000 X76.150 Y51.118 
G1 F480 X94.898 Y69.867 E4.77580
G1 F12000 X94.049 Y69.866 
G1 F480 X76.151 Y51.968 E4.55915
G1 F12000 X76.151 Y52.817 
G1 F480 X93.200 Y69.865 E4.34276
G1 F12000 X92.350 Y69.864 
G1 F480 X76.152 Y53.666 E4.12611
G1 F12000 X76.153 Y54.515 
G1 F480 X91.501 Y69.864 E3.90972
G1 F12000 X90.652 Y69.863 
G1 F480 X76.153 Y55.365 E3.69320
G1 F12000 X76.154 Y56.214 
G1 F480 X89.803 Y69.862 E3.47668
G1 F12000 X88.954 Y69.862 
G1 F480 X76.154 Y57.062 E3.26054
G1 F12000 X76.155 Y57.912 
G1 F480 X88.104 Y69.861 E3.04376
G1 F12000 X87.255 Y69.860 
G1 F480 X76.156 Y58.761 E2.82724
G1 F12000 X76.156 Y59.610 
G1 F480 X86.406 Y69.860 E2.61098
G1 F12000 X85.557 Y69.859 
G1 F480 X76.157 Y60.459 E2.39446
G1 F12000 X76.158 Y61.308 
G1 F480 X84.707 Y69.858 E2.17781
G1 F12000 X83.858 Y69.857 
G1 F480 X76.158 Y62.158 E1.96129
G1 F12000 X76.159 Y63.007 
G1 F480 X83.009 Y69.857 E1.74490
G1 F12000 X82.160 Y69.856 
G1 F480 X76.160 Y63.856 E1.52838
G1 F12000 X76.161 Y64.705 
G1 F480 X81.310 Y69.855 E1.31173
G1 F12000 X80.461 Y69.855 
G1 F480 X76.161 Y65.555 E1.09534
G1 F12000 X76.161 Y66.403 
G1 F480 X79.612 Y69.854 E0.87907
G1 F12000 X78.763 Y69.853 
G1 F480 X76.162 Y67.252 E0.66255
G1 F12000 X76.163 Y68.102 
G1 F480 X77.914 Y69.853 E0.44603
G1 F12000 X80.514 Y46.149 
G1 F480 X104.239 Y69.874 E6.04346
G1 F12000 X105.088 Y69.874 
G1 F480 X81.363 Y46.149 E6.04346
G1 F12000 X82.211 Y46.149 
G1 F480 X105.938 Y69.875 E6.04384
G1 F12000 X106.871 Y69.960 
G1 F480 X83.060 Y46.149 E6.06537
G1 F12000 X83.908 Y46.149 
G1 F480 X108.396 Y70.637 E6.23782
G1 F12000 X109.406 Y71.646 
G1 F480 X133.850 Y96.090 E6.22661
G1 F12000 X133.850 Y95.242 
G1 F480 X84.757 Y46.149 E12.50544
G1 F12000 X85.605 Y46.149 
G1 F480 X133.851 Y94.394 E12.28956
G1 F12000 X133.851 Y93.545 
G1 F480 X86.454 Y46.149 E12.07329
G1 F12000 X87.302 Y46.149 
G1 F480 X133.851 Y92.697 E11.85728
G1 F12000 X133.851 Y91.848 
G1 F480 X88.151 Y46.149 E11.64102
G1 F12000 X88.999 Y46.149 
G1 F480 X133.851 Y91.000 E11.42500
G1 F12000 X133.851 Y90.152 
G1 F480 X89.848 Y46.149 E11.20887
G1 F12000 X90.697 Y46.149 
G1 F480 X133.851 Y89.304 E10.99273
G1 F12000 X133.851 Y88.455 
G1 F480 X91.545 Y46.149 E10.77659
G1 F12000 X92.394 Y46.149 
G1 F480 X133.851 Y87.606 E10.56033
G1 F12000 X133.851 Y86.758 
G1 F480 X93.242 Y46.149 E10.34431
G1 F12000 X94.091 Y46.149 
G1 F480 X133.852 Y85.910 E10.12830
G1 F12000 X133.852 Y85.062 
G1 F480 X94.939 Y46.149 E9.91229
G1 F12000 X95.788 Y46.149 
G1 F480 X133.852 Y84.213 E9.69603
G1 F12000 X133.852 Y83.365 
G1 F480 X96.636 Y46.148 E9.48014
G1 F12000 X97.484 Y46.148 
G1 F480 X133.853 Y82.517 E9.26426
G1 F12000 X133.853 Y81.668 
G1 F480 X98.333 Y46.148 E9.04800
G1 F12000 X99.181 Y46.148 
G1 F480 X133.853 Y80.820 E8.83198
G1 F12000 X133.850 Y96.939 
G1 F480 X110.049 Y73.138 E6.06282
G1 F12000 X110.133 Y74.070 
G1 F480 X133.850 Y97.787 E6.04142
G1 F12000 X133.849 Y98.635 
G1 F480 X110.133 Y74.919 E6.04117
G1 F12000 X110.133 Y75.767 
G1 F480 X133.849 Y99.484 E6.04129
G1 F12000 X133.849 Y100.332 
G1 F480 X110.133 Y76.616 E6.04117
G1 F12000 X110.134 Y77.465 
G1 F480 X133.849 Y101.181 E6.04104
G1 F12000 X133.849 Y102.029 
G1 F480 X110.134 Y78.314 E6.04091
G1 F12000 X110.134 Y79.162 
G1 F480 X133.703 Y102.732 E6.00385
G1 F12000 X133.369 Y103.246 
G1 F480 X110.134 Y80.011 E5.91864
G1 F12000 X110.134 Y80.860 
G1 F480 X132.894 Y103.620 E5.79765
G1 F12000 X132.255 Y103.830 
G1 F480 X110.134 Y81.709 E5.63487
G1 F12000 X110.134 Y82.557 
G1 F480 X131.427 Y103.850 E5.42396
G1 F12000 X130.579 Y103.850 
G1 F480 X110.134 Y83.406 E5.20782
G1 F12000 X110.134 Y84.254 
G1 F480 X129.730 Y103.849 E4.99155
G1 F12000 X128.881 Y103.849 
G1 F480 X110.135 Y85.103 E4.77516
G1 F12000 X110.135 Y85.952 
G1 F480 X128.032 Y103.849 E4.55890
G1 F12000 X127.183 Y103.849 
G1 F480 X110.135 Y86.800 E4.34276
G1 F12000 X110.135 Y87.649 
G1 F480 X126.334 Y103.848 E4.12636
G1 F12000 X125.485 Y103.848 
G1 F480 X110.136 Y88.498 E3.90997
G1 F12000 X110.136 Y89.347 
G1 F480 X124.636 Y103.847 E3.69358
G1 F12000 X123.788 Y103.847 
G1 F480 X110.136 Y90.195 E3.47757
G1 F12000 X110.136 Y91.044 
G1 F480 X122.938 Y103.847 E3.26118
G1 F12000 X122.090 Y103.847 
G1 F480 X110.136 Y91.893 E3.04504
G1 F12000 X110.136 Y92.742 
G1 F480 X121.241 Y103.846 E2.82864
G1 F12000 X120.392 Y103.846 
G1 F480 X110.136 Y93.590 E2.61251
G1 F12000 X110.136 Y94.439 
G1 F480 X119.543 Y103.845 E2.39611
G1 F12000 X118.694 Y103.845 
G1 F480 X110.137 Y95.288 E2.17972
G1 F12000 X110.137 Y96.136 
G1 F480 X117.845 Y103.844 E1.96346
G1 F12000 X116.997 Y103.844 
G1 F480 X110.137 Y96.985 E1.74732
G1 F12000 X110.137 Y97.833 
G1 F480 X116.147 Y103.844 E1.53105
G1 F12000 X115.299 Y103.844 
G1 F480 X110.138 Y98.683 E1.31466
G1 F12000 X110.138 Y99.531 
G1 F480 X114.450 Y103.843 E1.09839
G1 F12000 X113.601 Y103.843 
G1 F480 X110.138 Y100.380 E0.88213
G1 F12000 X110.138 Y101.228 
G1 F480 X112.752 Y103.842 E0.66586
G1 F12000 X111.903 Y103.842 
G1 F480 X110.147 Y102.086 E0.44731
G1 F12000 X133.853 Y79.971 
G1 F480 X100.030 Y46.148 E8.61572
G1 F12000 X100.878 Y46.148 
G1 F480 X133.853 Y79.123 E8.39971
G1 F12000 X133.853 Y78.275 
G1 F480 X101.727 Y46.148 E8.18357
G1 F12000 X102.575 Y46.148 
G1 F480 X133.853 Y77.426 E7.96743
G1 F12000 X133.853 Y76.578 
G1 F480 X103.424 Y46.148 E7.75129
G1 F12000 X104.272 Y46.148 
G1 F480 X133.853 Y75.729 E7.53516
G1 F12000 X133.854 Y74.881 
G1 F480 X105.121 Y46.148 E7.31915
G1 F12000 X105.969 Y46.148 
G1 F480 X133.854 Y74.033 E7.10314
G1 F12000 X133.854 Y73.184 
G1 F480 X106.818 Y46.148 E6.88687
G1 F12000 X107.666 Y46.148 
G1 F480 X133.854 Y72.336 E6.67086
G1 F12000 X133.854 Y71.487 
G1 F480 X108.515 Y46.148 E6.45459
G1 F12000 X109.363 Y46.148 
G1 F480 X133.855 Y70.639 E6.23871
G1 F12000 X133.855 Y69.791 
G1 F480 X110.212 Y46.148 E6.02257
G1 F12000 X111.061 Y46.148 
G1 F480 X133.855 Y68.942 E5.80631
G1 F12000 X133.855 Y68.094 
G1 F480 X111.909 Y46.148 E5.59030
G1 F12000 X112.758 Y46.148 
G1 F480 X133.856 Y67.246 E5.37429
G1 F12000 X133.856 Y66.398 
G1 F480 X113.606 Y46.148 E5.15827
G1 F12000 X114.454 Y46.147 
G1 F480 X133.856 Y65.549 E4.94226
G1 F12000 X133.856 Y64.700 
G1 F480 X115.302 Y46.147 E4.72613
G1 F12000 X116.151 Y46.147 
G1 F480 X133.856 Y63.852 E4.50999
G1 F12000 X133.856 Y63.004 
G1 F480 X117.000 Y46.147 E4.29385
G1 F12000 X117.848 Y46.147 
G1 F480 X133.856 Y62.156 E4.07784
G1 F12000 X133.856 Y61.307 
G1 F480 X118.697 Y46.147 E3.86157
G1 F12000 X119.545 Y46.147 
G1 F480 X133.856 Y60.459 E3.64556
G1 F12000 X133.857 Y59.611 
G1 F480 X120.394 Y46.147 E3.42955
G1 F12000 X121.242 Y46.147 
G1 F480 X133.857 Y58.762 E3.21341
G1 F12000 X133.857 Y57.914 
G1 F480 X122.091 Y46.147 E2.99728
G1 F12000 X122.939 Y46.147 
G1 F480 X133.857 Y57.065 E2.78114
G1 F12000 X133.857 Y56.217 
G1 F480 X123.788 Y46.147 E2.56500
G1 F12000 X124.636 Y46.147 
G1 F480 X133.858 Y55.369 E2.34912
G1 F12000 X133.858 Y54.520 
G1 F480 X125.485 Y46.147 E2.13285
G1 F12000 X126.333 Y46.147 
G1 F480 X133.858 Y53.672 E1.91684
G1 F12000 X133.858 Y52.823 
G1 F480 X127.182 Y46.147 E1.70057
G1 F12000 X128.030 Y46.147 
G1 F480 X133.858 Y51.975 E1.48456
G1 F12000 X133.858 Y51.127 
G1 F480 X128.879 Y46.147 E1.26843
G1 F12000 X129.727 Y46.147 
G1 F480 X133.858 Y50.278 E1.05229
G1 F12000 X133.858 Y49.430 
G1 F480 X130.576 Y46.147 E0.83615
G1 F12000 X131.424 Y46.147 
G1 F480 X133.858 Y48.581 E0.62001
G1 F12000 X133.831 Y47.706 
G1 F480 X132.301 Y46.175 E0.38986
;LAYER:1
M106
G1 F12000 X132.130 Y45.606 Z0.500 

;TYPE:WALL-INNER
G1 F1140 X132.567 Y45.670 E0.03536
G1 F1140 X132.916 Y45.783 E0.02937
G1 F1140 X133.262 Y45.960 E0.03111
G1 F1140 X133.548 Y46.167 E0.02826
G1 F1140 X133.830 Y46.449 E0.03193
G1 F1140 X133.931 Y46.577 E0.01305
G1 F1140 X134.137 Y46.913 E0.03155
G1 F1140 X134.281 Y47.260 E0.03008
G1 F1140 X134.368 Y47.618 E0.02949
G1 F1140 X134.400 Y48.022 E0.03244
G1 F1140 X134.390 Y102.177 E4.33531
G1 F1140 X134.292 Y102.696 E0.04228
G1 F1140 X134.216 Y102.915 E0.01856
G1 F1140 X134.046 Y103.249 E0.03000
G1 F1140 X133.821 Y103.559 E0.03066
G1 F1140 X133.561 Y103.819 E0.02944
G1 F1140 X133.245 Y104.048 E0.03124
G1 F1140 X132.923 Y104.212 E0.02893
G1 F1140 X132.435 Y104.354 E0.04069
G1 F1140 X132.019 Y104.399 E0.03350
G1 F1140 X112.017 Y104.400 E1.60124
G1 F1140 X111.649 Y104.373 E0.02954
G1 F1140 X111.296 Y104.292 E0.02899
G1 F1140 X110.717 Y104.024 E0.05108
G1 F1140 X110.375 Y103.763 E0.03444
G1 F1140 X110.181 Y103.564 E0.02225
G1 F1140 X110.004 Y103.327 E0.02368
G1 F1140 X109.784 Y102.903 E0.03824
G1 F1140 X109.677 Y102.576 E0.02754
G1 F1140 X109.623 Y102.302 E0.02236
G1 F1140 X109.600 Y73.971 E2.26800
G1 F1140 X109.540 Y73.342 E0.05058
G1 F1140 X109.412 Y72.859 E0.04000
G1 F1140 X109.211 Y72.379 E0.04166
G1 F1140 X108.989 Y71.994 E0.03558
G1 F1140 X108.754 Y71.700 E0.03013
G1 F1140 X108.848 Y71.606 E0.01064
G1 F1140 X107.842 Y70.910 E0.09793
G1 F1140 X107.381 Y70.680 E0.04124
G1 F1140 X107.042 Y70.553 E0.02898
G1 F1140 X106.425 Y70.423 E0.05048
G1 F1140 X77.628 Y70.367 E2.30531
G1 F1140 X77.244 Y70.272 E0.03167
G1 F1140 X76.929 Y70.143 E0.02725
G1 F1140 X76.671 Y69.996 E0.02377
G1 F1140 X76.379 Y69.767 E0.02971
G1 F1140 X76.193 Y69.576 E0.02134
G1 F1140 X75.937 Y69.217 E0.03530
G1 F1140 X75.811 Y68.977 E0.02170
G1 F1140 X75.676 Y68.572 E0.03418
G1 F1140 X75.608 Y68.173 E0.03240
G1 F1140 X75.609 Y47.822 E1.62917
G1 F1140 X75.707 Y47.303 E0.04228
G1 F1140 X75.783 Y47.084 E0.01856
G1 F1140 X75.953 Y46.750 E0.03000
G1 F1140 X76.178 Y46.440 E0.03066
G1 F1140 X76.449 Y46.169 E0.03068
G1 F1140 X76.577 Y46.068 E0.01305
G1 F1140 X76.912 Y45.862 E0.03148
G1 F1140 X77.261 Y45.718 E0.03022
G1 F1140 X77.618 Y45.631 E0.02942
G1 F1140 X78.022 Y45.600 E0.03244
G1 F1140 X132.130 Y45.606 E4.33155
G1 F12000 X132.161 Y45.206 
;TYPE:WALL-OUTER
G1 F1140 X132.659 Y45.279 E0.04029
G1 F1140 X133.069 Y45.412 E0.03451
G1 F1140 X133.465 Y45.614 E0.03559
G1 F1140 X133.820 Y45.873 E0.03518
G1 F1140 X134.126 Y46.179 E0.03464
G1 F1140 X134.264 Y46.354 E0.01784
G1 F1140 X134.492 Y46.724 E0.03479
G1 F1140 X134.664 Y47.139 E0.03596
G1 F1140 X134.764 Y47.557 E0.03441
G1 F1140 X134.800 Y47.999 E0.03550
G1 F1140 X134.790 Y102.215 E4.34020
G1 F1140 X134.679 Y102.799 E0.04759
G1 F1140 X134.585 Y103.073 E0.02319
G1 F1140 X134.391 Y103.454 E0.03423
G1 F1140 X134.122 Y103.824 E0.03662
G1 F1140 X133.821 Y104.125 E0.03408
G1 F1140 X133.455 Y104.391 E0.03622
G1 F1140 X133.072 Y104.585 E0.03437
G1 F1140 X132.512 Y104.749 E0.04671
G1 F1140 X132.043 Y104.799 E0.03776
G1 F1140 X112.002 Y104.800 E1.60436
G1 F1140 X111.590 Y104.769 E0.03308
G1 F1140 X111.180 Y104.676 E0.03366
G1 F1140 X110.929 Y104.582 E0.02146
G1 F1140 X110.504 Y104.365 E0.03820
G1 F1140 X110.113 Y104.066 E0.03940
G1 F1140 X109.879 Y103.827 E0.02678
G1 F1140 X109.664 Y103.541 E0.02864
G1 F1140 X109.413 Y103.056 E0.04372
G1 F1140 X109.288 Y102.671 E0.03240
G1 F1140 X109.223 Y102.343 E0.02677
G1 F1140 X109.200 Y73.990 E2.26977
G1 F1140 X109.145 Y73.413 E0.04640
G1 F1140 X109.033 Y72.988 E0.03518
G1 F1140 X108.852 Y72.557 E0.03742
G1 F1140 X108.658 Y72.220 E0.03113
G1 F1140 X108.330 Y71.812 E0.04191
G1 F1140 X108.199 Y71.689 E0.01439
G1 F1140 X108.226 Y71.662 E0.00306
G1 F1140 X107.638 Y71.255 E0.05725
G1 F1140 X107.221 Y71.047 E0.03730
G1 F1140 X106.930 Y70.938 E0.02488
G1 F1140 X106.383 Y70.823 E0.04475
G1 F1140 X77.580 Y70.767 E2.30579
G1 F1140 X77.117 Y70.653 E0.03817
G1 F1140 X76.756 Y70.504 E0.03126
G1 F1140 X76.443 Y70.326 E0.02883
G1 F1140 X76.116 Y70.069 E0.03329
G1 F1140 X75.883 Y69.831 E0.02666
G1 F1140 X75.596 Y69.428 E0.03961
G1 F1140 X75.442 Y69.135 E0.02650
G1 F1140 X75.287 Y68.670 E0.03924
G1 F1140 X75.208 Y68.205 E0.03776
G1 F1140 X75.209 Y47.784 E1.63478
G1 F1140 X75.320 Y47.200 E0.04759
G1 F1140 X75.414 Y46.926 E0.02319
G1 F1140 X75.608 Y46.545 E0.03423
G1 F1140 X75.878 Y46.174 E0.03673
G1 F1140 X76.179 Y45.873 E0.03408
G1 F1140 X76.354 Y45.735 E0.01784
G1 F1140 X76.724 Y45.507 E0.03479
G1 F1140 X77.140 Y45.335 E0.03604
G1 F1140 X77.557 Y45.235 E0.03433
G1 F1140 X78.004 Y45.200 E0.03589
G1 F1140 X132.161 Y45.206 E4.33547
G1 F12000 X132.139 Y45.768 
;TYPE:SKIN
G1 F1140 X107.393 Y70.514 E2.80157
G1 F12000 X107.775 Y70.698 
G1 F1140 X132.618 Y45.855 E2.81255
G1 F12000 X133.022 Y46.017 
G1 F1140 X108.126 Y70.912 E2.81850
G1 F12000 X108.460 Y71.144 
G1 F1140 X133.370 Y46.234 E2.82014
G1 F12000 X133.662 Y46.507 
G1 F1140 X108.794 Y71.376 E2.81544
G1 F12000 X108.992 Y71.743 
G1 F1140 X133.900 Y46.835 E2.81991
G1 F12000 X134.087 Y47.214 
G1 F1140 X109.222 Y72.079 E2.81505
G1 F12000 X109.415 Y72.452 
G1 F1140 X134.210 Y47.657 E2.80712
G1 F12000 X134.238 Y48.194 
G1 F1140 X109.576 Y72.856 E2.79206
G1 F12000 X109.694 Y73.304 
G1 F1140 X134.238 Y48.760 E2.77870
G1 F12000 X134.238 Y49.326 
G1 F1140 X109.745 Y73.819 E2.77293
G1 F12000 X109.759 Y74.370 
G1 F1140 X134.238 Y49.892 E2.77129
G1 F12000 X134.238 Y50.457 
G1 F1140 X109.760 Y74.935 E2.77123
G1 F12000 X109.760 Y75.501 
G1 F1140 X134.238 Y51.023 E2.77123
G1 F12000 X134.238 Y51.589 
G1 F1140 X109.761 Y76.066 E2.77112
G1 F12000 X109.762 Y76.631 
G1 F1140 X134.237 Y52.155 E2.77095
G1 F12000 X134.237 Y52.721 
G1 F1140 X109.762 Y77.196 E2.77089
G1 F12000 X109.762 Y77.761 
G1 F1140 X134.237 Y53.286 E2.77089
G1 F12000 X134.237 Y53.852 
G1 F1140 X109.763 Y78.326 E2.77078
G1 F12000 X109.763 Y78.892 
G1 F1140 X134.237 Y54.418 E2.77078
G1 F12000 X134.237 Y54.983 
G1 F1140 X109.764 Y79.457 E2.77072
G1 F12000 X109.412 Y72.860 
G1 F12000 X108.736 Y71.617 
G1 F12000 X106.968 Y70.374 
G1 F1140 X131.577 Y45.764 E2.78612
G1 F12000 X131.012 Y45.764 
G1 F1140 X106.500 Y70.275 E2.77502
G1 F12000 X105.948 Y70.262 
G1 F1140 X130.446 Y45.764 E2.77350
G1 F12000 X129.880 Y45.764 
G1 F1140 X105.383 Y70.261 E2.77338
G1 F12000 X104.819 Y70.260 
G1 F1140 X129.314 Y45.764 E2.77321
G1 F12000 X128.749 Y45.764 
G1 F1140 X104.255 Y70.258 E2.77304
G1 F12000 X103.690 Y70.258 
G1 F1140 X128.183 Y45.764 E2.77299
G1 F12000 X127.617 Y45.764 
G1 F1140 X103.125 Y70.256 E2.77282
G1 F12000 X102.560 Y70.256 
G1 F1140 X127.052 Y45.764 E2.77282
G1 F12000 X126.486 Y45.764 
G1 F1140 X101.996 Y70.254 E2.77259
G1 F12000 X101.431 Y70.253 
G1 F1140 X125.920 Y45.764 E2.77248
G1 F12000 X125.355 Y45.764 
G1 F1140 X100.867 Y70.252 E2.77236
G1 F12000 X100.302 Y70.251 
G1 F1140 X124.789 Y45.764 E2.77225
G1 F12000 X124.224 Y45.763 
G1 F1140 X99.738 Y70.250 E2.77219
G1 F12000 X99.173 Y70.249 
G1 F1140 X123.658 Y45.763 E2.77208
G1 F12000 X123.093 Y45.763 
G1 F1140 X98.608 Y70.248 E2.77202
G1 F12000 X98.044 Y70.246 
G1 F1140 X122.527 Y45.763 E2.77180
G1 F12000 X121.961 Y45.763 
G1 F1140 X97.479 Y70.246 E2.77174
G1 F12000 X96.915 Y70.244 
G1 F1140 X121.396 Y45.763 E2.77157
G1 F12000 X120.830 Y45.763 
G1 F1140 X96.350 Y70.243 E2.77146
G1 F12000 X95.786 Y70.242 
G1 F1140 X120.264 Y45.763 E2.77129
G1 F12000 X134.237 Y55.550 
G1 F1140 X109.764 Y80.022 E2.77061
G1 F12000 X109.764 Y80.588 
G1 F1140 X134.237 Y56.115 E2.77067
G1 F12000 X134.237 Y56.681 
G1 F1140 X109.765 Y81.153 E2.77055
G1 F12000 X109.766 Y81.718 
G1 F1140 X134.237 Y57.247 E2.77044
G1 F12000 X134.237 Y57.813 
G1 F1140 X109.766 Y82.283 E2.77038
G1 F12000 X109.767 Y82.848 
G1 F1140 X134.237 Y58.378 E2.77033
G1 F12000 X134.236 Y58.945 
G1 F1140 X109.767 Y83.413 E2.77016
G1 F12000 X109.767 Y83.979 
G1 F1140 X134.236 Y59.510 E2.77021
G1 F12000 X134.236 Y60.076 
G1 F1140 X109.768 Y84.544 E2.77010
G1 F12000 X109.768 Y85.110 
G1 F1140 X134.236 Y60.642 E2.77010
G1 F12000 X134.236 Y61.207 
G1 F1140 X109.769 Y85.675 E2.77004
G1 F12000 X109.769 Y86.240 
G1 F1140 X134.236 Y61.773 E2.76999
G1 F12000 X134.236 Y62.339 
G1 F1140 X109.769 Y86.805 E2.76993
G1 F12000 X109.770 Y87.370 
G1 F1140 X134.235 Y62.905 E2.76976
G1 F12000 X134.235 Y63.471 
G1 F1140 X109.771 Y87.935 E2.76965
G1 F12000 X109.771 Y88.501 
G1 F1140 X134.235 Y64.037 E2.76965
G1 F12000 X134.235 Y64.602 
G1 F1140 X109.771 Y89.066 E2.76965
G1 F12000 X109.772 Y89.631 
G1 F1140 X134.235 Y65.168 E2.76953
G1 F12000 X134.235 Y65.734 
G1 F1140 X109.772 Y90.197 E2.76953
G1 F12000 X109.773 Y90.762 
G1 F1140 X134.235 Y66.300 E2.76942
G1 F12000 X134.235 Y66.866 
G1 F1140 X109.774 Y91.327 E2.76931
G1 F12000 X109.774 Y91.892 
G1 F1140 X134.235 Y67.431 E2.76931
G1 F12000 X134.235 Y67.997 
G1 F1140 X109.774 Y92.457 E2.76925
G1 F12000 X109.775 Y93.022 
G1 F1140 X134.235 Y68.563 E2.76914
G1 F12000 X134.235 Y69.128 
G1 F1140 X109.775 Y93.588 E2.76919
G1 F12000 X109.776 Y94.153 
G1 F1140 X134.234 Y69.695 E2.76897
G1 F12000 X134.234 Y70.260 
G1 F1140 X109.776 Y94.718 E2.76897
G1 F12000 X109.776 Y95.284 
G1 F1140 X134.234 Y70.826 E2.76897
G1 F12000 X134.234 Y71.392 
G1 F1140 X109.777 Y95.849 E2.76885
G1 F12000 X109.778 Y96.414 
G1 F1140 X134.234 Y71.958 E2.76874
G1 F12000 X134.234 Y72.523 
G1 F1140 X109.778 Y96.979 E2.76874
G1 F12000 X109.779 Y97.544 
G1 F1140 X134.234 Y73.089 E2.76863
G1 F12000 X134.233 Y73.655 
G1 F1140 X109.779 Y98.109 E2.76851
G1 F12000 X109.779 Y98.675 
G1 F1140 X134.233 Y74.221 E2.76851
G1 F12000 X134.233 Y74.787 
G1 F1140 X109.780 Y99.240 E2.76840
G1 F12000 X109.781 Y99.805 
G1 F1140 X134.233 Y75.352 E2.76834
G1 F12000 X134.233 Y75.918 
G1 F1140 X109.781 Y100.370 E2.76829
G1 F12000 X109.781 Y100.935 
G1 F1140 X134.233 Y76.484 E2.76823
G1 F12000 X134.232 Y77.050 
G1 F1140 X109.782 Y101.500 E2.76806
G1 F12000 X109.782 Y102.066 
G1 F1140 X134.232 Y77.616 E2.76806
G1 F12000 X134.232 Y78.181 
G1 F1140 X109.843 Y102.571 E2.76121
G1 F12000 X110.003 Y102.977 
G1 F1140 X134.232 Y78.747 E2.74310
G1 F12000 X134.232 Y79.313 
G1 F1140 X110.210 Y103.335 E2.71961
G1 F12000 X110.475 Y103.636 
G1 F1140 X134.232 Y79.879 E2.68960
G1 F12000 X134.232 Y80.444 
G1 F1140 X110.794 Y103.883 E2.65355
G1 F12000 X111.181 Y104.062 
G1 F1140 X134.232 Y81.011 E2.60968
G1 F12000 X134.232 Y81.576 
G1 F1140 X111.609 Y104.199 E2.56122
G1 F12000 X112.135 Y104.239 
G1 F1140 X134.232 Y82.142 E2.50167
G1 F12000 X134.232 Y82.708 
G1 F1140 X112.700 Y104.239 E2.43765
G1 F12000 X113.266 Y104.239 
G1 F1140 X134.232 Y83.273 E2.37363
G1 F12000 X134.232 Y83.839 
G1 F1140 X113.832 Y104.239 E2.30955
G1 F12000 X114.397 Y104.239 
G1 F1140 X134.231 Y84.405 E2.24547
G1 F12000 X134.231 Y84.971 
G1 F1140 X114.963 Y104.239 E2.18139
G1 F12000 X115.529 Y104.239 
G1 F1140 X134.231 Y85.537 E2.11731
G1 F12000 X134.231 Y86.102 
G1 F1140 X116.094 Y104.239 E2.05335
G1 F12000 X116.660 Y104.239 
G1 F1140 X134.231 Y86.668 E1.98927
G1 F12000 X134.231 Y87.234 
G1 F1140 X117.226 Y104.239 E1.92519
G1 F12000 X117.791 Y104.239 
G1 F1140 X134.230 Y87.800 E1.86111
G1 F12000 X134.230 Y88.366 
G1 F1140 X118.357 Y104.239 E1.79703
G1 F12000 X118.923 Y104.239 
G1 F1140 X134.230 Y88.932 E1.73295
G1 F12000 X134.230 Y89.497 
G1 F1140 X119.489 Y104.239 E1.66893
G1 F12000 X120.054 Y104.239 
G1 F1140 X134.230 Y90.063 E1.60491
G1 F12000 X134.230 Y90.629 
G1 F1140 X120.620 Y104.239 E1.54083
G1 F12000 X121.186 Y104.239 
G1 F1140 X134.230 Y91.194 E1.47681
G1 F12000 X134.230 Y91.761 
G1 F1140 X121.751 Y104.239 E1.41273
G1 F12000 X122.317 Y104.239 
G1 F1140 X134.230 Y92.326 E1.34871
G1 F12000 X134.230 Y92.892 
G1 F1140 X122.883 Y104.239 E1.28463
G1 F12000 X123.448 Y104.239 
G1 F1140 X134.230 Y93.458 E1.22061
G1 F12000 X134.230 Y94.023 
G1 F1140 X124.014 Y104.239 E1.15659
G1 F12000 X124.580 Y104.239 
G1 F1140 X134.230 Y94.589 E1.09251
G1 F12000 X134.229 Y95.156 
G1 F1140 X125.145 Y104.239 E1.02837
G1 F12000 X125.711 Y104.239 
G1 F1140 X134.229 Y95.721 E0.96435
G1 F12000 X134.229 Y96.287 
G1 F1140 X126.277 Y104.239 E0.90027
G1 F12000 X126.842 Y104.239 
G1 F1140 X134.229 Y96.853 E0.83625
G1 F12000 X134.229 Y97.418 
G1 F1140 X127.408 Y104.239 E0.77223
G1 F12000 X127.974 Y104.239 
G1 F1140 X134.229 Y97.984 E0.70815
G1 F12000 X134.229 Y98.550 
G1 F1140 X128.539 Y104.239 E0.64413
G1 F12000 X129.105 Y104.239 
G1 F1140 X134.228 Y99.116 E0.57999
G1 F12000 X134.228 Y99.682 
G1 F1140 X129.671 Y104.239 E0.51591
G1 F12000 X130.237 Y104.239 
G1 F1140 X134.228 Y100.247 E0.45189
G1 F12000 X134.228 Y100.813 
G1 F1140 X130.802 Y104.239 E0.38787
G1 F12000 X131.368 Y104.239 
G1 F1140 X134.228 Y101.379 E0.32379
G1 F12000 X134.228 Y101.944 
G1 F1140 X131.934 Y104.239 E0.25977
G1 F12000 X132.600 Y104.139 
G1 F1140 X134.147 Y102.592 E0.17514
G1 F12000 X108.736 Y71.617 
G1 F12000 X107.041 Y70.554 
G1 F12000 X95.221 Y70.241 
G1 F1140 X119.699 Y45.763 E2.77123
G1 F12000 X119.133 Y45.763 
G1 F1140 X94.656 Y70.240 E2.77112
G1 F12000 X94.091 Y70.239 
G1 F1140 X118.567 Y45.763 E2.77101
G1 F12000 X118.001 Y45.763 
G1 F1140 X93.527 Y70.238 E2.77084
G1 F12000 X92.962 Y70.237 
G1 F1140 X117.436 Y45.763 E2.77078
G1 F12000 X116.870 Y45.763 
G1 F1140 X92.398 Y70.236 E2.77061
G1 F12000 X91.834 Y70.234 
G1 F1140 X116.305 Y45.763 E2.77044
G1 F12000 X115.739 Y45.763 
G1 F1140 X91.269 Y70.234 E2.77038
G1 F12000 X90.704 Y70.232 
G1 F1140 X115.174 Y45.763 E2.77027
G1 F12000 X114.608 Y45.763 
G1 F1140 X90.139 Y70.231 E2.77016
G1 F12000 X89.575 Y70.230 
G1 F1140 X114.042 Y45.763 E2.76999
G1 F12000 X113.477 Y45.763 
G1 F1140 X89.010 Y70.229 E2.76993
G1 F12000 X88.446 Y70.228 
G1 F1140 X112.911 Y45.763 E2.76976
G1 F12000 X112.345 Y45.763 
G1 F1140 X87.881 Y70.227 E2.76965
G1 F12000 X87.317 Y70.226 
G1 F1140 X111.780 Y45.763 E2.76953
G1 F12000 X111.214 Y45.763 
G1 F1140 X86.752 Y70.224 E2.76936
G1 F12000 X86.187 Y70.224 
G1 F1140 X110.648 Y45.763 E2.76931
G1 F12000 X110.083 Y45.763 
G1 F1140 X85.623 Y70.222 E2.76914
G1 F12000 X85.058 Y70.222 
G1 F1140 X109.517 Y45.763 E2.76908
G1 F12000 X108.951 Y45.763 
G1 F1140 X84.494 Y70.220 E2.76885
G1 F12000 X83.929 Y70.219 
G1 F1140 X108.386 Y45.762 E2.76885
G1 F12000 X107.821 Y45.762 
G1 F1140 X83.365 Y70.218 E2.76874
G1 F12000 X82.800 Y70.217 
G1 F1140 X107.255 Y45.762 E2.76863
G1 F12000 X106.689 Y45.762 
G1 F1140 X82.235 Y70.216 E2.76851
G1 F12000 X81.670 Y70.215 
G1 F1140 X106.123 Y45.762 E2.76840
G1 F12000 X105.558 Y45.762 
G1 F1140 X81.106 Y70.214 E2.76829
G1 F12000 X80.542 Y70.212 
G1 F1140 X104.992 Y45.762 E2.76806
G1 F12000 X104.426 Y45.762 
G1 F1140 X79.977 Y70.212 E2.76801
G1 F12000 X79.413 Y70.210 
G1 F1140 X103.861 Y45.762 E2.76784
G1 F12000 X103.295 Y45.762 
G1 F1140 X78.848 Y70.210 E2.76778
G1 F12000 X78.283 Y70.208 
G1 F1140 X102.729 Y45.762 E2.76761
G1 F12000 X102.164 Y45.762 
G1 F1140 X77.718 Y70.207 E2.76755
G1 F12000 X77.256 Y70.104 
G1 F1140 X101.598 Y45.762 E2.75583
G1 F12000 X101.033 Y45.761 
G1 F1140 X76.869 Y69.925 E2.73568
G1 F12000 X76.538 Y69.691 
G1 F1140 X100.467 Y45.761 E2.70913
G1 F12000 X99.902 Y45.761 
G1 F1140 X76.263 Y69.400 E2.67625
G1 F12000 X76.036 Y69.061 
G1 F1140 X99.336 Y45.761 E2.63787
G1 F12000 X98.770 Y45.761 
G1 F1140 X75.873 Y68.659 E2.59230
G1 F12000 X75.773 Y68.193 
G1 F1140 X98.205 Y45.761 E2.53960
G1 F12000 X97.639 Y45.761 
G1 F1140 X75.767 Y67.633 E2.47620
G1 F12000 X75.767 Y67.067 
G1 F1140 X97.073 Y45.761 E2.41212
G1 F12000 X96.508 Y45.761 
G1 F1140 X75.767 Y66.501 E2.34810
G1 F12000 X75.767 Y65.936 
G1 F1140 X95.942 Y45.761 E2.28408
G1 F12000 X95.376 Y45.761 
G1 F1140 X75.767 Y65.370 E2.22000
G1 F12000 X75.767 Y64.804 
G1 F1140 X94.810 Y45.761 E2.15592
G1 F12000 X94.245 Y45.761 
G1 F1140 X75.767 Y64.239 E2.09195
G1 F12000 X75.767 Y63.673 
G1 F1140 X93.679 Y45.761 E2.02787
G1 F12000 X93.114 Y45.761 
G1 F1140 X75.767 Y63.107 E1.96385
G1 F12000 X75.767 Y62.542 
G1 F1140 X92.548 Y45.761 E1.89983
G1 F12000 X91.983 Y45.761 
G1 F1140 X75.767 Y61.976 E1.83581
G1 F12000 X75.767 Y61.410 
G1 F1140 X91.417 Y45.761 E1.77173
G1 F12000 X90.851 Y45.761 
G1 F1140 X75.767 Y60.845 E1.70771
G1 F12000 X75.767 Y60.279 
G1 F1140 X90.286 Y45.761 E1.64369
G1 F12000 X89.720 Y45.761 
G1 F1140 X75.767 Y59.713 E1.57961
G1 F12000 X75.767 Y59.148 
G1 F1140 X89.154 Y45.761 E1.51558
G1 F12000 X88.589 Y45.761 
G1 F1140 X75.767 Y58.582 E1.45156
G1 F12000 X75.767 Y58.016 
G1 F1140 X88.023 Y45.761 E1.38748
G1 F12000 X87.457 Y45.761 
G1 F1140 X75.768 Y57.450 E1.32335
G1 F12000 X75.768 Y56.884 
G1 F1140 X86.892 Y45.761 E1.25933
G1 F12000 X86.326 Y45.761 
G1 F1140 X75.768 Y56.318 E1.19525
G1 F12000 X75.768 Y55.753 
G1 F1140 X85.760 Y45.761 E1.13123
G1 F12000 X85.195 Y45.760 
G1 F1140 X75.768 Y55.187 E1.06726
G1 F12000 X75.768 Y54.621 
G1 F1140 X84.630 Y45.760 E1.00324
G1 F12000 X84.064 Y45.760 
G1 F1140 X75.768 Y54.056 E0.93922
G1 F12000 X75.768 Y53.490 
G1 F1140 X83.498 Y45.760 E0.87514
G1 F12000 X82.933 Y45.760 
G1 F1140 X75.768 Y52.924 E0.81112
G1 F12000 X75.768 Y52.359 
G1 F1140 X82.367 Y45.760 E0.74709
G1 F12000 X81.801 Y45.760 
G1 F1140 X75.768 Y51.793 E0.68301
G1 F12000 X75.768 Y51.227 
G1 F1140 X81.235 Y45.760 E0.61894
G1 F12000 X80.670 Y45.760 
G1 F1140 X75.768 Y50.662 E0.55497
G1 F12000 X75.768 Y50.096 
G1 F1140 X80.104 Y45.760 E0.49089
G1 F12000 X79.538 Y45.760 
G1 F1140 X75.768 Y49.530 E0.42681
G1 F12000 X75.768 Y48.965 
G1 F1140 X78.973 Y45.760 E0.36285
G1 F12000 X78.407 Y45.760 
G1 F1140 X75.768 Y48.399 E0.29877
G1 F12000 X75.770 Y47.832 
G1 F1140 X77.827 Y45.775 E0.23288
G1 F12000 X77.065 Y45.971 
G1 F1140 X75.970 Y47.066 E0.12397
;LAYER:2
M106
G1 F12000 X75.820 Y47.003 Z0.700 

;TYPE:WALL-INNER
G1 F1800 X76.005 Y46.672 E0.03036
G1 F1800 X76.246 Y46.366 E0.03118
G1 F1800 X76.439 Y46.179 E0.02151
G1 F1800 X76.657 Y46.015 E0.02184
G1 F1800 X77.098 Y45.778 E0.04008
G1 F1800 X77.435 Y45.669 E0.02835
G1 F1800 X77.697 Y45.623 E0.02129
G1 F1800 X131.978 Y45.600 E4.34540
G1 F1800 X132.379 Y45.631 E0.03220
G1 F1800 X132.744 Y45.719 E0.03006
G1 F1800 X132.992 Y45.818 E0.02138
G1 F1800 X133.326 Y46.005 E0.03064
G1 F1800 X133.636 Y46.249 E0.03158
G1 F1800 X133.814 Y46.432 E0.02044
G1 F1800 X134.098 Y46.843 E0.03999
G1 F1800 X134.212 Y47.072 E0.02048
G1 F1800 X134.332 Y47.443 E0.03121
G1 F1800 X134.390 Y47.804 E0.02927
G1 F1800 X134.400 Y101.974 E4.33651
G1 F1800 X134.349 Y102.475 E0.04031
G1 F1800 X134.257 Y102.804 E0.02735
G1 F1800 X134.081 Y103.188 E0.03382
G1 F1800 X133.893 Y103.469 E0.02707
G1 F1800 X133.545 Y103.834 E0.04037
G1 F1800 X133.508 Y103.863 E0.00376
G1 F1800 X133.165 Y104.093 E0.03306
G1 F1800 X132.826 Y104.249 E0.02987
G1 F1800 X132.560 Y104.331 E0.02228
G1 F1800 X132.286 Y104.379 E0.02227
G1 F1800 X132.000 Y104.399 E0.02295
G1 F1800 X111.814 Y104.392 E1.61597
G1 F1800 X111.326 Y104.301 E0.03974
G1 F1800 X111.005 Y104.180 E0.02746
G1 F1800 X110.702 Y104.016 E0.02758
G1 F1800 X110.425 Y103.809 E0.02768
G1 F1800 X110.190 Y103.574 E0.02661
G1 F1800 X109.983 Y103.297 E0.02768
G1 F1800 X109.819 Y102.995 E0.02751
G1 F1800 X109.697 Y102.669 E0.02787
G1 F1800 X109.625 Y102.340 E0.02696
G1 F1800 X109.600 Y102.033 E0.02466
G1 F1800 X109.600 Y73.977 E2.24599
G1 F1800 X109.566 Y73.506 E0.03780
G1 F1800 X109.552 Y73.414 E0.00745
G1 F1800 X109.453 Y72.979 E0.03571
G1 F1800 X109.275 Y72.505 E0.04053
G1 F1800 X109.028 Y72.052 E0.04130
G1 F1800 X108.711 Y71.628 E0.04238
G1 F1800 X108.358 Y71.277 E0.03985
G1 F1800 X107.947 Y70.971 E0.04102
G1 F1800 X107.494 Y70.724 E0.04130
G1 F1800 X107.017 Y70.545 E0.04079
G1 F1800 X106.510 Y70.435 E0.04153
G1 F1800 X106.021 Y70.400 E0.03925
G1 F1800 X78.017 Y70.400 E2.24183
G1 F1800 X77.661 Y70.374 E0.02858
G1 F1800 X77.326 Y70.301 E0.02745
G1 F1800 X77.004 Y70.180 E0.02754
G1 F1800 X76.701 Y70.016 E0.02758
G1 F1800 X76.426 Y69.810 E0.02751
G1 F1800 X76.190 Y69.574 E0.02672
G1 F1800 X75.985 Y69.299 E0.02746
G1 F1800 X75.808 Y68.976 E0.02949
G1 F1800 X75.741 Y68.813 E0.01411
G1 F1800 X75.702 Y68.692 E0.01018
G1 F1800 X75.607 Y68.186 E0.04121
G1 F1800 X75.600 Y48.022 E1.61420
G1 F1800 X75.631 Y47.620 E0.03228
G1 F1800 X75.719 Y47.255 E0.03006
G1 F1800 X75.820 Y47.003 E0.02173
G1 F12000 X75.459 Y46.829 
;TYPE:WALL-OUTER
G1 F1800 X75.672 Y46.447 E0.03501
G1 F1800 X75.949 Y46.096 E0.03579
G1 F1800 X76.177 Y45.875 E0.02542
G1 F1800 X76.441 Y45.677 E0.02642
G1 F1800 X76.936 Y45.410 E0.04502
G1 F1800 X77.343 Y45.279 E0.03423
G1 F1800 X77.662 Y45.223 E0.02593
G1 F1800 X131.996 Y45.200 E4.34964
G1 F1800 X132.442 Y45.235 E0.03581
G1 F1800 X132.860 Y45.336 E0.03443
G1 F1800 X133.167 Y45.458 E0.02645
G1 F1800 X133.551 Y45.673 E0.03523
G1 F1800 X133.905 Y45.951 E0.03603
G1 F1800 X134.122 Y46.174 E0.02491
G1 F1800 X134.443 Y46.640 E0.04530
G1 F1800 X134.586 Y46.926 E0.02560
G1 F1800 X134.722 Y47.345 E0.03527
G1 F1800 X134.790 Y47.772 E0.03461
G1 F1800 X134.800 Y101.986 E4.34004
G1 F1800 X134.742 Y102.550 E0.04539
G1 F1800 X134.629 Y102.954 E0.03358
G1 F1800 X134.439 Y103.368 E0.03647
G1 F1800 X134.202 Y103.724 E0.03424
G1 F1800 X133.811 Y104.134 E0.04535
G1 F1800 X133.363 Y104.442 E0.04352
G1 F1800 X132.963 Y104.626 E0.03525
G1 F1800 X132.658 Y104.720 E0.02555
G1 F1800 X132.014 Y104.799 E0.05194
G1 F1800 X111.799 Y104.792 E1.61829
G1 F1800 X111.601 Y104.771 E0.01594
G1 F1800 X111.209 Y104.685 E0.03213
G1 F1800 X110.845 Y104.548 E0.03114
G1 F1800 X110.482 Y104.351 E0.03306
G1 F1800 X110.162 Y104.112 E0.03197
G1 F1800 X109.887 Y103.837 E0.03113
G1 F1800 X109.648 Y103.517 E0.03197
G1 F1800 X109.451 Y103.155 E0.03299
G1 F1800 X109.313 Y102.786 E0.03154
G1 F1800 X109.228 Y102.397 E0.03188
G1 F1800 X109.200 Y102.057 E0.02731
G1 F1800 X109.200 Y73.992 E2.24671
G1 F1800 X109.159 Y73.488 E0.04048
G1 F1800 X109.069 Y73.094 E0.03235
G1 F1800 X108.910 Y72.672 E0.03610
G1 F1800 X108.691 Y72.269 E0.03672
G1 F1800 X108.408 Y71.891 E0.03780
G1 F1800 X108.096 Y71.581 E0.03521
G1 F1800 X107.730 Y71.308 E0.03655
G1 F1800 X107.327 Y71.089 E0.03672
G1 F1800 X106.904 Y70.930 E0.03618
G1 F1800 X106.453 Y70.832 E0.03695
G1 F1800 X106.007 Y70.800 E0.03580
G1 F1800 X78.001 Y70.800 E2.24199
G1 F1800 X77.603 Y70.771 E0.03195
G1 F1800 X77.209 Y70.685 E0.03228
G1 F1800 X76.841 Y70.547 E0.03146
G1 F1800 X76.485 Y70.354 E0.03242
G1 F1800 X76.162 Y70.112 E0.03231
G1 F1800 X75.887 Y69.837 E0.03113
G1 F1800 X75.648 Y69.516 E0.03204
G1 F1800 X75.446 Y69.148 E0.03361
G1 F1800 X75.315 Y68.795 E0.03014
G1 F1800 X75.228 Y68.398 E0.03254
G1 F1800 X75.207 Y68.202 E0.01578
G1 F1800 X75.200 Y48.002 E1.61709
G1 F1800 X75.235 Y47.558 E0.03565
G1 F1800 X75.336 Y47.139 E0.03450
G1 F1800 X75.459 Y46.829 E0.02670
G1 F12000 X76.050 Y46.917 
;TYPE:SKIN
M104 S			;Switch on Nozzle 2 heater
G1 F1800 X99.372 Y70.239 E2.64036
G1 F12000 X98.806 Y70.239 
G1 F1800 X75.871 Y47.304 E2.59654
G1 F12000 X75.777 Y47.776 
G1 F1800 X98.241 Y70.239 E2.54316
G1 F12000 X97.675 Y70.239 
G1 F1800 X75.759 Y48.323 E2.48118
G1 F12000 X75.759 Y48.889 
G1 F1800 X97.109 Y70.239 E2.41710
G1 F12000 X96.544 Y70.239 
G1 F1800 X75.759 Y49.455 E2.35308
G1 F12000 X75.759 Y50.020 
G1 F1800 X95.978 Y70.239 E2.28906
G1 F12000 X95.412 Y70.239 
G1 F1800 X75.760 Y50.587 E2.22486
G1 F12000 X75.760 Y51.152 
G1 F1800 X94.847 Y70.239 E2.16090
G1 F12000 X94.281 Y70.239 
G1 F1800 X75.760 Y51.718 E2.09682
G1 F12000 X75.760 Y52.284 
G1 F1800 X93.715 Y70.239 E2.03274
G1 F12000 X93.150 Y70.239 
G1 F1800 X75.760 Y52.850 E1.96872
G1 F12000 X75.760 Y53.416 
G1 F1800 X92.584 Y70.239 E1.90464
G1 F12000 X92.018 Y70.239 
G1 F1800 X75.760 Y53.981 E1.84062
G1 F12000 X75.761 Y54.548 
G1 F1800 X91.452 Y70.239 E1.77643
G1 F12000 X90.887 Y70.239 
G1 F1800 X75.761 Y55.114 E1.71241
G1 F12000 X75.761 Y55.679 
G1 F1800 X90.321 Y70.239 E1.64838
G1 F12000 X89.755 Y70.239 
G1 F1800 X75.762 Y56.246 E1.58419
G1 F12000 X75.762 Y56.811 
G1 F1800 X89.190 Y70.239 E1.52023
G1 F12000 X88.624 Y70.239 
G1 F1800 X75.762 Y57.377 E1.45615
G1 F12000 X75.762 Y57.943 
G1 F1800 X88.058 Y70.239 E1.39207
G1 F12000 X87.493 Y70.239 
G1 F1800 X75.762 Y58.509 E1.32805
G1 F12000 X75.762 Y59.075 
G1 F1800 X86.927 Y70.239 E1.26397
G1 F12000 X86.361 Y70.239 
G1 F1800 X75.762 Y59.640 E1.19995
G1 F12000 X76.279 Y46.580 
G1 F1800 X99.938 Y70.239 E2.67851
G1 F12000 X85.796 Y70.239 
G1 F1800 X75.763 Y60.207 E1.13581
G1 F12000 X75.763 Y60.772 
G1 F1800 X85.230 Y70.239 E1.07179
G1 F12000 X84.664 Y70.239 
G1 F1800 X75.763 Y61.338 E1.00771
G1 F12000 X75.763 Y61.904 
G1 F1800 X84.099 Y70.239 E0.94369
G1 F12000 X83.533 Y70.239 
G1 F1800 X75.764 Y62.470 E0.87955
G1 F12000 X75.764 Y63.036 
G1 F1800 X82.967 Y70.239 E0.81547
G1 F12000 X82.401 Y70.239 
G1 F1800 X75.764 Y63.602 E0.75140
G1 F12000 X75.765 Y64.168 
G1 F1800 X81.836 Y70.239 E0.68732
G1 F12000 X81.270 Y70.239 
G1 F1800 X75.765 Y64.734 E0.62324
G1 F12000 X75.765 Y65.299 
G1 F1800 X80.704 Y70.239 E0.55922
G1 F12000 X80.139 Y70.239 
G1 F1800 X75.765 Y65.865 E0.49519
G1 F12000 X75.765 Y66.431 
G1 F1800 X79.573 Y70.239 E0.43112
G1 F12000 X79.007 Y70.239 
G1 F1800 X75.765 Y66.997 E0.36704
G1 F12000 X75.765 Y67.563 
G1 F1800 X78.442 Y70.239 E0.30302
G1 F12000 X77.865 Y70.228 
G1 F1800 X75.765 Y68.129 E0.23769
G1 F12000 X75.932 Y68.861 
G1 F1800 X77.126 Y70.055 E0.13518
G1 F12000 X100.503 Y70.239 
G1 F1800 X76.556 Y46.292 E2.71112
G1 F12000 X76.897 Y46.067 
G1 F1800 X101.069 Y70.239 E2.73659
G1 F12000 X101.635 Y70.239 
G1 F1800 X77.281 Y45.886 E2.75714
G1 F12000 X77.744 Y45.783 
G1 F1800 X102.200 Y70.239 E2.76874
G1 F12000 X102.766 Y70.239 
G1 F1800 X78.309 Y45.783 E2.76880
G1 F12000 X78.875 Y45.783 
G1 F1800 X103.332 Y70.239 E2.76880
G1 F12000 X103.898 Y70.239 
G1 F1800 X79.440 Y45.782 E2.76891
G1 F12000 X80.006 Y45.782 
G1 F1800 X104.463 Y70.239 E2.76885
G1 F12000 X105.029 Y70.239 
G1 F1800 X80.571 Y45.782 E2.76891
G1 F12000 X81.136 Y45.781 
G1 F1800 X105.595 Y70.239 E2.76902
G1 F12000 X106.171 Y70.250 
G1 F1800 X81.702 Y45.781 E2.77021
G1 F12000 X82.268 Y45.781 
G1 F1800 X106.826 Y70.340 E2.78035
G1 F12000 X107.714 Y70.662 
G1 F1800 X82.833 Y45.780 E2.81691
G1 F12000 X83.399 Y45.780 
G1 F1800 X134.238 Y96.620 E5.75570
G1 F12000 X134.238 Y97.186 
G1 F1800 X109.335 Y72.283 E2.81935
G1 F12000 X109.660 Y73.173 
G1 F1800 X134.238 Y97.751 E2.78255
G1 F12000 X134.239 Y98.318 
G1 F1800 X109.748 Y73.827 E2.77270
G1 F12000 X109.759 Y74.403 
G1 F1800 X134.239 Y98.883 E2.77146
G1 F12000 X134.239 Y99.449 
G1 F1800 X109.759 Y74.969 E2.77146
G1 F12000 X109.759 Y75.535 
G1 F1800 X134.239 Y100.015 E2.77146
G1 F12000 X134.239 Y100.580 
G1 F1800 X109.759 Y76.100 E2.77146
G1 F12000 X109.759 Y76.666 
G1 F1800 X134.239 Y101.146 E2.77146
G1 F12000 X134.239 Y101.712 
G1 F1800 X109.759 Y77.232 E2.77146
G1 F12000 X109.759 Y77.798 
G1 F1800 X134.210 Y102.249 E2.76817
G1 F12000 X134.114 Y102.719 
G1 F1800 X109.759 Y78.363 E2.75736
G1 F12000 X109.759 Y78.929 
G1 F1800 X133.940 Y103.111 E2.73766
G1 F12000 X133.701 Y103.436 
G1 F1800 X109.759 Y79.495 E2.71049
G1 F12000 X109.759 Y80.060 
G1 F1800 X133.423 Y103.724 E2.67908
G1 F12000 X133.085 Y103.953 
G1 F1800 X109.759 Y80.626 E2.64087
G1 F12000 X109.759 Y81.192 
G1 F1800 X132.689 Y104.122 E2.59598
G1 F12000 X132.223 Y104.221 
G1 F1800 X109.759 Y81.757 E2.54322
G1 F12000 X109.759 Y82.323 
G1 F1800 X131.674 Y104.238 E2.48107
G1 F12000 X131.108 Y104.238 
G1 F1800 X109.759 Y82.889 E2.41699
G1 F12000 X109.759 Y83.454 
G1 F1800 X130.543 Y104.238 E2.35302
G1 F12000 X129.976 Y104.238 
G1 F1800 X109.759 Y84.020 E2.28889
G1 F12000 X109.759 Y84.586 
G1 F1800 X129.411 Y104.238 E2.22486
G1 F12000 X128.845 Y104.238 
G1 F1800 X109.759 Y85.151 E2.16084
G1 F12000 X109.759 Y85.717 
G1 F1800 X128.279 Y104.237 E2.09671
G1 F12000 X127.713 Y104.237 
G1 F1800 X109.759 Y86.283 E2.03263
G1 F12000 X109.759 Y86.848 
G1 F1800 X127.147 Y104.237 E1.96861
G1 F12000 X126.582 Y104.237 
G1 F1800 X109.759 Y87.414 E1.90458
G1 F12000 X109.759 Y87.980 
G1 F1800 X126.015 Y104.236 E1.84039
G1 F12000 X125.449 Y104.236 
G1 F1800 X109.759 Y88.546 E1.77631
G1 F12000 X109.759 Y89.111 
G1 F1800 X124.884 Y104.236 E1.71235
G1 F12000 X124.317 Y104.236 
G1 F1800 X109.759 Y89.677 E1.64821
G1 F12000 X109.759 Y90.243 
G1 F1800 X123.752 Y104.236 E1.58419
G1 F12000 X123.186 Y104.236 
G1 F1800 X109.759 Y90.808 E1.52017
G1 F12000 X109.759 Y91.374 
G1 F1800 X122.620 Y104.235 E1.45603
G1 F12000 X122.054 Y104.235 
G1 F1800 X109.759 Y91.940 E1.39196
G1 F12000 X109.759 Y92.505 
G1 F1800 X121.488 Y104.235 E1.32793
G1 F12000 X120.922 Y104.234 
G1 F1800 X109.759 Y93.071 E1.26380
G1 F12000 X109.759 Y93.637 
G1 F1800 X120.356 Y104.234 E1.19972
G1 F12000 X119.790 Y104.234 
G1 F1800 X109.759 Y94.202 E1.13570
G1 F12000 X109.759 Y94.768 
G1 F1800 X119.225 Y104.234 E1.07168
G1 F12000 X118.658 Y104.233 
G1 F1800 X109.759 Y95.334 E1.00748
G1 F12000 X109.759 Y95.899 
G1 F1800 X118.093 Y104.233 E0.94352
G1 F12000 X117.527 Y104.233 
G1 F1800 X109.759 Y96.465 E0.87944
G1 F12000 X109.759 Y97.031 
G1 F1800 X116.961 Y104.233 E0.81536
G1 F12000 X116.395 Y104.233 
G1 F1800 X109.759 Y97.596 E0.75134
G1 F12000 X109.759 Y98.162 
G1 F1800 X115.829 Y104.233 E0.68726
G1 F12000 X115.263 Y104.232 
G1 F1800 X109.759 Y98.728 E0.62313
G1 F12000 X109.759 Y99.294 
G1 F1800 X114.697 Y104.232 E0.55905
G1 F12000 X114.131 Y104.232 
G1 F1800 X109.759 Y99.859 E0.49502
G1 F12000 X109.759 Y100.425 
G1 F1800 X113.565 Y104.231 E0.43089
G1 F12000 X112.999 Y104.231 
G1 F1800 X109.759 Y100.991 E0.36681
G1 F12000 X109.759 Y101.556 
G1 F1800 X112.434 Y104.231 E0.30285
G1 F12000 X111.868 Y104.231 
G1 F1800 X109.766 Y102.129 E0.23797
G1 F12000 X109.941 Y102.870 
G1 F1800 X111.126 Y104.055 E0.13416
G1 F12000 X134.238 Y96.054 
G1 F1800 X83.964 Y45.780 E5.69168
G1 F12000 X84.529 Y45.780 
G1 F1800 X134.238 Y95.489 E5.62771
G1 F12000 X134.238 Y94.923 
G1 F1800 X85.095 Y45.780 E5.56363
G1 F12000 X85.661 Y45.780 
G1 F1800 X134.238 Y94.357 E5.49956
G1 F12000 X134.237 Y93.791 
G1 F1800 X86.226 Y45.779 E5.43553
G1 F12000 X86.791 Y45.779 
G1 F1800 X134.237 Y93.225 E5.37151
G1 F12000 X134.237 Y92.659 
G1 F1800 X87.357 Y45.779 E5.30743
G1 F12000 X87.922 Y45.778 
G1 F1800 X134.237 Y92.094 E5.24352
G1 F12000 X134.237 Y91.528 
G1 F1800 X88.488 Y45.778 E5.17945
G1 F12000 X89.053 Y45.778 
G1 F1800 X134.237 Y90.962 E5.11542
G1 F12000 X134.237 Y90.397 
G1 F1800 X89.618 Y45.778 E5.05146
G1 F12000 X90.184 Y45.778 
G1 F1800 X134.237 Y89.830 E4.98732
G1 F12000 X134.237 Y89.265 
G1 F1800 X90.750 Y45.778 E4.92330
G1 F12000 X91.315 Y45.777 
G1 F1800 X134.237 Y88.699 E4.85934
G1 F12000 X134.237 Y88.133 
G1 F1800 X91.880 Y45.777 E4.79531
G1 F12000 X92.446 Y45.777 
G1 F1800 X134.237 Y87.568 E4.73129
G1 F12000 X134.237 Y87.002 
G1 F1800 X93.011 Y45.776 E4.66733
G1 F12000 X93.577 Y45.776 
G1 F1800 X134.236 Y86.436 E4.60319
G1 F12000 X134.236 Y85.870 
G1 F1800 X94.142 Y45.776 E4.53917
G1 F12000 X94.707 Y45.775 
G1 F1800 X134.236 Y85.304 E4.47520
G1 F12000 X134.236 Y84.738 
G1 F1800 X95.273 Y45.775 E4.41112
G1 F12000 X95.838 Y45.775 
G1 F1800 X134.236 Y84.173 E4.34716
G1 F12000 X134.236 Y83.607 
G1 F1800 X96.404 Y45.775 E4.28308
G1 F12000 X96.969 Y45.775 
G1 F1800 X134.236 Y83.041 E4.21906
G1 F12000 X134.235 Y82.475 
G1 F1800 X97.534 Y45.774 E4.15504
G1 F12000 X98.100 Y45.774 
G1 F1800 X134.235 Y81.909 E4.09096
G1 F12000 X134.235 Y81.344 
G1 F1800 X98.666 Y45.774 E4.02694
G1 F12000 X99.231 Y45.773 
G1 F1800 X134.235 Y80.778 E3.96297
G1 F12000 X134.235 Y80.212 
G1 F1800 X99.796 Y45.773 E3.89895
G1 F12000 X100.362 Y45.773 
G1 F1800 X134.235 Y79.647 E3.83493
G1 F12000 X134.235 Y79.081 
G1 F1800 X100.927 Y45.773 E3.77090
G1 F12000 X101.493 Y45.773 
G1 F1800 X134.235 Y78.515 E3.70683
G1 F12000 X134.235 Y77.949 
G1 F1800 X102.058 Y45.773 E3.64280
G1 F12000 X102.623 Y45.772 
G1 F1800 X134.235 Y77.383 E3.57884
G1 F12000 X134.235 Y76.817 
G1 F1800 X103.189 Y45.772 E3.51476
G1 F12000 X103.755 Y45.772 
G1 F1800 X134.235 Y76.252 E3.45074
G1 F12000 X134.235 Y75.686 
G1 F1800 X104.320 Y45.771 E3.38677
G1 F12000 X104.885 Y45.771 
G1 F1800 X134.235 Y75.120 E3.32275
G1 F12000 X134.234 Y74.554 
G1 F1800 X105.451 Y45.771 E3.25861
G1 F12000 X106.016 Y45.771 
G1 F1800 X134.234 Y73.988 E3.19459
G1 F12000 X134.234 Y73.423 
G1 F1800 X106.582 Y45.771 E3.13057
G1 F12000 X107.147 Y45.771 
G1 F1800 X134.234 Y72.857 E3.06655
G1 F12000 X134.234 Y72.291 
G1 F1800 X107.712 Y45.770 E3.00258
G1 F12000 X108.278 Y45.770 
G1 F1800 X134.234 Y71.726 E2.93856
G1 F12000 X134.234 Y71.160 
G1 F1800 X108.844 Y45.770 E2.87448
G1 F12000 X109.409 Y45.769 
G1 F1800 X134.233 Y70.594 E2.81046
G1 F12000 X134.233 Y70.028 
G1 F1800 X109.974 Y45.769 E2.74644
G1 F12000 X110.540 Y45.769 
G1 F1800 X134.233 Y69.462 E2.68236
G1 F12000 X134.233 Y68.896 
G1 F1800 X111.105 Y45.768 E2.61839
G1 F12000 X111.671 Y45.768 
G1 F1800 X134.233 Y68.331 E2.55437
G1 F12000 X134.233 Y67.765 
G1 F1800 X112.236 Y45.768 E2.49035
G1 F12000 X112.801 Y45.768 
G1 F1800 X134.233 Y67.199 E2.42633
G1 F12000 X134.232 Y66.633 
G1 F1800 X113.367 Y45.768 E2.36219
G1 F12000 X113.932 Y45.767 
G1 F1800 X134.232 Y66.067 E2.29823
G1 F12000 X134.232 Y65.502 
G1 F1800 X114.498 Y45.767 E2.23421
G1 F12000 X115.063 Y45.767 
G1 F1800 X134.232 Y64.936 E2.17018
G1 F12000 X134.232 Y64.370 
G1 F1800 X115.628 Y45.766 E2.10622
G1 F12000 X116.194 Y45.766 
G1 F1800 X134.232 Y63.805 E2.04220
G1 F12000 X134.232 Y63.238 
G1 F1800 X116.760 Y45.766 E1.97806
G1 F12000 X117.325 Y45.766 
G1 F1800 X134.232 Y62.672 E1.91404
G1 F12000 X134.232 Y62.107 
G1 F1800 X117.890 Y45.766 E1.85007
G1 F12000 X118.456 Y45.766 
G1 F1800 X134.232 Y61.541 E1.78599
G1 F12000 X134.232 Y60.975 
G1 F1800 X119.021 Y45.765 E1.72203
G1 F12000 X119.587 Y45.765 
G1 F1800 X134.232 Y60.410 E1.65801
G1 F12000 X134.232 Y59.844 
G1 F1800 X120.152 Y45.765 E1.59398
G1 F12000 X120.717 Y45.764 
G1 F1800 X134.231 Y59.278 E1.52996
G1 F12000 X134.231 Y58.712 
G1 F1800 X121.283 Y45.764 E1.46588
G1 F12000 X121.849 Y45.764 
G1 F1800 X134.231 Y58.146 E1.40181
G1 F12000 X134.231 Y57.581 
G1 F1800 X122.414 Y45.763 E1.33790
G1 F12000 X122.980 Y45.763 
G1 F1800 X134.231 Y57.015 E1.27382
G1 F12000 X134.231 Y56.449 
G1 F1800 X123.545 Y45.763 E1.20980
G1 F12000 X124.110 Y45.763 
G1 F1800 X134.231 Y55.884 E1.14583
G1 F12000 X134.230 Y55.317 
G1 F1800 X124.676 Y45.763 E1.08164
G1 F12000 X125.242 Y45.763 
G1 F1800 X134.230 Y54.751 E1.01756
G1 F12000 X134.230 Y54.186 
G1 F1800 X125.807 Y45.762 E0.95365
G1 F12000 X126.372 Y45.762 
G1 F1800 X134.230 Y53.620 E0.88963
G1 F12000 X134.230 Y53.054 
G1 F1800 X126.938 Y45.762 E0.82555
G1 F12000 X127.503 Y45.761 
G1 F1800 X134.230 Y52.489 E0.76164
G1 F12000 X134.230 Y51.923 
G1 F1800 X128.069 Y45.761 E0.69756
G1 F12000 X128.634 Y45.761 
G1 F1800 X134.230 Y51.357 E0.63354
G1 F12000 X134.230 Y50.791 
G1 F1800 X129.199 Y45.761 E0.56952
G1 F12000 X129.765 Y45.761 
G1 F1800 X134.230 Y50.225 E0.50544
G1 F12000 X134.230 Y49.660 
G1 F1800 X130.331 Y45.761 E0.44142
G1 F12000 X130.896 Y45.760 
G1 F1800 X134.230 Y49.094 E0.37745
G1 F12000 X134.230 Y48.528 
G1 F1800 X131.461 Y45.760 E0.31343
G1 F12000 X132.031 Y45.764 
G1 F1800 X134.230 Y47.963 B0.5
G1 F12000 X134.109 Y47.277 
G1 F1800 X132.711 Y45.879 B0

;LAYER:3
G1 F12000 X75.990 Y46.693 Z0.900 

;TYPE:WALL-INNER
G1 F150 E.30000 ;Replenishing elided extrusion
M109
G0 B1
G1 F1800 X76.221 Y46.393 E0.03031
G1 F1800 X76.434 Y46.183 E0.02395
G1 F1800 X76.776 Y45.940 E0.03359
G1 F1800 X77.264 Y45.719 E0.04289
G1 F1800 X77.802 Y45.609 E0.04396
G1 F1800 X126.005 Y45.600 E3.85883
G1 F1800 X123.916 Y48.495 E0.28579
G1 F1800 X122.765 Y46.900 E0.15746
G1 F1800 X121.496 Y46.900 E0.10159
G1 F1800 X121.148 Y47.565 E0.06008
G1 F1800 X122.870 Y50.045 E0.24170
G1 F1800 X121.150 Y52.421 E0.23482
G1 F1800 X121.489 Y53.100 E0.06075
G1 F1800 X122.765 Y53.100 E0.10215
G1 F1800 X123.916 Y51.504 E0.15753
G1 F1800 X125.068 Y53.100 E0.15757
G1 F1800 X126.344 Y53.100 E0.10215
G1 F1800 X126.683 Y52.421 E0.06075
G1 F1800 X124.963 Y50.045 E0.23482
G1 F1800 X128.047 Y45.600 E0.43310
G1 F1800 X131.975 Y45.600 E0.31445
G1 F1800 X132.432 Y45.643 E0.03675
G1 F1800 X132.921 Y45.786 E0.04079
G1 F1800 X133.398 Y46.051 E0.04368
G1 F1800 X133.753 Y46.364 E0.03789
G1 F1800 X133.818 Y46.435 E0.00771
G1 F1800 X134.072 Y46.799 E0.03553
G1 F1800 X134.279 Y47.258 E0.04031
G1 F1800 X134.390 Y47.800 E0.04429
G1 F1800 X134.399 Y59.987 E0.97562
G1 F1800 X131.933 Y56.367 E0.35065
G1 F1800 X131.933 Y53.400 E0.23752
G1 F1800 X130.108 Y53.400 E0.14610
G1 F1800 X130.108 Y56.367 E0.23752
G1 F1800 X128.358 Y58.939 E0.24904
G1 F1800 X128.704 Y59.600 E0.05973
G1 F1800 X129.986 Y59.600 E0.10263
G1 F1800 X131.020 Y58.056 E0.14876
G1 F1800 X134.400 Y63.101 E0.48613
G1 F1800 X134.400 Y101.972 E3.11177
G1 F1800 X134.356 Y102.432 E0.03699
G1 F1800 X134.212 Y102.921 E0.04081
G1 F1800 X134.009 Y103.306 E0.03484
G1 F1800 X133.778 Y103.606 E0.03031
G1 F1800 X133.563 Y103.817 E0.02412
G1 F1800 X133.200 Y104.072 E0.03551
G1 F1800 X132.738 Y104.279 E0.04053
G1 F1800 X132.301 Y104.376 E0.03583
G1 F1800 X112.031 Y104.400 E1.62269
G1 F1800 X111.662 Y104.357 E0.02974
G1 F1800 X111.375 Y104.249 E0.02455
G1 F1800 X111.198 Y104.145 E0.01643
G1 F1800 X111.003 Y103.982 E0.02035
G1 F1800 X110.860 Y103.812 E0.01778
G1 F1800 X110.741 Y103.604 E0.01918
G1 F1800 X110.617 Y103.215 E0.03268
G1 F1800 X110.605 Y102.850 E0.02924
G1 F1800 X127.664 Y102.844 E1.36564
G1 F1800 X128.169 Y102.763 E0.04094
G1 F1800 X128.611 Y102.602 E0.03766
G1 F1800 X128.980 Y102.388 E0.03415
G1 F1800 X129.340 Y102.088 E0.03751
G1 F1800 X129.607 Y101.771 E0.03318
G1 F1800 X129.851 Y101.363 E0.03806
G1 F1800 X129.953 Y101.115 E0.02147
G1 F1800 X130.089 Y100.502 E0.05027
G1 F1800 X130.101 Y100.236 E0.02132
G1 F1800 X130.063 Y99.807 E0.03448
G1 F1800 X130.004 Y99.548 E0.02127
G1 F1800 X129.762 Y98.958 E0.05105
G1 F1800 X129.510 Y98.599 E0.03511
G1 F1800 X129.338 Y98.409 E0.02052
G1 F1800 X128.980 Y98.111 E0.03729
G1 F1800 X128.609 Y97.896 E0.03433
G1 F1800 X128.375 Y97.801 E0.02022
G1 F1800 X127.957 Y97.687 E0.03468
G1 F1800 X127.544 Y97.650 E0.03319
G1 F1800 X116.698 Y97.650 E0.86826
G1 F1800 X116.329 Y97.629 E0.02959
G1 F1800 X116.075 Y97.543 E0.02147
G1 F1800 X115.854 Y97.391 E0.02147
G1 F1800 X115.744 Y97.271 E0.01303
G1 F1800 X115.651 Y97.121 E0.01413
G1 F1800 X115.589 Y96.959 E0.01389
G1 F1800 X115.553 Y96.767 E0.01564
G1 F1800 X115.551 Y96.723 E0.00353
G1 F1800 X115.569 Y96.518 E0.01647
G1 F1800 X115.614 Y96.362 E0.01300
G1 F1800 X115.694 Y96.200 E0.01446
G1 F1800 X115.797 Y96.065 E0.01359
G1 F1800 X115.925 Y95.947 E0.01394
G1 F1800 X116.077 Y95.851 E0.01439
G1 F1800 X116.236 Y95.791 E0.01360
G1 F1800 X116.414 Y95.757 E0.01451
G1 F1800 X127.664 Y95.744 E0.90061
G1 F1800 X128.182 Y95.662 E0.04198
G1 F1800 X128.790 Y95.412 E0.05263
G1 F1800 X129.174 Y95.140 E0.03767
G1 F1800 X129.483 Y94.831 E0.03498
G1 F1800 X129.607 Y94.671 E0.01620
G1 F1800 X129.851 Y94.263 E0.03806
G1 F1800 X129.953 Y94.015 E0.02147
G1 F1800 X130.089 Y93.402 E0.05027
G1 F1800 X130.101 Y93.136 E0.02132
G1 F1800 X130.063 Y92.707 E0.03448
G1 F1800 X130.004 Y92.448 E0.02127
G1 F1800 X129.762 Y91.858 E0.05105
G1 F1800 X129.510 Y91.499 E0.03511
G1 F1800 X129.329 Y91.300 E0.02153
G1 F1800 X128.989 Y91.016 E0.03546
G1 F1800 X128.609 Y90.796 E0.03515
G1 F1800 X128.375 Y90.701 E0.02022
G1 F1800 X127.957 Y90.587 E0.03468
G1 F1800 X127.544 Y90.550 E0.03319
G1 F1800 X116.698 Y90.550 E0.86826
G1 F1800 X116.329 Y90.529 E0.02959
G1 F1800 X116.075 Y90.443 E0.02147
G1 F1800 X115.854 Y90.291 E0.02147
G1 F1800 X115.744 Y90.171 E0.01303
G1 F1800 X115.651 Y90.021 E0.01413
G1 F1800 X115.589 Y89.859 E0.01389
G1 F1800 X115.553 Y89.667 E0.01564
G1 F1800 X115.551 Y89.622 E0.00361
G1 F1800 X115.569 Y89.418 E0.01639
G1 F1800 X115.614 Y89.262 E0.01300
G1 F1800 X115.693 Y89.104 E0.01414
G1 F1800 X115.808 Y88.952 E0.01526
G1 F1800 X115.921 Y88.849 E0.01224
G1 F1800 X116.078 Y88.751 E0.01482
G1 F1800 X116.236 Y88.691 E0.01353
G1 F1800 X116.414 Y88.657 E0.01451
G1 F1800 X127.664 Y88.644 E0.90061
G1 F1800 X128.182 Y88.562 E0.04198
G1 F1800 X128.789 Y88.312 E0.05255
G1 F1800 X129.163 Y88.050 E0.03656
G1 F1800 X129.491 Y87.721 E0.03719
G1 F1800 X129.607 Y87.571 E0.01518
G1 F1800 X129.851 Y87.163 E0.03806
G1 F1800 X129.953 Y86.915 E0.02147
G1 F1800 X130.089 Y86.302 E0.05027
G1 F1800 X130.101 Y86.036 E0.02132
G1 F1800 X130.063 Y85.607 E0.03448
G1 F1800 X130.004 Y85.348 E0.02127
G1 F1800 X129.762 Y84.758 E0.05105
G1 F1800 X129.510 Y84.399 E0.03511
G1 F1800 X129.338 Y84.209 E0.02052
G1 F1800 X128.980 Y83.911 E0.03729
G1 F1800 X128.609 Y83.696 E0.03433
G1 F1800 X128.375 Y83.601 E0.02022
G1 F1800 X127.957 Y83.487 E0.03468
G1 F1800 X127.544 Y83.450 E0.03319
G1 F1800 X116.698 Y83.450 E0.86826
G1 F1800 X116.329 Y83.429 E0.02959
G1 F1800 X116.075 Y83.343 E0.02147
G1 F1800 X115.854 Y83.191 E0.02147
G1 F1800 X115.744 Y83.071 E0.01303
G1 F1800 X115.651 Y82.921 E0.01413
G1 F1800 X115.589 Y82.759 E0.01389
G1 F1800 X115.553 Y82.567 E0.01564
G1 F1800 X115.551 Y82.523 E0.00353
G1 F1800 X115.569 Y82.318 E0.01647
G1 F1800 X115.614 Y82.162 E0.01300
G1 F1800 X115.694 Y82.000 E0.01446
G1 F1800 X115.797 Y81.865 E0.01359
G1 F1800 X115.925 Y81.747 E0.01394
G1 F1800 X116.077 Y81.651 E0.01439
G1 F1800 X116.236 Y81.591 E0.01360
G1 F1800 X116.414 Y81.557 E0.01451
G1 F1800 X127.664 Y81.544 E0.90061
G1 F1800 X128.182 Y81.462 E0.04198
G1 F1800 X128.789 Y81.212 E0.05255
G1 F1800 X129.163 Y80.950 E0.03656
G1 F1800 X129.491 Y80.621 E0.03719
G1 F1800 X129.608 Y80.471 E0.01523
G1 F1800 X129.862 Y80.043 E0.03984
G1 F1800 X130.057 Y79.429 E0.05157
G1 F1800 X130.090 Y79.175 E0.02050
G1 F1800 X130.101 Y78.935 E0.01923
G1 F1800 X130.063 Y78.507 E0.03440
G1 F1800 X130.006 Y78.256 E0.02061
G1 F1800 X129.828 Y77.786 E0.04023
G1 F1800 X129.604 Y77.425 E0.03401
G1 F1800 X129.338 Y77.109 E0.03307
G1 F1800 X128.980 Y76.811 E0.03729
G1 F1800 X128.609 Y76.596 E0.03433
G1 F1800 X128.375 Y76.501 E0.02022
G1 F1800 X127.957 Y76.387 E0.03468
G1 F1800 X127.525 Y76.349 E0.03472
G1 F1800 X116.695 Y76.349 E0.86698
G1 F1800 X116.329 Y76.329 E0.02934
G1 F1800 X116.064 Y76.239 E0.02240
G1 F1800 X115.931 Y76.156 E0.01255
G1 F1800 X115.739 Y75.963 E0.02179
G1 F1800 X115.651 Y75.821 E0.01337
G1 F1800 X115.589 Y75.659 E0.01389
G1 F1800 X115.553 Y75.467 E0.01564
G1 F1800 X115.551 Y75.423 E0.00353
G1 F1800 X115.569 Y75.218 E0.01647
G1 F1800 X115.614 Y75.062 E0.01300
G1 F1800 X115.694 Y74.900 E0.01446
G1 F1800 X115.797 Y74.765 E0.01359
G1 F1800 X115.925 Y74.647 E0.01394
G1 F1800 X116.077 Y74.551 E0.01439
G1 F1800 X116.236 Y74.491 E0.01360
G1 F1800 X116.414 Y74.457 E0.01451
G1 F1800 X127.664 Y74.444 E0.90061
G1 F1800 X128.182 Y74.362 E0.04198
G1 F1800 X128.789 Y74.112 E0.05255
G1 F1800 X129.163 Y73.850 E0.03656
G1 F1800 X129.491 Y73.521 E0.03719
G1 F1800 X129.607 Y73.371 E0.01518
G1 F1800 X129.851 Y72.963 E0.03806
G1 F1800 X129.953 Y72.715 E0.02147
G1 F1800 X130.089 Y72.104 E0.05011
G1 F1800 X130.101 Y71.835 E0.02156
G1 F1800 X130.063 Y71.407 E0.03440
G1 F1800 X130.004 Y71.148 E0.02127
G1 F1800 X129.762 Y70.557 E0.05112
G1 F1800 X129.509 Y70.197 E0.03522
G1 F1800 X129.337 Y70.008 E0.02046
G1 F1800 X128.980 Y69.711 E0.03718
G1 F1800 X128.609 Y69.496 E0.03433
G1 F1800 X128.375 Y69.401 E0.02022
G1 F1800 X127.957 Y69.287 E0.03468
G1 F1800 X127.525 Y69.249 E0.03472
G1 F1800 X116.695 Y69.249 E0.86698
G1 F1800 X116.329 Y69.229 E0.02934
G1 F1800 X116.075 Y69.143 E0.02147
G1 F1800 X115.854 Y68.991 E0.02147
G1 F1800 X115.744 Y68.871 E0.01303
G1 F1800 X115.651 Y68.721 E0.01413
G1 F1800 X115.589 Y68.559 E0.01389
G1 F1800 X115.553 Y68.367 E0.01564
G1 F1800 X115.551 Y68.323 E0.00353
G1 F1800 X115.569 Y68.118 E0.01647
G1 F1800 X115.614 Y67.962 E0.01300
G1 F1800 X115.694 Y67.800 E0.01446
G1 F1800 X115.797 Y67.665 E0.01359
G1 F1800 X115.925 Y67.547 E0.01394
G1 F1800 X116.077 Y67.451 E0.01439
G1 F1800 X116.236 Y67.391 E0.01360
G1 F1800 X116.414 Y67.357 E0.01451
G1 F1800 X127.664 Y67.344 E0.90061
G1 F1800 X128.182 Y67.262 E0.04198
G1 F1800 X128.789 Y67.012 E0.05255
G1 F1800 X129.163 Y66.750 E0.03656
G1 F1800 X129.347 Y66.581 E0.02000
G1 F1800 X129.601 Y66.284 E0.03129
G1 F1800 X129.851 Y65.863 E0.03920
G1 F1800 X129.953 Y65.615 E0.02147
G1 F1800 X130.089 Y65.002 E0.05027
G1 F1800 X130.101 Y64.736 E0.02132
G1 F1800 X130.063 Y64.307 E0.03448
G1 F1800 X130.004 Y64.048 E0.02127
G1 F1800 X129.762 Y63.458 E0.05105
G1 F1800 X129.510 Y63.099 E0.03511
G1 F1800 X129.161 Y62.748 E0.03962
G1 F1800 X128.797 Y62.493 E0.03558
G1 F1800 X128.389 Y62.303 E0.03603
G1 F1800 X127.956 Y62.187 E0.03589
G1 F1800 X127.544 Y62.150 E0.03311
G1 F1800 X117.850 Y62.150 E0.77604
G1 F1800 X117.844 Y52.332 E0.78597
G1 F1800 X117.763 Y51.828 E0.04086
G1 F1800 X117.601 Y51.386 E0.03769
G1 F1800 X117.388 Y51.019 E0.03397
G1 F1800 X117.231 Y50.816 E0.02054
G1 F1800 X116.933 Y50.518 E0.03374
G1 F1800 X116.730 Y50.361 E0.02054
G1 F1800 X116.359 Y50.146 E0.03433
G1 F1800 X116.116 Y50.046 E0.02104
G1 F1800 X115.547 Y49.915 E0.04674
G1 F1800 X115.241 Y49.899 E0.02453
G1 F1800 X114.811 Y49.936 E0.03455
G1 F1800 X114.548 Y49.995 E0.02158
G1 F1800 X113.971 Y50.233 E0.04997
G1 F1800 X113.720 Y50.397 E0.02400
G1 F1800 X113.416 Y50.654 E0.03187
G1 F1800 X113.240 Y50.848 E0.02097
G1 F1800 X112.902 Y51.378 E0.05032
G1 F1800 X112.800 Y51.625 E0.02139
G1 F1800 X112.690 Y52.033 E0.03383
G1 F1800 X112.658 Y52.287 E0.02049
G1 F1800 X112.650 Y63.475 E0.89564
G1 F1800 X112.633 Y63.658 E0.01471
G1 F1800 X112.543 Y63.924 E0.02248
G1 F1800 X112.392 Y64.144 E0.02136
G1 F1800 X112.270 Y64.255 E0.01320
G1 F1800 X112.123 Y64.347 E0.01388
G1 F1800 X111.962 Y64.409 E0.01381
G1 F1800 X111.765 Y64.446 E0.01605
G1 F1800 X111.721 Y64.448 E0.00353
G1 F1800 X111.527 Y64.430 E0.01560
G1 F1800 X111.340 Y64.374 E0.01563
G1 F1800 X111.122 Y64.249 E0.02012
G1 F1800 X110.956 Y64.090 E0.01840
G1 F1800 X110.818 Y63.840 E0.02286
G1 F1800 X110.757 Y63.579 E0.02146
G1 F1800 X110.744 Y52.332 E0.90037
G1 F1800 X110.661 Y51.816 E0.04184
G1 F1800 X110.411 Y51.207 E0.05270
G1 F1800 X110.142 Y50.827 E0.03727
G1 F1800 X109.833 Y50.518 E0.03498
G1 F1800 X109.630 Y50.361 E0.02054
G1 F1800 X109.259 Y50.146 E0.03433
G1 F1800 X109.015 Y50.046 E0.02111
G1 F1800 X108.400 Y49.910 E0.05042
G1 F1800 X108.137 Y49.899 E0.02107
G1 F1800 X107.711 Y49.936 E0.03423
G1 F1800 X107.448 Y49.995 E0.02158
G1 F1800 X106.874 Y50.232 E0.04971
G1 F1800 X106.646 Y50.377 E0.02163
G1 F1800 X106.317 Y50.652 E0.03433
G1 F1800 X106.015 Y51.014 E0.03774
G1 F1800 X105.797 Y51.389 E0.03472
G1 F1800 X105.700 Y51.625 E0.02043
G1 F1800 X105.590 Y52.033 E0.03383
G1 F1800 X105.558 Y52.287 E0.02049
G1 F1800 X105.550 Y63.475 E0.89564
G1 F1800 X105.533 Y63.658 E0.01471
G1 F1800 X105.443 Y63.924 E0.02248
G1 F1800 X105.292 Y64.144 E0.02136
G1 F1800 X105.170 Y64.255 E0.01320
G1 F1800 X105.023 Y64.347 E0.01388
G1 F1800 X104.862 Y64.409 E0.01381
G1 F1800 X104.665 Y64.446 E0.01605
G1 F1800 X104.621 Y64.448 E0.00353
G1 F1800 X104.420 Y64.430 E0.01616
G1 F1800 X104.262 Y64.385 E0.01315
G1 F1800 X104.100 Y64.304 E0.01450
G1 F1800 X103.953 Y64.192 E0.01479
G1 F1800 X103.851 Y64.079 E0.01219
G1 F1800 X103.718 Y63.840 E0.02190
G1 F1800 X103.657 Y63.579 E0.02146
G1 F1800 X103.644 Y52.332 E0.90037
G1 F1800 X103.561 Y51.816 E0.04184
G1 F1800 X103.311 Y51.207 E0.05270
G1 F1800 X103.042 Y50.827 E0.03727
G1 F1800 X102.733 Y50.518 E0.03498
G1 F1800 X102.532 Y50.362 E0.02037
G1 F1800 X102.209 Y50.172 E0.03000
G1 F1800 X101.920 Y50.048 E0.02518
G1 F1800 X101.300 Y49.910 E0.05085
G1 F1800 X101.037 Y49.899 E0.02107
G1 F1800 X100.610 Y49.936 E0.03431
G1 F1800 X100.345 Y49.996 E0.02175
G1 F1800 X99.774 Y50.232 E0.04946
G1 F1800 X99.546 Y50.377 E0.02163
G1 F1800 X99.217 Y50.652 E0.03433
G1 F1800 X99.040 Y50.848 E0.02114
G1 F1800 X98.702 Y51.378 E0.05032
G1 F1800 X98.600 Y51.625 E0.02139
G1 F1800 X98.490 Y52.033 E0.03383
G1 F1800 X98.458 Y52.287 E0.02049
G1 F1800 X98.450 Y63.475 E0.89564
G1 F1800 X98.433 Y63.658 E0.01471
G1 F1800 X98.343 Y63.924 E0.02248
G1 F1800 X98.192 Y64.144 E0.02136
G1 F1800 X98.070 Y64.255 E0.01320
G1 F1800 X97.923 Y64.347 E0.01388
G1 F1800 X97.762 Y64.409 E0.01381
G1 F1800 X97.565 Y64.446 E0.01605
G1 F1800 X97.526 Y64.448 E0.00313
G1 F1800 X97.320 Y64.430 E0.01655
G1 F1800 X97.162 Y64.385 E0.01315
G1 F1800 X96.997 Y64.303 E0.01475
G1 F1800 X96.795 Y64.138 E0.02088
G1 F1800 X96.758 Y64.093 E0.00466
G1 F1800 X96.618 Y63.840 E0.02315
G1 F1800 X96.557 Y63.579 E0.02146
G1 F1800 X96.544 Y52.332 E0.90037
G1 F1800 X96.461 Y51.816 E0.04184
G1 F1800 X96.211 Y51.207 E0.05270
G1 F1800 X95.942 Y50.827 E0.03727
G1 F1800 X95.633 Y50.518 E0.03498
G1 F1800 X95.430 Y50.361 E0.02054
G1 F1800 X95.059 Y50.146 E0.03433
G1 F1800 X94.815 Y50.046 E0.02111
G1 F1800 X94.200 Y49.910 E0.05042
G1 F1800 X93.936 Y49.899 E0.02115
G1 F1800 X93.511 Y49.936 E0.03415
G1 F1800 X93.254 Y49.993 E0.02107
G1 F1800 X92.695 Y50.220 E0.04830
G1 F1800 X92.448 Y50.376 E0.02339
G1 F1800 X92.117 Y50.652 E0.03450
G1 F1800 X91.940 Y50.848 E0.02114
G1 F1800 X91.602 Y51.378 E0.05032
G1 F1800 X91.500 Y51.625 E0.02139
G1 F1800 X91.387 Y52.044 E0.03474
G1 F1800 X91.349 Y52.475 E0.03464
G1 F1800 X91.349 Y63.467 E0.87995
G1 F1800 X91.331 Y63.662 E0.01568
G1 F1800 X91.243 Y63.924 E0.02213
G1 F1800 X91.092 Y64.144 E0.02136
G1 F1800 X90.970 Y64.255 E0.01320
G1 F1800 X90.823 Y64.347 E0.01388
G1 F1800 X90.662 Y64.409 E0.01381
G1 F1800 X90.465 Y64.446 E0.01605
G1 F1800 X90.423 Y64.448 E0.00337
G1 F1800 X90.195 Y64.424 E0.01835
G1 F1800 X90.062 Y64.386 E0.01107
G1 F1800 X89.898 Y64.303 E0.01471
G1 F1800 X89.695 Y64.138 E0.02094
G1 F1800 X89.658 Y64.093 E0.00466
G1 F1800 X89.518 Y63.840 E0.02315
G1 F1800 X89.457 Y63.579 E0.02146
G1 F1800 X89.444 Y52.332 E0.90037
G1 F1800 X89.361 Y51.816 E0.04184
G1 F1800 X89.118 Y51.225 E0.05115
G1 F1800 X88.979 Y51.006 E0.02076
G1 F1800 X88.625 Y50.600 E0.04312
G1 F1800 X88.336 Y50.365 E0.02982
G1 F1800 X87.959 Y50.146 E0.03490
G1 F1800 X87.715 Y50.046 E0.02111
G1 F1800 X87.097 Y49.910 E0.05066
G1 F1800 X86.837 Y49.899 E0.02083
G1 F1800 X86.411 Y49.936 E0.03423
G1 F1800 X86.149 Y49.995 E0.02150
G1 F1800 X85.550 Y50.241 E0.05184
G1 F1800 X85.043 Y50.625 E0.05091
G1 F1800 X84.718 Y51.006 E0.04009
G1 F1800 X84.496 Y51.390 E0.03551
G1 F1800 X84.400 Y51.625 E0.02032
G1 F1800 X84.287 Y52.044 E0.03474
G1 F1800 X84.249 Y52.475 E0.03464
G1 F1800 X84.249 Y63.467 E0.87995
G1 F1800 X84.231 Y63.662 E0.01568
G1 F1800 X84.143 Y63.924 E0.02213
G1 F1800 X83.992 Y64.144 E0.02136
G1 F1800 X83.870 Y64.255 E0.01320
G1 F1800 X83.723 Y64.347 E0.01388
G1 F1800 X83.562 Y64.409 E0.01381
G1 F1800 X83.365 Y64.446 E0.01605
G1 F1800 X83.322 Y64.448 E0.00345
G1 F1800 X83.120 Y64.430 E0.01623
G1 F1800 X82.959 Y64.384 E0.01340
G1 F1800 X82.804 Y64.307 E0.01386
G1 F1800 X82.595 Y64.138 E0.02152
G1 F1800 X82.558 Y64.093 E0.00466
G1 F1800 X82.418 Y63.840 E0.02315
G1 F1800 X82.357 Y63.579 E0.02146
G1 F1800 X82.344 Y52.332 E0.90037
G1 F1800 X82.261 Y51.816 E0.04184
G1 F1800 X82.011 Y51.207 E0.05270
G1 F1800 X81.742 Y50.827 E0.03727
G1 F1800 X81.424 Y50.508 E0.03606
G1 F1800 X81.049 Y50.244 E0.03671
G1 F1800 X80.628 Y50.049 E0.03714
G1 F1800 X80.000 Y49.910 E0.05149
G1 F1800 X79.749 Y49.899 E0.02011
G1 F1800 X79.484 Y49.912 E0.02124
G1 F1800 X79.059 Y49.990 E0.03459
G1 F1800 X78.474 Y50.232 E0.05068
G1 F1800 X78.246 Y50.377 E0.02163
G1 F1800 X77.917 Y50.652 E0.03433
G1 F1800 X77.743 Y50.845 E0.02080
G1 F1800 X77.425 Y51.330 E0.04643
G1 F1800 X77.301 Y51.620 E0.02525
G1 F1800 X77.190 Y52.034 E0.03431
G1 F1800 X77.158 Y52.288 E0.02049
G1 F1800 X77.150 Y69.400 E1.36988
G1 F1800 X77.031 Y69.400 E0.00953
G1 F1800 X76.674 Y69.360 E0.02876
G1 F1800 X76.274 Y69.195 E0.03464
G1 F1800 X76.210 Y69.154 E0.00608
G1 F1800 X76.004 Y68.982 E0.02148
G1 F1800 X75.930 Y68.901 E0.00878
G1 F1800 X75.789 Y68.699 E0.01972
G1 F1800 X75.684 Y68.474 E0.01988
G1 F1800 X75.608 Y68.141 E0.02734
G1 F1800 X75.600 Y48.025 E1.61036
G1 F1800 X75.643 Y47.566 E0.03691
G1 F1800 X75.786 Y47.078 E0.04071
G1 F1800 X75.990 Y46.693 E0.03488
G1 F12000 X75.654 Y46.474 
;TYPE:WALL-OUTER
G1 F1800 X75.922 Y46.126 E0.03516
G1 F1800 X76.176 Y45.876 E0.02853
G1 F1800 X76.577 Y45.590 E0.03943
G1 F1800 X77.136 Y45.337 E0.04912
G1 F1800 X77.632 Y45.227 E0.04067
G1 F1800 X77.778 Y45.209 E0.01178
G1 F1800 X126.787 Y45.200 E3.92336
G1 F1800 X123.916 Y49.179 E0.39279
G1 F1800 X122.560 Y47.300 E0.18550
G1 F1800 X121.738 Y47.300 E0.06580
G1 F1800 X121.615 Y47.536 E0.02130
G1 F1800 X123.360 Y50.050 E0.24499
G1 F1800 X121.616 Y52.459 E0.23808
G1 F1800 X121.736 Y52.700 E0.02155
G1 F1800 X122.560 Y52.700 E0.06596
G1 F1800 X123.916 Y50.819 E0.18563
G1 F1800 X125.273 Y52.700 E0.18568
G1 F1800 X126.097 Y52.700 E0.06596
G1 F1800 X126.217 Y52.459 E0.02155
G1 F1800 X124.473 Y50.049 E0.23815
G1 F1800 X127.837 Y45.200 E0.47245
G1 F1800 X131.991 Y45.200 E0.33254
G1 F1800 X132.511 Y45.249 E0.04181
G1 F1800 X133.068 Y45.413 E0.04648
G1 F1800 X133.530 Y45.658 E0.04186
G1 F1800 X133.640 Y45.731 E0.01057
G1 F1800 X134.030 Y46.075 E0.04163
G1 F1800 X134.132 Y46.186 E0.01207
G1 F1800 X134.422 Y46.601 E0.04053
G1 F1800 X134.661 Y47.133 E0.04669
G1 F1800 X134.772 Y47.628 E0.04061
G1 F1800 X134.790 Y47.776 E0.01194
G1 F1800 X134.800 Y61.286 E1.08153
G1 F1800 X131.533 Y56.490 E0.46455
G1 F1800 X131.533 Y53.800 E0.21534
G1 F1800 X130.508 Y53.800 E0.08206
G1 F1800 X130.508 Y56.490 E0.21534
G1 F1800 X128.823 Y58.966 E0.23976
G1 F1800 X128.946 Y59.200 E0.02116
G1 F1800 X129.773 Y59.200 E0.06620
G1 F1800 X131.020 Y57.337 E0.17947
G1 F1800 X134.800 Y62.979 E0.54366
G1 F1800 X134.800 Y101.990 E3.12298
G1 F1800 X134.750 Y102.510 E0.04182
G1 F1800 X134.586 Y103.068 E0.04656
G1 F1800 X134.345 Y103.525 E0.04136
G1 F1800 X134.077 Y103.873 E0.03516
G1 F1800 X133.823 Y104.124 E0.02859
G1 F1800 X133.399 Y104.421 E0.04144
G1 F1800 X132.861 Y104.662 E0.04719
G1 F1800 X132.363 Y104.773 E0.04085
G1 F1800 X132.050 Y104.799 E0.02514
G1 F1800 X112.008 Y104.800 E1.60444
G1 F1800 X111.676 Y104.771 E0.02668
G1 F1800 X111.545 Y104.741 E0.01076
G1 F1800 X111.199 Y104.610 E0.02962
G1 F1800 X110.966 Y104.473 E0.02164
G1 F1800 X110.723 Y104.270 E0.02535
G1 F1800 X110.621 Y104.157 E0.01219
G1 F1800 X110.527 Y104.035 E0.01233
G1 F1800 X110.373 Y103.768 E0.02467
G1 F1800 X110.224 Y103.299 E0.03939
G1 F1800 X110.202 Y102.450 E0.06799
G1 F1800 X127.632 Y102.444 E1.39534
G1 F1800 X128.068 Y102.374 E0.03535
G1 F1800 X128.441 Y102.238 E0.03178
G1 F1800 X128.757 Y102.055 E0.02923
G1 F1800 X129.057 Y101.805 E0.03126
G1 F1800 X129.276 Y101.545 E0.02721
G1 F1800 X129.492 Y101.184 E0.03368
G1 F1800 X129.570 Y100.995 E0.01637
G1 F1800 X129.691 Y100.449 E0.04477
G1 F1800 X129.700 Y100.245 E0.01635
G1 F1800 X129.667 Y99.870 E0.03014
G1 F1800 X129.621 Y99.669 E0.01651
G1 F1800 X129.409 Y99.151 E0.04481
G1 F1800 X129.197 Y98.849 E0.02954
G1 F1800 X129.055 Y98.692 E0.01695
G1 F1800 X128.757 Y98.444 E0.03104
G1 F1800 X128.432 Y98.256 E0.03006
G1 F1800 X128.246 Y98.180 E0.01609
G1 F1800 X127.886 Y98.082 E0.02987
G1 F1800 X127.526 Y98.050 E0.02893
G1 F1800 X116.692 Y98.050 E0.86730
G1 F1800 X116.251 Y98.025 E0.03536
G1 F1800 X115.895 Y97.904 E0.03010
G1 F1800 X115.589 Y97.695 E0.02966
G1 F1800 X115.423 Y97.512 E0.01978
G1 F1800 X115.292 Y97.301 E0.01988
G1 F1800 X115.203 Y97.068 E0.01997
G1 F1800 X115.155 Y96.816 E0.02054
G1 F1800 X115.150 Y96.704 E0.00897
G1 F1800 X115.174 Y96.448 E0.02058
G1 F1800 X115.239 Y96.216 E0.01929
G1 F1800 X115.352 Y95.990 E0.02023
G1 F1800 X115.500 Y95.795 E0.01960
G1 F1800 X115.683 Y95.626 E0.01994
G1 F1800 X115.894 Y95.494 E0.01992
G1 F1800 X116.128 Y95.404 E0.02007
G1 F1800 X116.377 Y95.357 E0.02029
G1 F1800 X127.632 Y95.344 E0.90101
G1 F1800 X128.073 Y95.274 E0.03575
G1 F1800 X128.596 Y95.059 E0.04527
G1 F1800 X128.915 Y94.833 E0.03130
G1 F1800 X129.182 Y94.566 E0.03023
G1 F1800 X129.276 Y94.445 E0.01227
G1 F1800 X129.492 Y94.084 E0.03368
G1 F1800 X129.570 Y93.895 E0.01637
G1 F1800 X129.691 Y93.349 E0.04477
G1 F1800 X129.700 Y93.145 E0.01635
G1 F1800 X129.667 Y92.770 E0.03014
G1 F1800 X129.621 Y92.569 E0.01651
G1 F1800 X129.409 Y92.051 E0.04481
G1 F1800 X129.197 Y91.749 E0.02954
G1 F1800 X129.052 Y91.589 E0.01729
G1 F1800 X128.759 Y91.345 E0.03052
G1 F1800 X128.432 Y91.156 E0.03024
G1 F1800 X128.246 Y91.080 E0.01609
G1 F1800 X127.886 Y90.982 E0.02987
G1 F1800 X127.526 Y90.950 E0.02893
G1 F1800 X116.692 Y90.950 E0.86730
G1 F1800 X116.251 Y90.925 E0.03536
G1 F1800 X115.895 Y90.804 E0.03010
G1 F1800 X115.589 Y90.595 E0.02966
G1 F1800 X115.423 Y90.412 E0.01978
G1 F1800 X115.292 Y90.201 E0.01988
G1 F1800 X115.203 Y89.968 E0.01997
G1 F1800 X115.155 Y89.716 E0.02054
G1 F1800 X115.150 Y89.603 E0.00905
G1 F1800 X115.174 Y89.348 E0.02050
G1 F1800 X115.239 Y89.116 E0.01929
G1 F1800 X115.352 Y88.891 E0.02016
G1 F1800 X115.512 Y88.679 E0.02126
G1 F1800 X115.677 Y88.530 E0.01780
G1 F1800 X115.894 Y88.394 E0.02050
G1 F1800 X116.128 Y88.304 E0.02007
G1 F1800 X116.377 Y88.257 E0.02029
G1 F1800 X127.632 Y88.244 E0.90101
G1 F1800 X128.073 Y88.174 E0.03575
G1 F1800 X128.596 Y87.959 E0.04527
G1 F1800 X128.912 Y87.737 E0.03092
G1 F1800 X129.057 Y87.604 E0.01575
G1 F1800 X129.184 Y87.464 E0.01513
G1 F1800 X129.276 Y87.345 E0.01204
G1 F1800 X129.492 Y86.984 E0.03368
G1 F1800 X129.570 Y86.795 E0.01637
G1 F1800 X129.691 Y86.249 E0.04477
G1 F1800 X129.700 Y86.045 E0.01635
G1 F1800 X129.667 Y85.670 E0.03014
G1 F1800 X129.621 Y85.469 E0.01651
G1 F1800 X129.409 Y84.951 E0.04481
G1 F1800 X129.197 Y84.649 E0.02954
G1 F1800 X129.055 Y84.492 E0.01695
G1 F1800 X128.757 Y84.244 E0.03104
G1 F1800 X128.432 Y84.056 E0.03006
G1 F1800 X128.246 Y83.980 E0.01609
G1 F1800 X127.886 Y83.882 E0.02987
G1 F1800 X127.526 Y83.850 E0.02893
G1 F1800 X116.692 Y83.850 E0.86730
G1 F1800 X116.251 Y83.825 E0.03536
G1 F1800 X115.895 Y83.704 E0.03010
G1 F1800 X115.589 Y83.495 E0.02966
G1 F1800 X115.423 Y83.312 E0.01978
G1 F1800 X115.292 Y83.101 E0.01988
G1 F1800 X115.203 Y82.868 E0.01997
G1 F1800 X115.155 Y82.616 E0.02054
G1 F1800 X115.150 Y82.504 E0.00897
G1 F1800 X115.174 Y82.248 E0.02058
G1 F1800 X115.239 Y82.016 E0.01929
G1 F1800 X115.352 Y81.790 E0.02023
G1 F1800 X115.500 Y81.595 E0.01960
G1 F1800 X115.683 Y81.426 E0.01994
G1 F1800 X115.894 Y81.294 E0.01992
G1 F1800 X116.128 Y81.204 E0.02007
G1 F1800 X116.377 Y81.157 E0.02029
G1 F1800 X127.632 Y81.144 E0.90101
G1 F1800 X128.073 Y81.074 E0.03575
G1 F1800 X128.596 Y80.859 E0.04527
G1 F1800 X128.912 Y80.637 E0.03092
G1 F1800 X129.057 Y80.504 E0.01575
G1 F1800 X129.184 Y80.364 E0.01513
G1 F1800 X129.277 Y80.245 E0.01209
G1 F1800 X129.495 Y79.878 E0.03417
G1 F1800 X129.665 Y79.342 E0.04502
G1 F1800 X129.700 Y78.944 E0.03198
G1 F1800 X129.667 Y78.570 E0.03006
G1 F1800 X129.622 Y78.372 E0.01625
G1 F1800 X129.467 Y77.964 E0.03494
G1 F1800 X129.275 Y77.653 E0.02926
G1 F1800 X129.055 Y77.392 E0.02733
G1 F1800 X128.757 Y77.144 E0.03104
G1 F1800 X128.432 Y76.956 E0.03006
G1 F1800 X128.246 Y76.880 E0.01609
G1 F1800 X127.886 Y76.782 E0.02987
G1 F1800 X127.508 Y76.749 E0.03038
G1 F1800 X116.691 Y76.749 E0.86594
G1 F1800 X116.251 Y76.725 E0.03528
G1 F1800 X115.895 Y76.604 E0.03010
G1 F1800 X115.679 Y76.470 E0.02035
G1 F1800 X115.421 Y76.209 E0.02938
G1 F1800 X115.292 Y76.001 E0.01959
G1 F1800 X115.203 Y75.768 E0.01997
G1 F1800 X115.155 Y75.516 E0.02054
G1 F1800 X115.150 Y75.404 E0.00897
G1 F1800 X115.174 Y75.148 E0.02058
G1 F1800 X115.239 Y74.916 E0.01929
G1 F1800 X115.352 Y74.690 E0.02023
G1 F1800 X115.500 Y74.495 E0.01960
G1 F1800 X115.683 Y74.326 E0.01994
G1 F1800 X115.894 Y74.194 E0.01992
G1 F1800 X116.128 Y74.104 E0.02007
G1 F1800 X116.377 Y74.057 E0.02029
G1 F1800 X127.632 Y74.044 E0.90101
G1 F1800 X128.073 Y73.974 E0.03575
G1 F1800 X128.596 Y73.759 E0.04527
G1 F1800 X128.912 Y73.537 E0.03092
G1 F1800 X129.057 Y73.404 E0.01575
G1 F1800 X129.184 Y73.264 E0.01513
G1 F1800 X129.276 Y73.145 E0.01204
G1 F1800 X129.492 Y72.784 E0.03368
G1 F1800 X129.570 Y72.595 E0.01637
G1 F1800 X129.691 Y72.051 E0.04461
G1 F1800 X129.700 Y71.844 E0.01659
G1 F1800 X129.667 Y71.470 E0.03006
G1 F1800 X129.621 Y71.269 E0.01651
G1 F1800 X129.409 Y70.750 E0.04488
G1 F1800 X129.196 Y70.448 E0.02958
G1 F1800 X128.913 Y70.164 E0.03210
G1 F1800 X128.757 Y70.044 E0.01576
G1 F1800 X128.432 Y69.856 E0.03006
G1 F1800 X128.246 Y69.780 E0.01609
G1 F1800 X127.886 Y69.682 E0.02987
G1 F1800 X127.508 Y69.649 E0.03038
G1 F1800 X116.691 Y69.649 E0.86594
G1 F1800 X116.251 Y69.625 E0.03528
G1 F1800 X115.895 Y69.504 E0.03010
G1 F1800 X115.589 Y69.295 E0.02966
G1 F1800 X115.423 Y69.112 E0.01978
G1 F1800 X115.292 Y68.901 E0.01988
G1 F1800 X115.203 Y68.668 E0.01997
G1 F1800 X115.155 Y68.416 E0.02054
G1 F1800 X115.150 Y68.304 E0.00897
G1 F1800 X115.174 Y68.048 E0.02058
G1 F1800 X115.239 Y67.816 E0.01929
G1 F1800 X115.352 Y67.590 E0.02023
G1 F1800 X115.500 Y67.395 E0.01960
G1 F1800 X115.683 Y67.226 E0.01994
G1 F1800 X115.894 Y67.094 E0.01992
G1 F1800 X116.128 Y67.004 E0.02007
G1 F1800 X116.377 Y66.957 E0.02029
G1 F1800 X127.632 Y66.944 E0.90101
G1 F1800 X128.073 Y66.874 E0.03575
G1 F1800 X128.596 Y66.659 E0.04527
G1 F1800 X128.912 Y66.437 E0.03092
G1 F1800 X129.059 Y66.302 E0.01598
G1 F1800 X129.274 Y66.050 E0.02652
G1 F1800 X129.492 Y65.684 E0.03410
G1 F1800 X129.570 Y65.495 E0.01637
G1 F1800 X129.691 Y64.949 E0.04477
G1 F1800 X129.700 Y64.745 E0.01635
G1 F1800 X129.667 Y64.370 E0.03014
G1 F1800 X129.621 Y64.169 E0.01651
G1 F1800 X129.409 Y63.651 E0.04481
G1 F1800 X129.197 Y63.349 E0.02954
G1 F1800 X128.910 Y63.061 E0.03255
G1 F1800 X128.596 Y62.841 E0.03069
G1 F1800 X128.252 Y62.680 E0.03041
G1 F1800 X127.886 Y62.582 E0.03033
G1 F1800 X127.526 Y62.550 E0.02893
G1 F1800 X117.450 Y62.550 E0.80662
G1 F1800 X117.444 Y52.364 E0.81543
G1 F1800 X117.374 Y51.929 E0.03527
G1 F1800 X117.238 Y51.557 E0.03171
G1 F1800 X117.055 Y51.242 E0.02916
G1 F1800 X116.930 Y51.081 E0.01632
G1 F1800 X116.668 Y50.819 E0.02966
G1 F1800 X116.507 Y50.694 E0.01632
G1 F1800 X116.182 Y50.506 E0.03006
G1 F1800 X115.994 Y50.429 E0.01626
G1 F1800 X115.491 Y50.312 E0.04134
G1 F1800 X115.248 Y50.300 E0.01948
G1 F1800 X114.872 Y50.332 E0.03021
G1 F1800 X114.669 Y50.378 E0.01666
G1 F1800 X114.158 Y50.588 E0.04423
G1 F1800 X113.959 Y50.718 E0.01903
G1 F1800 X113.695 Y50.942 E0.02772
G1 F1800 X113.559 Y51.091 E0.01615
G1 F1800 X113.258 Y51.563 E0.04481
G1 F1800 X113.179 Y51.754 E0.01655
G1 F1800 X113.083 Y52.110 E0.02952
G1 F1800 X113.058 Y52.312 E0.01629
G1 F1800 X113.050 Y63.491 E0.89492
G1 F1800 X113.026 Y63.743 E0.02026
G1 F1800 X112.904 Y64.104 E0.03051
G1 F1800 X112.696 Y64.409 E0.02955
G1 F1800 X112.512 Y64.576 E0.01989
G1 F1800 X112.303 Y64.706 E0.01970
G1 F1800 X112.071 Y64.795 E0.01989
G1 F1800 X111.816 Y64.844 E0.02079
G1 F1800 X111.702 Y64.849 E0.00913
G1 F1800 X111.454 Y64.826 E0.01994
G1 F1800 X111.181 Y64.744 E0.02282
G1 F1800 X110.882 Y64.573 E0.02757
G1 F1800 X110.701 Y64.408 E0.01961
G1 F1800 X110.625 Y64.316 E0.00955
G1 F1800 X110.442 Y63.986 E0.03021
G1 F1800 X110.357 Y63.623 E0.02985
G1 F1800 X110.344 Y52.364 E0.90133
G1 F1800 X110.274 Y51.925 E0.03559
G1 F1800 X110.058 Y51.401 E0.04537
G1 F1800 X109.835 Y51.086 E0.03090
G1 F1800 X109.568 Y50.819 E0.03023
G1 F1800 X109.407 Y50.694 E0.01632
G1 F1800 X109.082 Y50.506 E0.03006
G1 F1800 X108.895 Y50.429 E0.01619
G1 F1800 X108.348 Y50.308 E0.04485
G1 F1800 X108.146 Y50.300 E0.01618
G1 F1800 X107.772 Y50.332 E0.03005
G1 F1800 X107.569 Y50.378 E0.01666
G1 F1800 X107.059 Y50.588 E0.04415
G1 F1800 X106.883 Y50.700 E0.01670
G1 F1800 X106.595 Y50.941 E0.03006
G1 F1800 X106.348 Y51.237 E0.03086
G1 F1800 X106.156 Y51.566 E0.03049
G1 F1800 X106.079 Y51.754 E0.01626
G1 F1800 X105.983 Y52.110 E0.02952
G1 F1800 X105.958 Y52.312 E0.01629
G1 F1800 X105.950 Y63.491 E0.89492
G1 F1800 X105.926 Y63.743 E0.02026
G1 F1800 X105.804 Y64.104 E0.03051
G1 F1800 X105.596 Y64.409 E0.02955
G1 F1800 X105.412 Y64.576 E0.01989
G1 F1800 X105.203 Y64.706 E0.01970
G1 F1800 X104.971 Y64.795 E0.01989
G1 F1800 X104.716 Y64.844 E0.02079
G1 F1800 X104.602 Y64.849 E0.00913
G1 F1800 X104.349 Y64.826 E0.02034
G1 F1800 X104.116 Y64.759 E0.01941
G1 F1800 X103.888 Y64.645 E0.02041
G1 F1800 X103.681 Y64.488 E0.02080
G1 F1800 X103.524 Y64.314 E0.01876
G1 F1800 X103.342 Y63.986 E0.03003
G1 F1800 X103.257 Y63.623 E0.02985
G1 F1800 X103.244 Y52.364 E0.90133
G1 F1800 X103.174 Y51.925 E0.03559
G1 F1800 X102.958 Y51.401 E0.04537
G1 F1800 X102.735 Y51.086 E0.03090
G1 F1800 X102.468 Y50.819 E0.03023
G1 F1800 X102.307 Y50.694 E0.01632
G1 F1800 X102.028 Y50.529 E0.02595
G1 F1800 X101.797 Y50.430 E0.02012
G1 F1800 X101.248 Y50.308 E0.04502
G1 F1800 X101.046 Y50.300 E0.01618
G1 F1800 X100.672 Y50.332 E0.03005
G1 F1800 X100.466 Y50.379 E0.01691
G1 F1800 X99.959 Y50.588 E0.04390
G1 F1800 X99.783 Y50.700 E0.01670
G1 F1800 X99.495 Y50.941 E0.03006
G1 F1800 X99.359 Y51.091 E0.01621
G1 F1800 X99.058 Y51.563 E0.04481
G1 F1800 X98.979 Y51.754 E0.01655
G1 F1800 X98.883 Y52.110 E0.02952
G1 F1800 X98.858 Y52.312 E0.01629
G1 F1800 X98.850 Y63.491 E0.89492
G1 F1800 X98.826 Y63.743 E0.02026
G1 F1800 X98.704 Y64.104 E0.03051
G1 F1800 X98.496 Y64.409 E0.02955
G1 F1800 X98.312 Y64.576 E0.01989
G1 F1800 X98.103 Y64.706 E0.01970
G1 F1800 X97.871 Y64.795 E0.01989
G1 F1800 X97.616 Y64.844 E0.02079
G1 F1800 X97.508 Y64.849 E0.00866
G1 F1800 X97.249 Y64.826 E0.02082
G1 F1800 X97.016 Y64.759 E0.01941
G1 F1800 X96.787 Y64.645 E0.02048
G1 F1800 X96.588 Y64.494 E0.02000
G1 F1800 X96.497 Y64.405 E0.01019
G1 F1800 X96.427 Y64.320 E0.00882
G1 F1800 X96.242 Y63.986 E0.03057
G1 F1800 X96.157 Y63.623 E0.02985
G1 F1800 X96.144 Y52.364 E0.90133
G1 F1800 X96.074 Y51.925 E0.03559
G1 F1800 X95.858 Y51.401 E0.04537
G1 F1800 X95.635 Y51.086 E0.03090
G1 F1800 X95.368 Y50.819 E0.03023
G1 F1800 X95.207 Y50.694 E0.01632
G1 F1800 X94.882 Y50.506 E0.03006
G1 F1800 X94.695 Y50.429 E0.01619
G1 F1800 X94.148 Y50.308 E0.04485
G1 F1800 X93.945 Y50.300 E0.01626
G1 F1800 X93.572 Y50.332 E0.02997
G1 F1800 X93.374 Y50.376 E0.01624
G1 F1800 X92.878 Y50.577 E0.04284
G1 F1800 X92.684 Y50.700 E0.01839
G1 F1800 X92.395 Y50.941 E0.03012
G1 F1800 X92.259 Y51.091 E0.01621
G1 F1800 X91.958 Y51.563 E0.04481
G1 F1800 X91.879 Y51.754 E0.01655
G1 F1800 X91.782 Y52.114 E0.02985
G1 F1800 X91.749 Y52.492 E0.03038
G1 F1800 X91.749 Y63.492 E0.88059
G1 F1800 X91.726 Y63.743 E0.02018
G1 F1800 X91.604 Y64.104 E0.03051
G1 F1800 X91.396 Y64.409 E0.02955
G1 F1800 X91.212 Y64.576 E0.01989
G1 F1800 X91.003 Y64.706 E0.01970
G1 F1800 X90.771 Y64.795 E0.01989
G1 F1800 X90.516 Y64.844 E0.02079
G1 F1800 X90.405 Y64.848 E0.00889
G1 F1800 X90.118 Y64.819 E0.02309
G1 F1800 X89.915 Y64.760 E0.01692
G1 F1800 X89.686 Y64.644 E0.02055
G1 F1800 X89.488 Y64.494 E0.01989
G1 F1800 X89.397 Y64.405 E0.01019
G1 F1800 X89.327 Y64.320 E0.00882
G1 F1800 X89.142 Y63.986 E0.03057
G1 F1800 X89.057 Y63.623 E0.02985
G1 F1800 X89.044 Y52.364 E0.90133
G1 F1800 X88.974 Y51.925 E0.03559
G1 F1800 X88.761 Y51.410 E0.04461
G1 F1800 X88.658 Y51.246 E0.01550
G1 F1800 X88.346 Y50.889 E0.03796
G1 F1800 X88.108 Y50.695 E0.02458
G1 F1800 X87.782 Y50.506 E0.03017
G1 F1800 X87.595 Y50.429 E0.01619
G1 F1800 X87.045 Y50.308 E0.04508
G1 F1800 X86.846 Y50.300 E0.01594
G1 F1800 X86.472 Y50.332 E0.03005
G1 F1800 X86.270 Y50.378 E0.01658
G1 F1800 X85.750 Y50.591 E0.04498
G1 F1800 X85.319 Y50.918 E0.04331
G1 F1800 X85.046 Y51.238 E0.03367
G1 F1800 X84.856 Y51.567 E0.03041
G1 F1800 X84.779 Y51.754 E0.01619
G1 F1800 X84.682 Y52.114 E0.02985
G1 F1800 X84.649 Y52.492 E0.03038
G1 F1800 X84.649 Y63.492 E0.88059
G1 F1800 X84.626 Y63.743 E0.02018
G1 F1800 X84.504 Y64.104 E0.03051
G1 F1800 X84.296 Y64.409 E0.02955
G1 F1800 X84.112 Y64.576 E0.01989
G1 F1800 X83.903 Y64.706 E0.01970
G1 F1800 X83.671 Y64.795 E0.01989
G1 F1800 X83.416 Y64.844 E0.02079
G1 F1800 X83.303 Y64.849 E0.00905
G1 F1800 X83.049 Y64.826 E0.02042
G1 F1800 X82.815 Y64.759 E0.01949
G1 F1800 X82.593 Y64.649 E0.01983
G1 F1800 X82.297 Y64.405 E0.03071
G1 F1800 X82.227 Y64.320 E0.00882
G1 F1800 X82.042 Y63.986 E0.03057
G1 F1800 X81.957 Y63.623 E0.02985
G1 F1800 X81.944 Y52.364 E0.90133
G1 F1800 X81.874 Y51.925 E0.03559
G1 F1800 X81.658 Y51.401 E0.04537
G1 F1800 X81.435 Y51.086 E0.03090
G1 F1800 X81.165 Y50.815 E0.03062
G1 F1800 X80.848 Y50.592 E0.03103
G1 F1800 X80.499 Y50.430 E0.03080
G1 F1800 X79.948 Y50.308 E0.04518
G1 F1800 X79.750 Y50.300 E0.01586
G1 F1800 X79.530 Y50.310 E0.01763
G1 F1800 X79.173 Y50.376 E0.02906
G1 F1800 X78.659 Y50.588 E0.04451
G1 F1800 X78.483 Y50.700 E0.01670
G1 F1800 X78.195 Y50.941 E0.03006
G1 F1800 X78.060 Y51.090 E0.01610
G1 F1800 X77.779 Y51.520 E0.04112
G1 F1800 X77.680 Y51.751 E0.02012
G1 F1800 X77.583 Y52.111 E0.02985
G1 F1800 X77.558 Y52.313 E0.01629
G1 F1800 X77.550 Y69.800 E1.39990
G1 F1800 X77.008 Y69.800 E0.04339
G1 F1800 X76.677 Y69.771 E0.02660
G1 F1800 X76.554 Y69.743 E0.01010
G1 F1800 X76.090 Y69.552 E0.04017
G1 F1800 X75.969 Y69.475 E0.01148
G1 F1800 X75.729 Y69.274 E0.02506
G1 F1800 X75.618 Y69.153 E0.01314
G1 F1800 X75.440 Y68.898 E0.02490
G1 F1800 X75.308 Y68.615 E0.02500
G1 F1800 X75.226 Y68.310 E0.02528
G1 F1800 X75.208 Y68.168 E0.01146
G1 F1800 X75.200 Y48.009 E1.61380
G1 F1800 X75.249 Y47.487 B0.6
G1 F1800 X75.413 Y46.931 B0.3
G1 F1800 X75.654 Y46.474 B0
G1 F12000 X76.531 Y46.974 
G1 F12000 X79.550 Y51.723 
;TYPE:WALL-INNER

T0
M109
G1 B1
G1 F1800 X79.687 Y51.660 D0.01207
G1 F1800 X79.939 Y51.607 D0.02061
G1 F1800 X80.109 Y51.613 D0.01362
G1 F1800 X80.316 Y51.660 D0.01699
G1 F1800 X80.448 Y51.723 D0.01171
G1 F1800 X80.561 Y51.799 D0.01090
G1 F1800 X80.658 Y51.889 D0.01059
G1 F1800 X80.745 Y51.997 D0.01110
G1 F1800 X80.795 Y52.084 D0.00803
G1 F1800 X80.882 Y52.365 D0.02355
G1 F1800 X80.912 Y63.744 D0.91094
G1 F1800 X80.992 Y64.191 D0.03635
G1 F1800 X81.113 Y64.533 D0.02904
G1 F1800 X81.274 Y64.847 D0.02825
G1 F1800 X81.481 Y65.141 D0.02878
G1 F1800 X81.736 Y65.412 D0.02979
G1 F1800 X82.194 Y65.752 D0.04566
G1 F1800 X82.623 Y65.950 D0.03782
G1 F1800 X82.969 Y66.046 D0.02874
G1 F1800 X83.313 Y66.094 D0.02781
G1 F1800 X83.504 Y66.100 D0.01530
G1 F1800 X83.687 Y66.093 D0.01466
G1 F1800 X84.030 Y66.046 D0.02772
G1 F1800 X84.377 Y65.950 D0.02882
G1 F1800 X84.797 Y65.754 D0.03710
G1 F1800 X85.004 Y65.620 D0.01974
G1 F1800 X85.276 Y65.400 D0.02801
G1 F1800 X85.519 Y65.140 D0.02849
G1 F1800 X85.725 Y64.847 D0.02867
G1 F1800 X85.886 Y64.533 D0.02825
G1 F1800 X86.004 Y64.198 D0.02843
G1 F1800 X86.080 Y63.834 D0.02977
G1 F1800 X86.111 Y52.386 D0.91646
G1 F1800 X86.141 Y52.239 D0.01201
G1 F1800 X86.254 Y51.998 D0.02131
G1 F1800 X86.339 Y51.891 D0.01094
G1 F1800 X86.438 Y51.799 D0.01082
G1 F1800 X86.552 Y51.722 D0.01101
G1 F1800 X86.793 Y51.625 D0.02080
G1 F1800 X86.919 Y51.606 D0.01020
G1 F1800 X87.107 Y51.613 D0.01506
G1 F1800 X87.342 Y51.670 D0.01936
G1 F1800 X87.441 Y51.718 D0.00881
G1 F1800 X87.561 Y51.799 D0.01159
G1 F1800 X87.658 Y51.889 D0.01059
G1 F1800 X87.745 Y51.997 D0.01110
G1 F1800 X87.795 Y52.084 D0.00803
G1 F1800 X87.882 Y52.365 D0.02355
G1 F1800 X87.914 Y63.782 D0.91398
G1 F1800 X87.993 Y64.194 D0.03358
G1 F1800 X88.113 Y64.533 D0.02879
G1 F1800 X88.274 Y64.847 D0.02825
G1 F1800 X88.481 Y65.141 D0.02878
G1 F1800 X88.739 Y65.416 D0.03019
G1 F1800 X89.256 Y65.785 D0.05085
G1 F1800 X89.626 Y65.951 D0.03246
G1 F1800 X89.969 Y66.046 D0.02849
G1 F1800 X90.315 Y66.094 D0.02796
G1 F1800 X90.511 Y66.099 D0.01570
G1 F1800 X90.685 Y66.094 D0.01394
G1 F1800 X91.030 Y66.046 D0.02788
G1 F1800 X91.377 Y65.950 D0.02882
G1 F1800 X91.805 Y65.750 D0.03782
G1 F1800 X92.005 Y65.620 D0.01910
G1 F1800 X92.276 Y65.400 D0.02794
G1 F1800 X92.519 Y65.140 D0.02849
G1 F1800 X92.725 Y64.847 D0.02867
G1 F1800 X92.886 Y64.533 D0.02825
G1 F1800 X93.004 Y64.198 D0.02843
G1 F1800 X93.080 Y63.834 D0.02977
G1 F1800 X93.110 Y52.390 D0.91614
G1 F1800 X93.142 Y52.238 D0.01243
G1 F1800 X93.254 Y51.998 D0.02120
G1 F1800 X93.440 Y51.797 D0.02192
G1 F1800 X93.548 Y51.723 D0.01048
G1 F1800 X93.793 Y51.625 D0.02112
G1 F1800 X93.919 Y51.606 D0.01020
G1 F1800 X94.107 Y51.613 D0.01506
G1 F1800 X94.342 Y51.670 D0.01936
G1 F1800 X94.441 Y51.718 D0.00881
G1 F1800 X94.561 Y51.799 D0.01159
G1 F1800 X94.658 Y51.889 D0.01059
G1 F1800 X94.745 Y51.997 D0.01110
G1 F1800 X94.795 Y52.084 D0.00803
G1 F1800 X94.882 Y52.365 D0.02355
G1 F1800 X94.913 Y63.787 D0.91438
G1 F1800 X94.994 Y64.196 D0.03338
G1 F1800 X95.113 Y64.533 D0.02861
G1 F1800 X95.274 Y64.847 D0.02825
G1 F1800 X95.480 Y65.140 D0.02867
G1 F1800 X95.723 Y65.400 D0.02849
G1 F1800 X95.740 Y65.414 D0.00176
G1 F1800 X95.740 Y65.467 D0.00424
G1 F1800 X96.301 Y65.809 D0.05260
G1 F1800 X96.629 Y65.952 D0.02864
G1 F1800 X96.969 Y66.046 D0.02824
G1 F1800 X97.316 Y66.094 D0.02804
G1 F1800 X97.519 Y66.099 D0.01626
G1 F1800 X97.686 Y66.094 D0.01337
G1 F1800 X98.030 Y66.046 D0.02781
G1 F1800 X98.378 Y65.950 D0.02890
G1 F1800 X98.814 Y65.745 D0.03857
G1 F1800 X99.276 Y65.400 D0.04616
G1 F1800 X99.519 Y65.140 D0.02849
G1 F1800 X99.725 Y64.847 D0.02867
G1 F1800 X99.886 Y64.533 D0.02825
G1 F1800 X100.004 Y64.198 D0.02843
G1 F1800 X100.080 Y63.835 D0.02969
G1 F1800 X100.117 Y52.339 D0.92030
G1 F1800 X100.138 Y52.246 D0.00763
G1 F1800 X100.254 Y51.998 D0.02192
G1 F1800 X100.440 Y51.797 D0.02192
G1 F1800 X100.547 Y51.724 D0.01037
G1 F1800 X100.704 Y51.653 D0.01379
G1 F1800 X100.935 Y51.607 D0.01886
G1 F1800 X101.107 Y51.613 D0.01378
G1 F1800 X101.342 Y51.670 D0.01936
G1 F1800 X101.441 Y51.718 D0.00881
G1 F1800 X101.561 Y51.799 D0.01159
G1 F1800 X101.658 Y51.889 D0.01059
G1 F1800 X101.745 Y51.997 D0.01110
G1 F1800 X101.795 Y52.084 D0.00803
G1 F1800 X101.882 Y52.365 D0.02355
G1 F1800 X101.912 Y63.707 D0.90797
G1 F1800 X101.924 Y63.858 D0.01213
G1 F1800 X101.995 Y64.199 D0.02788
G1 F1800 X102.113 Y64.533 D0.02836
G1 F1800 X102.274 Y64.847 D0.02825
G1 F1800 X102.480 Y65.140 D0.02867
G1 F1800 X102.723 Y65.400 D0.02849
G1 F1800 X102.740 Y65.414 D0.00176
G1 F1800 X102.740 Y65.467 D0.00424
G1 F1800 X103.301 Y65.809 D0.05260
G1 F1800 X103.629 Y65.952 D0.02864
G1 F1800 X103.969 Y66.046 D0.02824
G1 F1800 X104.316 Y66.094 D0.02804
G1 F1800 X104.526 Y66.099 D0.01682
G1 F1800 X104.686 Y66.094 D0.01281
G1 F1800 X105.030 Y66.046 D0.02781
G1 F1800 X105.376 Y65.949 D0.02877
G1 F1800 X105.823 Y65.739 D0.03954
G1 F1800 X106.005 Y65.619 D0.01745
G1 F1800 X106.276 Y65.400 D0.02789
G1 F1800 X106.519 Y65.140 D0.02849
G1 F1800 X106.725 Y64.847 D0.02867
G1 F1800 X106.886 Y64.533 D0.02825
G1 F1800 X107.004 Y64.198 D0.02843
G1 F1800 X107.080 Y63.835 D0.02969
G1 F1800 X107.116 Y52.344 D0.91990
G1 F1800 X107.139 Y52.245 D0.00814
G1 F1800 X107.254 Y51.998 D0.02181
G1 F1800 X107.339 Y51.891 D0.01094
G1 F1800 X107.438 Y51.799 D0.01082
G1 F1800 X107.555 Y51.720 D0.01130
G1 F1800 X107.673 Y51.663 D0.01049
G1 F1800 X107.800 Y51.624 D0.01064
G1 F1800 X107.919 Y51.606 D0.00963
G1 F1800 X108.208 Y51.625 D0.02319
G1 F1800 X108.441 Y51.718 D0.02008
G1 F1800 X108.561 Y51.799 D0.01159
G1 F1800 X108.658 Y51.889 D0.01059
G1 F1800 X108.745 Y51.997 D0.01110
G1 F1800 X108.795 Y52.084 D0.00803
G1 F1800 X108.882 Y52.365 D0.02355
G1 F1800 X108.912 Y63.734 D0.91013
G1 F1800 X108.991 Y64.189 D0.03697
G1 F1800 X109.113 Y64.533 D0.02922
G1 F1800 X109.274 Y64.847 D0.02825
G1 F1800 X109.481 Y65.141 D0.02878
G1 F1800 X109.740 Y65.416 D0.03024
G1 F1800 X110.264 Y65.790 D0.05154
G1 F1800 X110.627 Y65.951 D0.03179
G1 F1800 X110.969 Y66.046 D0.02842
G1 F1800 X111.316 Y66.094 D0.02804
G1 F1800 X111.534 Y66.099 D0.01746
G1 F1800 X111.687 Y66.093 D0.01226
G1 F1800 X112.030 Y66.046 D0.02772
G1 F1800 X112.376 Y65.949 D0.02877
G1 F1800 X112.831 Y65.734 D0.04029
G1 F1800 X113.006 Y65.619 D0.01676
G1 F1800 X113.276 Y65.400 D0.02783
G1 F1800 X113.519 Y65.140 D0.02849
G1 F1800 X113.725 Y64.847 D0.02867
G1 F1800 X113.886 Y64.533 D0.02825
G1 F1800 X114.004 Y64.198 D0.02843
G1 F1800 X114.080 Y63.835 D0.02969
G1 F1800 X114.116 Y52.344 D0.91990
G1 F1800 X114.139 Y52.245 D0.00814
G1 F1800 X114.254 Y51.998 D0.02181
G1 F1800 X114.339 Y51.891 D0.01094
G1 F1800 X114.438 Y51.799 D0.01082
G1 F1800 X114.555 Y51.720 D0.01130
G1 F1800 X114.673 Y51.663 D0.01049
G1 F1800 X114.800 Y51.624 D0.01064
G1 F1800 X114.919 Y51.606 D0.00963
G1 F1800 X115.204 Y51.625 D0.02287
G1 F1800 X115.320 Y51.661 D0.00972
G1 F1800 X115.444 Y51.720 D0.01099
G1 F1800 X115.561 Y51.799 D0.01130
G1 F1800 X115.658 Y51.889 D0.01059
G1 F1800 X115.745 Y51.997 D0.01110
G1 F1800 X115.795 Y52.084 D0.00803
G1 F1800 X115.882 Y52.365 D0.02355
G1 F1800 X115.901 Y64.099 D0.93935
G1 F1800 X127.656 Y64.116 D0.94103
G1 F1800 X127.754 Y64.139 D0.00806
G1 F1800 X128.001 Y64.254 D0.02181
G1 F1800 X128.108 Y64.339 D0.01094
G1 F1800 X128.204 Y64.442 D0.01127
G1 F1800 X128.277 Y64.551 D0.01050
G1 F1800 X128.335 Y64.668 D0.01045
G1 F1800 X128.375 Y64.801 D0.01112
G1 F1800 X128.393 Y64.919 D0.00956
G1 F1800 X128.374 Y65.207 D0.02311
G1 F1800 X128.338 Y65.325 D0.00988
G1 F1800 X128.281 Y65.441 D0.01035
G1 F1800 X128.200 Y65.561 D0.01159
G1 F1800 X128.110 Y65.658 D0.01059
G1 F1800 X128.002 Y65.745 D0.01110
G1 F1800 X127.914 Y65.795 D0.00810
G1 F1800 X127.633 Y65.882 D0.02355
G1 F1800 X116.294 Y65.912 D0.90773
G1 F1800 X116.142 Y65.924 D0.01221
G1 F1800 X115.778 Y66.000 D0.02977
G1 F1800 X115.192 Y66.248 D0.05094
G1 F1800 X114.287 Y66.875 D0.08814
G1 F1800 X114.388 Y66.976 D0.01143
G1 F1800 X114.189 Y67.303 D0.03064
G1 F1800 X114.045 Y67.634 D0.02890
G1 F1800 X113.942 Y68.028 D0.03260
G1 F1800 X113.904 Y68.329 D0.02429
G1 F1800 X113.904 Y68.678 D0.02794
G1 F1800 X113.953 Y69.030 D0.02845
G1 F1800 X114.047 Y69.369 D0.02816
G1 F1800 X114.189 Y69.696 D0.02854
G1 F1800 X114.532 Y70.259 D0.05278
G1 F1800 X114.585 Y70.259 D0.00424
G1 F1800 X114.863 Y70.523 D0.03069
G1 F1800 X115.234 Y70.772 D0.03577
G1 F1800 X115.470 Y70.887 D0.02102
G1 F1800 X115.797 Y71.003 D0.02778
G1 F1800 X116.164 Y71.080 D0.03002
G1 F1800 X127.655 Y71.116 D0.91990
G1 F1800 X127.754 Y71.139 D0.00814
G1 F1800 X128.001 Y71.254 D0.02181
G1 F1800 X128.108 Y71.339 D0.01094
G1 F1800 X128.204 Y71.442 D0.01127
G1 F1800 X128.277 Y71.551 D0.01050
G1 F1800 X128.335 Y71.668 D0.01045
G1 F1800 X128.375 Y71.801 D0.01112
G1 F1800 X128.393 Y71.919 D0.00956
G1 F1800 X128.374 Y72.207 D0.02311
G1 F1800 X128.338 Y72.325 D0.00988
G1 F1800 X128.281 Y72.441 D0.01035
G1 F1800 X128.200 Y72.561 D0.01159
G1 F1800 X128.110 Y72.658 D0.01059
G1 F1800 X128.002 Y72.745 D0.01110
G1 F1800 X127.914 Y72.795 D0.00810
G1 F1800 X127.633 Y72.882 D0.02355
G1 F1800 X116.294 Y72.912 D0.90773
G1 F1800 X116.142 Y72.924 D0.01221
G1 F1800 X115.778 Y73.000 D0.02977
G1 F1800 X115.192 Y73.248 D0.05094
G1 F1800 X114.287 Y73.875 D0.08814
G1 F1800 X114.388 Y73.976 D0.01143
G1 F1800 X114.189 Y74.303 D0.03064
G1 F1800 X114.045 Y74.634 D0.02890
G1 F1800 X113.942 Y75.028 D0.03260
G1 F1800 X113.904 Y75.329 D0.02429
G1 F1800 X113.904 Y75.678 D0.02794
G1 F1800 X113.953 Y76.030 D0.02845
G1 F1800 X114.047 Y76.369 D0.02816
G1 F1800 X114.189 Y76.696 D0.02854
G1 F1800 X114.532 Y77.259 D0.05278
G1 F1800 X114.585 Y77.259 D0.00424
G1 F1800 X114.863 Y77.523 D0.03069
G1 F1800 X115.234 Y77.772 D0.03577
G1 F1800 X115.470 Y77.887 D0.02102
G1 F1800 X115.797 Y78.003 D0.02778
G1 F1800 X116.164 Y78.080 D0.03002
G1 F1800 X127.655 Y78.116 D0.91990
G1 F1800 X127.754 Y78.139 D0.00814
G1 F1800 X128.001 Y78.254 D0.02181
G1 F1800 X128.108 Y78.339 D0.01094
G1 F1800 X128.204 Y78.442 D0.01127
G1 F1800 X128.277 Y78.551 D0.01050
G1 F1800 X128.335 Y78.668 D0.01045
G1 F1800 X128.375 Y78.801 D0.01112
G1 F1800 X128.393 Y78.919 D0.00956
G1 F1800 X128.374 Y79.207 D0.02311
G1 F1800 X128.338 Y79.325 D0.00988
G1 F1800 X128.281 Y79.441 D0.01035
G1 F1800 X128.200 Y79.561 D0.01159
G1 F1800 X128.110 Y79.658 D0.01059
G1 F1800 X128.002 Y79.745 D0.01110
G1 F1800 X127.914 Y79.795 D0.00810
G1 F1800 X127.633 Y79.882 D0.02355
G1 F1800 X116.294 Y79.912 D0.90773
G1 F1800 X116.142 Y79.924 D0.01221
G1 F1800 X115.778 Y80.000 D0.02977
G1 F1800 X115.192 Y80.248 D0.05094
G1 F1800 X114.287 Y80.875 D0.08814
G1 F1800 X114.388 Y80.976 D0.01143
G1 F1800 X114.189 Y81.303 D0.03064
G1 F1800 X114.045 Y81.634 D0.02890
G1 F1800 X113.942 Y82.028 D0.03260
G1 F1800 X113.904 Y82.329 D0.02429
G1 F1800 X113.904 Y82.678 D0.02794
G1 F1800 X113.953 Y83.030 D0.02845
G1 F1800 X114.047 Y83.369 D0.02816
G1 F1800 X114.189 Y83.696 D0.02854
G1 F1800 X114.532 Y84.259 D0.05278
G1 F1800 X114.585 Y84.259 D0.00424
G1 F1800 X114.863 Y84.523 D0.03069
G1 F1800 X115.234 Y84.772 D0.03577
G1 F1800 X115.470 Y84.887 D0.02102
G1 F1800 X115.797 Y85.003 D0.02778
G1 F1800 X116.164 Y85.080 D0.03002
G1 F1800 X127.655 Y85.116 D0.91990
G1 F1800 X127.754 Y85.139 D0.00814
G1 F1800 X128.001 Y85.254 D0.02181
G1 F1800 X128.108 Y85.339 D0.01094
G1 F1800 X128.204 Y85.442 D0.01127
G1 F1800 X128.277 Y85.551 D0.01050
G1 F1800 X128.335 Y85.668 D0.01045
G1 F1800 X128.375 Y85.801 D0.01112
G1 F1800 X128.393 Y85.919 D0.00956
G1 F1800 X128.374 Y86.207 D0.02311
G1 F1800 X128.338 Y86.325 D0.00988
G1 F1800 X128.281 Y86.441 D0.01035
G1 F1800 X128.200 Y86.561 D0.01159
G1 F1800 X128.110 Y86.658 D0.01059
G1 F1800 X128.002 Y86.745 D0.01110
G1 F1800 X127.914 Y86.795 D0.00810
G1 F1800 X127.633 Y86.882 D0.02355
G1 F1800 X116.294 Y86.912 D0.90773
G1 F1800 X116.142 Y86.924 D0.01221
G1 F1800 X115.778 Y87.000 D0.02977
G1 F1800 X115.192 Y87.248 D0.05094
G1 F1800 X114.287 Y87.875 D0.08814
G1 F1800 X114.388 Y87.976 D0.01143
G1 F1800 X114.189 Y88.303 D0.03064
G1 F1800 X114.045 Y88.634 D0.02890
G1 F1800 X113.942 Y89.028 D0.03260
G1 F1800 X113.904 Y89.329 D0.02429
G1 F1800 X113.904 Y89.678 D0.02794
G1 F1800 X113.953 Y90.030 D0.02845
G1 F1800 X114.047 Y90.369 D0.02816
G1 F1800 X114.189 Y90.696 D0.02854
G1 F1800 X114.532 Y91.259 D0.05278
G1 F1800 X114.585 Y91.259 D0.00424
G1 F1800 X114.863 Y91.523 D0.03069
G1 F1800 X115.234 Y91.772 D0.03577
G1 F1800 X115.470 Y91.887 D0.02102
G1 F1800 X115.797 Y92.003 D0.02778
G1 F1800 X116.164 Y92.080 D0.03002
G1 F1800 X127.655 Y92.116 D0.91990
G1 F1800 X127.754 Y92.139 D0.00814
G1 F1800 X128.001 Y92.254 D0.02181
G1 F1800 X128.108 Y92.339 D0.01094
G1 F1800 X128.204 Y92.442 D0.01127
G1 F1800 X128.277 Y92.551 D0.01050
G1 F1800 X128.335 Y92.668 D0.01045
G1 F1800 X128.375 Y92.801 D0.01112
G1 F1800 X128.393 Y92.919 D0.00956
G1 F1800 X128.374 Y93.207 D0.02311
G1 F1800 X128.338 Y93.325 D0.00988
G1 F1800 X128.281 Y93.441 D0.01035
G1 F1800 X128.200 Y93.561 D0.01159
G1 F1800 X128.110 Y93.658 D0.01059
G1 F1800 X128.002 Y93.745 D0.01110
G1 F1800 X127.914 Y93.795 D0.00810
G1 F1800 X127.633 Y93.882 D0.02355
G1 F1800 X116.294 Y93.912 D0.90773
G1 F1800 X116.142 Y93.924 D0.01221
G1 F1800 X115.778 Y94.000 D0.02977
G1 F1800 X115.192 Y94.248 D0.05094
G1 F1800 X114.287 Y94.875 D0.08814
G1 F1800 X114.388 Y94.976 D0.01143
G1 F1800 X114.189 Y95.303 D0.03064
G1 F1800 X114.045 Y95.634 D0.02890
G1 F1800 X113.942 Y96.028 D0.03260
G1 F1800 X113.904 Y96.329 D0.02429
G1 F1800 X113.904 Y96.678 D0.02794
G1 F1800 X113.953 Y97.030 D0.02845
G1 F1800 X114.047 Y97.369 D0.02816
G1 F1800 X114.189 Y97.696 D0.02854
G1 F1800 X114.532 Y98.259 D0.05278
G1 F1800 X114.585 Y98.259 D0.00424
G1 F1800 X114.863 Y98.523 D0.03069
G1 F1800 X115.234 Y98.772 D0.03577
G1 F1800 X115.470 Y98.887 D0.02102
G1 F1800 X115.797 Y99.003 D0.02778
G1 F1800 X116.164 Y99.080 D0.03002
G1 F1800 X127.655 Y99.116 D0.91990
G1 F1800 X127.754 Y99.139 D0.00814
G1 F1800 X128.001 Y99.254 D0.02181
G1 F1800 X128.108 Y99.339 D0.01094
G1 F1800 X128.204 Y99.442 D0.01127
G1 F1800 X128.277 Y99.551 D0.01050
G1 F1800 X128.335 Y99.668 D0.01045
G1 F1800 X128.375 Y99.801 D0.01112
G1 F1800 X128.393 Y99.919 D0.00956
G1 F1800 X128.374 Y100.207 D0.02311
G1 F1800 X128.338 Y100.325 D0.00988
G1 F1800 X128.281 Y100.441 D0.01035
G1 F1800 X128.200 Y100.561 D0.01159
G1 F1800 X128.110 Y100.658 D0.01059
G1 F1800 X128.002 Y100.745 D0.01110
G1 F1800 X127.914 Y100.795 D0.00810
G1 F1800 X127.634 Y100.882 D0.02347
G1 F1800 X110.600 Y100.899 D1.36364
G1 F1800 X110.600 Y84.047 D1.34907
G1 F1800 X113.073 Y82.896 D0.21837
G1 F1800 X113.073 Y82.105 D0.06332
G1 F1800 X110.600 Y80.953 D0.21840
G1 F1800 X110.600 Y69.400 D0.92486
G1 F1800 X99.047 Y69.400 D0.92486
G1 F1800 X97.896 Y66.927 D0.21837
G1 F1800 X97.105 Y66.927 D0.06332
G1 F1800 X95.953 Y69.400 D0.21840
G1 F1800 X79.101 Y69.400 D1.34907
G1 F1800 X79.116 Y52.343 D1.36548
G1 F1800 X79.139 Y52.245 D0.00806
G1 F1800 X79.254 Y51.998 D0.02181
G1 F1800 X79.339 Y51.891 D0.01094
G1 F1800 X79.438 Y51.799 D0.01082
G1 F1800 X79.550 Y51.723 D0.01084
G1 F12000 X79.350 Y51.376 
;TYPE:WALL-OUTER
G1 F1800 X79.561 Y51.278 D0.01862
G1 F1800 X79.907 Y51.205 D0.02831
G1 F1800 X80.161 Y51.214 D0.02035
G1 F1800 X80.449 Y51.280 D0.02365
G1 F1800 X80.646 Y51.373 D0.01744
G1 F1800 X80.808 Y51.483 D0.01568
G1 F1800 X80.955 Y51.619 D0.01603
G1 F1800 X81.075 Y51.768 D0.01532
G1 F1800 X81.165 Y51.925 D0.01449
G1 F1800 X81.282 Y52.303 D0.03168
G1 F1800 X81.312 Y63.708 D0.91302
G1 F1800 X81.380 Y64.088 D0.03090
G1 F1800 X81.481 Y64.374 D0.02428
G1 F1800 X81.617 Y64.640 D0.02392
G1 F1800 X81.792 Y64.888 D0.02430
G1 F1800 X82.003 Y65.112 D0.02463
G1 F1800 X82.399 Y65.406 D0.03948
G1 F1800 X82.761 Y65.573 D0.03191
G1 F1800 X83.050 Y65.653 D0.02401
G1 F1800 X83.348 Y65.695 D0.02409
G1 F1800 X83.503 Y65.700 D0.01241
G1 F1800 X83.652 Y65.694 D0.01194
G1 F1800 X83.949 Y65.653 D0.02400
G1 F1800 X84.238 Y65.573 D0.02401
G1 F1800 X84.603 Y65.403 D0.03223
G1 F1800 X84.769 Y65.296 D0.01581
G1 F1800 X85.003 Y65.107 D0.02408
G1 F1800 X85.208 Y64.887 D0.02407
G1 F1800 X85.382 Y64.640 D0.02419
G1 F1800 X85.518 Y64.374 D0.02392
G1 F1800 X85.618 Y64.091 D0.02403
G1 F1800 X85.680 Y63.793 D0.02437
G1 F1800 X85.711 Y52.348 D0.91622
G1 F1800 X85.759 Y52.114 D0.01912
G1 F1800 X85.863 Y51.875 D0.02087
G1 F1800 X85.924 Y51.770 D0.00972
G1 F1800 X86.044 Y51.619 D0.01544
G1 F1800 X86.191 Y51.483 D0.01603
G1 F1800 X86.355 Y51.372 D0.01585
G1 F1800 X86.571 Y51.272 D0.01905
G1 F1800 X86.706 Y51.234 D0.01123
G1 F1800 X86.900 Y51.205 D0.01570
G1 F1800 X87.162 Y51.214 D0.02099
G1 F1800 X87.475 Y51.290 D0.02578
G1 F1800 X87.647 Y51.374 D0.01532
G1 F1800 X87.808 Y51.483 D0.01556
G1 F1800 X87.955 Y51.619 D0.01603
G1 F1800 X88.075 Y51.768 D0.01532
G1 F1800 X88.165 Y51.925 D0.01449
G1 F1800 X88.282 Y52.303 D0.03168
G1 F1800 X88.314 Y63.743 D0.91582
G1 F1800 X88.380 Y64.089 D0.02820
G1 F1800 X88.481 Y64.374 D0.02421
G1 F1800 X88.617 Y64.640 D0.02392
G1 F1800 X88.792 Y64.888 D0.02430
G1 F1800 X89.004 Y65.113 D0.02475
G1 F1800 X89.456 Y65.436 D0.04447
G1 F1800 X89.762 Y65.574 D0.02687
G1 F1800 X90.050 Y65.653 D0.02391
G1 F1800 X90.348 Y65.695 D0.02409
G1 F1800 X90.510 Y65.699 D0.01297
