; File post-processed by the CEL Tech Roboxiser on Thu 10 Dec 2015 17:15:38
; Robox? AutoMaker? - 2.00.00_RC10
;
; Pre print gcode
; Printed with safety features OFF
;
; Macro Start - before_print
;
M83				;Set Extruder to Relative moves
M139			;Set & heat first layer Bed temp.

;
; Macro Start - Home_all_Axis_in_sequence
;
;Home_all_Axis_in_sequence
G90 			;Use X Y Z Absolute positioning
G0 Z5			;Move up 5mm if homed
G28 Y			;Home Y
G0 Y115			;Position Y
T0				;Select Nozzle 0
G39				;Clear the bed levelling points
G28 Z			;Home Z
G0 Z10			;Move up 10mm if homed
G28 X			;Home X
;
; Macro End - Home_all_Axis_in_sequence
;

M190			;Wait for Bed to get to temp.
M103			;Set & heat first layer nozzle temp.
M109			;Wait for Nozzle to get to temp.
M170			;Set Ambient temp.

;
; Macro Start - Short_Purge#N0
;
;Short_Purge#N0(Single Material Head)
G0 Y-6 X11 Z8
T0
G0 Z4
G1 Y-4 F400
G36 E500 F400
G0 B1
G1 E2 F200
G1 E30 X23 F200
G0 B0
G0 Z4.5
G0 Y3
;
; Macro End - Short_Purge#N0
;

;
; Macro Start - Short_Purge#N1
;
;Short_Purge#N1 (Single Material Head)
G0 Y-6 X36 Z8
T1
G0 Z4
G1 Y-4 F400
G36 E500 F400
G0 B1
G1 E4 F300
G1 E30 X23 F200
G0 B0
G0 Z4.5
G0 Y3
;
; Macro End - Short_Purge#N1
;

;
; Macro Start - Level_Gantry_(2-points)
;
;Level_Gantry
T0			;Select Nozzle 0 (T0)
G0 X20 Y75		;Level Gantry Position 1
G28 Z			;Home Z
G0 Z4 			;Move up 4mm
G0 X190 Y75		;Level Gantry Position 2
G28 Z			;Home Z
G0 Z4 			;Move up 4mm
G38 			;Level gantry
;
; Macro End - Level_Gantry_(2-points)
;

;
; Macro Start - 7_point_Bed_probing-Set_Washout
;
;7_point_Bed_probing-Set_Washout
G0 Y20
G28 Z
G0 Z2
G0 X105
G28 Z
G0 Z2
G0 X20
G28 Z
G0 Z2
G0 Y130
G28 Z
G0 Z2
G0 X105
G28 Z
G0 Z2
G0 X190
G28 Z
G0 Z2
G0 X105 Y75
G28 Z
G0 Z2

G39 S0.5		;set washout over the first 2mm
;
; Macro End - 7_point_Bed_probing-Set_Washout
;

;Centre head and prime
G0 X105 Y75 Z5
G1 E0.5 F1000
M129			;Head LED on
;
; Macro End - before_print
;
; End of Pre print gcode
;LAYER:0 height:0.300
M107
G1 F12000 X42.939 Y72.070 Z0.300 
T0
;TYPE:WALL-INNER
G1 B1
G1 F600 X61.541 Y62.890 E3.73640
G1 F600 X62.065 Y62.651 E0.10374
G1 F600 X62.443 Y62.560 E0.07003
G1 F600 X67.007 Y62.539 E0.82208
G1 F600 X67.558 Y62.464 E0.10016
G1 F600 X68.129 Y62.227 E0.11136
G1 F600 X68.539 Y61.941 E0.09004
G1 F600 X68.961 Y61.481 E0.11244
G1 F600 X69.264 Y60.898 E0.11835
G1 F600 X69.399 Y60.293 E0.11165
G1 F600 X69.403 Y51.660 E1.55499
G1 F600 X69.446 Y51.208 E0.08178
G1 F600 X69.496 Y51.019 E0.03521
G1 F600 X69.659 Y50.646 E0.07332
G1 F600 X69.781 Y50.459 E0.04022
G1 F600 X69.937 Y50.273 E0.04373
G1 F600 X70.117 Y50.109 E0.04386
G1 F600 X70.290 Y49.987 E0.03813
G1 F600 X70.659 Y49.808 E0.07387
G1 F600 X70.873 Y49.742 E0.04034
G1 F600 X71.105 Y49.703 E0.04237
G1 F600 X71.354 Y49.694 E0.04488
G1 F600 X71.587 Y49.714 E0.04212
G1 F600 X71.831 Y49.768 E0.04501
G1 F600 X72.054 Y49.848 E0.04267
G1 F600 X72.733 Y50.186 E0.13662
G1 F600 X119.469 Y74.024 E9.44993
G1 F600 X101.749 Y66.861 E3.44265
G1 F600 X101.263 Y66.699 E0.09227
G1 F600 X100.721 Y66.589 E0.09962
G1 F600 X100.166 Y66.547 E0.10025
G1 F600 X99.609 Y66.574 E0.10045
G1 F600 X99.062 Y66.670 E0.10003
G1 F600 X98.530 Y66.832 E0.10017
G1 F600 X98.023 Y67.058 E0.09998
G1 F600 X97.547 Y67.345 E0.10012
G1 F600 X97.109 Y67.689 E0.10032
G1 F600 X96.717 Y68.084 E0.10024
G1 F600 X96.380 Y68.522 E0.09954
G1 F600 X96.118 Y68.963 E0.09239
G1 F600 X96.013 Y69.169 E0.04165
G1 F600 X96.219 Y68.684 E0.09491
G1 F600 X96.378 Y68.123 E0.10503
G1 F600 X96.462 Y67.540 E0.10609
G1 F600 X96.471 Y66.952 E0.10592
G1 F600 X96.402 Y66.366 E0.10628
G1 F600 X96.258 Y65.795 E0.10607
G1 F600 X96.039 Y65.247 E0.10630
G1 F600 X95.752 Y64.733 E0.10604
G1 F600 X95.399 Y64.262 E0.10602
G1 F600 X94.989 Y63.840 E0.10598
G1 F600 X94.492 Y63.447 E0.11413
G1 F600 X80.994 Y56.532 E2.73175
G1 F600 X77.805 Y54.906 E0.64476
G1 F600 X77.319 Y54.696 E0.09536
G1 F600 X76.768 Y54.537 E0.10330
G1 F600 X76.201 Y54.452 E0.10327
G1 F600 X75.629 Y54.437 E0.10306
G1 F600 X75.058 Y54.496 E0.10340
G1 F600 X74.496 Y54.627 E0.10394
G1 F600 X73.959 Y54.829 E0.10334
G1 F600 X73.451 Y55.096 E0.10337
G1 F600 X72.980 Y55.428 E0.10379
G1 F600 X72.558 Y55.815 E0.10313
G1 F600 X72.187 Y56.253 E0.10339
G1 F600 X71.874 Y56.736 E0.10367
G1 F600 X71.627 Y57.254 E0.10337
G1 F600 X71.446 Y57.798 E0.10327
G1 F600 X71.331 Y58.394 E0.10933
G1 F600 X71.304 Y59.767 E0.24735
G1 F600 X71.278 Y60.454 E0.12383
G1 F600 X71.275 Y60.503 E0.00884
G1 F600 X71.202 Y60.963 E0.08389
G1 F600 X71.088 Y61.392 E0.07995
G1 F600 X70.920 Y61.826 E0.08383
G1 F600 X70.711 Y62.239 E0.08337
G1 F600 X70.461 Y62.623 E0.08253
G1 F600 X70.171 Y62.981 E0.08299
G1 F600 X69.845 Y63.307 E0.08304
G1 F600 X69.485 Y63.598 E0.08338
G1 F600 X69.105 Y63.845 E0.08163
G1 F600 X68.692 Y64.055 E0.08345
G1 F600 X68.252 Y64.224 E0.08490
G1 F600 X67.827 Y64.338 E0.07926
G1 F600 X67.366 Y64.411 E0.08407
G1 F600 X64.356 Y64.439 E0.54219
G1 F600 X63.704 Y64.439 E0.11744
G1 F600 X63.230 Y64.465 E0.08551
G1 F600 X62.721 Y64.554 E0.09307
G1 F600 X62.229 Y64.699 E0.09239
G1 F600 X61.794 Y64.883 E0.08507
G1 F600 X60.573 Y65.485 E0.24521
G1 F600 X59.923 Y65.831 E0.13263
G1 F600 X59.394 Y66.210 E0.11721
G1 F600 X58.982 Y66.608 E0.10318
G1 F600 X58.635 Y67.038 E0.09953
G1 F600 X58.339 Y67.512 E0.10066
G1 F600 X58.106 Y68.018 E0.10034
G1 F600 X57.937 Y68.548 E0.10020
G1 F600 X57.826 Y69.136 E0.10778
G1 F600 X57.803 Y77.387 E1.48618
G1 F600 X57.803 Y79.305 E0.34547
G1 F600 X57.835 Y79.809 E0.09096
G1 F600 X57.933 Y80.344 E0.09797
G1 F600 X58.097 Y80.866 E0.09855
G1 F600 X58.325 Y81.368 E0.09931
G1 F600 X58.611 Y81.833 E0.09833
G1 F600 X58.950 Y82.265 E0.09891
G1 F600 X59.343 Y82.650 E0.09910
G1 F600 X59.775 Y82.984 E0.09836
G1 F600 X60.246 Y83.263 E0.09860
G1 F600 X60.748 Y83.483 E0.09872
G1 F600 X61.270 Y83.640 E0.09818
G1 F600 X61.767 Y83.726 E0.09085
G1 F600 X84.132 Y86.170 E4.05239
G1 F600 X84.632 Y86.194 E0.09016
G1 F600 X85.172 Y86.154 E0.09753
G1 F600 X85.703 Y86.050 E0.09746
G1 F600 X86.221 Y85.883 E0.09803
G1 F600 X86.715 Y85.653 E0.09815
G1 F600 X87.177 Y85.366 E0.09797
G1 F600 X87.599 Y85.026 E0.09761
G1 F600 X87.978 Y84.640 E0.09744
G1 F600 X88.308 Y84.209 E0.09777
G1 F600 X88.562 Y83.777 E0.09027
G1 F600 X92.226 Y76.595 E1.45225
G1 F600 X90.113 Y80.737 E0.83753
G1 F600 X89.902 Y81.230 E0.09659
G1 F600 X89.744 Y81.783 E0.10359
G1 F600 X89.659 Y82.353 E0.10380
G1 F600 X89.645 Y82.935 E0.10486
G1 F600 X89.708 Y83.512 E0.10455
G1 F600 X89.845 Y84.077 E0.10472
G1 F600 X90.053 Y84.618 E0.10440
G1 F600 X90.329 Y85.128 E0.10445
G1 F600 X90.666 Y85.598 E0.10417
G1 F600 X91.065 Y86.023 E0.10500
G1 F600 X91.511 Y86.391 E0.10415
G1 F600 X92.003 Y86.698 E0.10446
G1 F600 X92.528 Y86.941 E0.10420
G1 F600 X93.126 Y87.127 E0.11280
G1 F600 X143.088 Y92.611 E9.05326
G1 F600 X142.867 Y92.699 E0.04285
G1 F600 X142.335 Y92.996 E0.10975
G1 F600 X141.845 Y93.354 E0.10931
G1 F600 X141.405 Y93.774 E0.10956
G1 F600 X141.021 Y94.243 E0.10918
G1 F600 X140.698 Y94.762 E0.11011
G1 F600 X140.488 Y95.219 E0.09059
G1 F600 X140.458 Y95.143 E0.01472
G1 F600 X140.089 Y94.641 E0.11222
G1 F600 X139.709 Y94.314 E0.09030
G1 F600 X139.170 Y94.020 E0.11059
G1 F600 X138.631 Y93.888 E0.09995
G1 F600 X112.855 Y91.071 E4.67044
G1 F600 X112.410 Y91.022 E0.08064
G1 F600 X112.048 Y91.013 E0.06522
G1 F600 X111.636 Y91.074 E0.07502
G1 F600 X111.240 Y91.201 E0.07491
G1 F600 X110.867 Y91.394 E0.07565
G1 F600 X110.530 Y91.648 E0.07601
G1 F600 X110.242 Y91.953 E0.07556
G1 F600 X110.010 Y92.300 E0.07518
G1 F600 X109.835 Y92.688 E0.07667
G1 F600 X109.788 Y92.874 E0.03456
G1 F600 X109.402 Y92.345 E0.11795
G1 F600 X108.932 Y91.841 E0.12413
G1 F600 X108.406 Y91.395 E0.12422
G1 F600 X107.830 Y91.015 E0.12429
G1 F600 X107.214 Y90.708 E0.12397
G1 F600 X106.568 Y90.474 E0.12376
G1 F600 X105.896 Y90.318 E0.12426
G1 F600 X105.212 Y90.244 E0.12392
G1 F600 X104.522 Y90.250 E0.12429
G1 F600 X103.838 Y90.340 E0.12426
G1 F600 X103.172 Y90.509 E0.12376
G1 F600 X102.528 Y90.756 E0.12424
G1 F600 X101.919 Y91.077 E0.12400
G1 F600 X101.351 Y91.469 E0.12431
G1 F600 X100.864 Y91.900 E0.11714
G1 F600 X100.857 Y91.703 E0.03551
G1 F600 X100.772 Y91.295 E0.07507
G1 F600 X100.620 Y90.901 E0.07607
G1 F600 X100.402 Y90.540 E0.07596
G1 F600 X100.133 Y90.223 E0.07489
G1 F600 X99.808 Y89.951 E0.07634
G1 F600 X99.447 Y89.742 E0.07513
G1 F600 X99.062 Y89.594 E0.07429
G1 F600 X98.705 Y89.524 E0.06553
G1 F600 X58.197 Y85.098 E7.33977
G1 F600 X57.641 Y85.037 E0.10075
G1 F600 X57.368 Y84.990 E0.04990
G1 F600 X57.148 Y84.924 E0.04137
G1 F600 X56.934 Y84.830 E0.04210
G1 F600 X56.740 Y84.715 E0.04062
G1 F600 X56.553 Y84.571 E0.04251
G1 F600 X56.394 Y84.413 E0.04037
G1 F600 X56.245 Y84.225 E0.04321
G1 F600 X56.129 Y84.035 E0.04010
G1 F600 X56.031 Y83.819 E0.04272
G1 F600 X55.960 Y83.596 E0.04215
G1 F600 X55.922 Y83.389 E0.03791
G1 F600 X55.903 Y74.941 E1.52167
G1 F600 X55.831 Y74.388 E0.10045
G1 F600 X55.578 Y73.779 E0.11878
G1 F600 X55.178 Y73.261 E0.11788
G1 F600 X54.661 Y72.864 E0.11741
G1 F600 X54.086 Y72.624 E0.11223
G1 F600 X53.623 Y72.543 E0.08466
G1 F600 X44.724 Y72.539 E1.60290
G1 F600 X44.281 Y72.514 E0.07992
G1 F600 X43.886 Y72.446 E0.07219
G1 F600 X43.513 Y72.338 E0.06994
G1 F600 X43.139 Y72.182 E0.07299
G1 F600 X42.939 Y72.070 E0.04129
G1 F12000 X68.073 Y61.409 
G1 F12000 X68.697 Y60.215 
G1 F12000 X73.040 Y49.555 
G1 F12000 X168.826 Y98.380 
G1 F12000 X149.140 Y99.013 
G1 F12000 X149.626 Y98.489 
G1 F600 X149.631 Y98.412 E0.01390
G1 F600 X149.749 Y98.566 E0.03495
G1 F600 X149.626 Y98.489 E0.02614
G1 F12000 X162.013 Y98.591 
G1 F600 X162.277 Y98.243 E0.07868
G1 F600 X162.461 Y97.883 E0.07282
G1 F600 X162.590 Y97.501 E0.07262
G1 F600 X162.654 Y97.091 E0.07474
G1 F600 X162.649 Y96.650 E0.07944
G1 F600 X162.565 Y96.228 E0.07750
G1 F600 X162.464 Y95.954 E0.05260
G1 F600 X162.987 Y96.221 E0.10577
G1 F600 X163.455 Y96.459 E0.09457
G1 F600 X164.930 Y97.212 E0.29830
G1 F600 X165.552 Y97.529 E0.12575
G1 F600 X166.101 Y97.809 E0.11100
G1 F600 X166.593 Y98.061 E0.09957
G1 F600 X167.608 Y98.578 E0.20517
G1 F600 X168.096 Y98.827 E0.09868
G1 F600 X168.096 Y100.251 E0.25649
G1 F600 X167.981 Y98.808 E0.26074
G1 F600 X161.780 Y98.808 E1.11693
G1 F600 X162.013 Y98.591 E0.05735
G1 F12000 X161.566 Y98.187 
G1 F600 X161.767 Y97.922 E0.05991
G1 F600 X161.907 Y97.649 E0.05526
G1 F600 X162.005 Y97.358 E0.05531
G1 F600 X162.054 Y97.048 E0.05653
G1 F600 X162.050 Y96.713 E0.06034
G1 F600 X161.986 Y96.392 E0.05896
G1 F600 X161.879 Y96.101 E0.05585
G1 F600 X161.722 Y95.831 E0.05626
G1 F600 X161.520 Y95.584 E0.05747
G1 F600 X161.269 Y95.362 E0.06036
G1 F600 X125.580 Y77.141 E7.21768
G1 F600 X101.541 Y67.424 E4.67029
G1 F600 X101.108 Y67.280 E0.08219
G1 F600 X100.639 Y67.185 E0.08619
G1 F600 X100.158 Y67.148 E0.08689
G1 F600 X99.676 Y67.172 E0.08693
G1 F600 X99.202 Y67.255 E0.08668
G1 F600 X98.740 Y67.395 E0.08695
G1 F600 X98.301 Y67.591 E0.08660
G1 F600 X97.888 Y67.840 E0.08686
G1 F600 X97.509 Y68.138 E0.08684
G1 F600 X97.169 Y68.480 E0.08686
G1 F600 X96.878 Y68.859 E0.08607
G1 F600 X96.644 Y69.253 E0.08254
G1 F600 X90.657 Y80.992 E2.37356
G1 F600 X90.468 Y81.431 E0.08609
G1 F600 X90.332 Y81.910 E0.08969
G1 F600 X90.258 Y82.405 E0.09015
G1 F600 X90.246 Y82.909 E0.09081
G1 F600 X90.301 Y83.408 E0.09042
G1 F600 X90.419 Y83.898 E0.09078
G1 F600 X90.599 Y84.366 E0.09032
G1 F600 X90.839 Y84.809 E0.09075
G1 F600 X91.131 Y85.216 E0.09022
G1 F600 X91.476 Y85.584 E0.09086
G1 F600 X91.863 Y85.903 E0.09034
G1 F600 X92.289 Y86.169 E0.09046
G1 F600 X92.744 Y86.380 E0.09034
G1 F600 X93.249 Y86.537 E0.09526
G1 F600 X145.428 Y92.265 E9.45500
G1 F600 X145.866 Y92.337 E0.07995
G1 F600 X146.442 Y92.489 E0.10730
G1 F600 X146.943 Y92.687 E0.09703
G1 F600 X147.408 Y92.934 E0.09484
G1 F600 X147.849 Y93.235 E0.09617
G1 F600 X148.250 Y93.580 E0.09528
G1 F600 X148.637 Y93.995 E0.10221
G1 F600 X148.928 Y94.395 E0.08910
G1 F600 X149.219 Y94.895 E0.10420
G1 F600 X149.430 Y95.381 E0.09543
G1 F600 X149.572 Y95.846 E0.08757
G1 F600 X149.675 Y96.368 E0.09584
G1 F600 X149.725 Y96.957 E0.10647
G1 F600 X149.757 Y97.273 E0.05721
G1 F600 X149.847 Y97.587 E0.05884
G1 F600 X149.989 Y97.882 E0.05897
G1 F600 X150.181 Y98.149 E0.05924
G1 F600 X150.417 Y98.379 E0.05936
G1 F600 X150.683 Y98.562 E0.05816
G1 F600 X150.982 Y98.701 E0.05939
G1 F600 X151.335 Y98.794 E0.06575
G1 F600 X159.407 Y98.810 E1.45394
G1 F600 X160.196 Y98.810 E0.14212
G1 F600 X160.484 Y98.784 E0.05209
G1 F600 X160.783 Y98.706 E0.05566
G1 F600 X161.077 Y98.574 E0.05805
G1 F600 X161.326 Y98.410 E0.05370
G1 F600 X161.566 Y98.187 E0.05901
G1 F12000 X162.113 Y95.102 
G1 F600 X165.202 Y96.678 E0.62463
G1 F600 X166.375 Y97.275 E0.23707
G1 F600 X166.866 Y97.527 E0.09941
G1 F600 X167.881 Y98.044 E0.20517
G1 F600 X168.696 Y98.460 E0.16482
G1 F600 X168.696 Y100.274 E0.32674
G1 F600 X168.686 Y100.404 E0.02348
G1 F600 X168.631 Y100.573 E0.03201
G1 F600 X168.577 Y100.661 E0.01860
G1 F600 X168.513 Y100.736 E0.01776
G1 F600 X168.449 Y100.791 E0.01520
G1 F600 X168.279 Y100.877 E0.03432
G1 F600 X168.190 Y100.898 E0.01647
G1 F600 X168.096 Y100.905 E0.01698
G1 F600 X168.002 Y100.898 E0.01698
G1 F600 X167.911 Y100.876 E0.01686
G1 F600 X167.749 Y100.794 E0.03270
G1 F600 X167.671 Y100.727 E0.01852
G1 F600 X167.612 Y100.659 E0.01622
G1 F600 X167.565 Y100.581 E0.01640
G1 F600 X167.526 Y100.489 E0.01800
G1 F600 X167.507 Y100.407 E0.01516
G1 F600 X167.427 Y99.408 E0.18052
G1 F600 X150.910 Y99.408 E2.97506
G1 F600 X150.360 Y99.387 E0.09914
G1 F600 X150.060 Y99.331 E0.05497
G1 F600 X149.775 Y99.242 E0.05378
G1 F600 X149.496 Y99.115 E0.05522
G1 F600 X148.636 Y98.538 E0.18654
G1 F600 X148.686 Y98.396 E0.02712
G1 F600 X149.031 Y98.396 E0.06214
G1 F600 X149.128 Y97.086 E0.23660
G1 F600 X149.101 Y96.559 E0.09505
G1 F600 X149.007 Y96.037 E0.09554
G1 F600 X148.848 Y95.528 E0.09605
G1 F600 X148.626 Y95.046 E0.09558
G1 F600 X148.343 Y94.593 E0.09621
G1 F600 X148.008 Y94.183 E0.09537
G1 F600 X147.622 Y93.815 E0.09606
G1 F600 X147.195 Y93.502 E0.09536
G1 F600 X146.728 Y93.242 E0.09627
G1 F600 X146.236 Y93.046 E0.09539
G1 F600 X145.719 Y92.912 E0.09620
G1 F600 X145.194 Y92.846 E0.09531
G1 F600 X144.660 Y92.846 E0.09618
G1 F600 X144.135 Y92.912 E0.09531
G1 F600 X143.619 Y93.046 E0.09603
G1 F600 X143.125 Y93.242 E0.09573
G1 F600 X142.659 Y93.502 E0.09612
G1 F600 X142.231 Y93.815 E0.09551
G1 F600 X141.846 Y94.183 E0.09593
G1 F600 X141.510 Y94.593 E0.09548
G1 F600 X141.228 Y95.047 E0.09627
G1 F600 X141.007 Y95.527 E0.09518
G1 F600 X140.846 Y96.036 E0.09616
G1 F600 X140.752 Y96.559 E0.09571
G1 F600 X140.725 Y97.087 E0.09523
G1 F600 X140.825 Y98.396 E0.23647
G1 F600 X141.169 Y98.396 E0.06196
G1 F600 X141.218 Y98.537 E0.02689
G1 F600 X140.681 Y98.914 E0.11818
G1 F600 X140.602 Y98.950 E0.01564
G1 F600 X140.590 Y98.951 E0.00217
G1 F600 X140.540 Y98.935 E0.00946
G1 F600 X140.519 Y98.919 E0.00476
G1 F600 X140.496 Y98.880 E0.00816
G1 F600 X140.341 Y98.450 E0.08233
G1 F600 X140.224 Y97.986 E0.08619
G1 F600 X140.153 Y97.513 E0.08615
G1 F600 X140.129 Y97.038 E0.08567
G1 F600 X140.153 Y96.527 E0.09214
G1 F600 X140.164 Y96.349 E0.03212
G1 F600 X140.111 Y95.897 E0.08197
G1 F600 X139.929 Y95.436 E0.08927
G1 F600 X139.646 Y95.052 E0.08592
G1 F600 X139.365 Y94.810 E0.06680
G1 F600 X138.951 Y94.584 E0.08496
G1 F600 X138.527 Y94.480 E0.07864
G1 F600 X112.370 Y91.621 E4.73949
G1 F600 X112.085 Y91.614 E0.05135
G1 F600 X111.772 Y91.660 E0.05698
G1 F600 X111.471 Y91.757 E0.05696
G1 F600 X111.187 Y91.903 E0.05752
G1 F600 X110.931 Y92.096 E0.05775
G1 F600 X110.713 Y92.328 E0.05734
G1 F600 X110.536 Y92.592 E0.05725
G1 F600 X110.404 Y92.886 E0.05805
G1 F600 X110.326 Y93.195 E0.05740
G1 F600 X110.298 Y93.510 E0.05696
G1 F600 X110.324 Y93.824 E0.05675
G1 F600 X110.571 Y94.709 E0.16550
G1 F600 X110.678 Y95.307 E0.10942
G1 F600 X110.724 Y95.923 E0.11126
G1 F600 X110.704 Y96.524 E0.10831
G1 F600 X110.622 Y97.128 E0.10979
G1 F600 X110.479 Y97.710 E0.10795
G1 F600 X110.272 Y98.284 E0.10991
G1 F600 X110.007 Y98.833 E0.10980
G1 F600 X109.705 Y99.321 E0.10337
G1 F600 X109.643 Y99.382 E0.01567
G1 F600 X109.610 Y99.393 E0.00627
G1 F600 X109.568 Y99.387 E0.00764
G1 F600 X109.042 Y98.871 E0.13272
G1 F600 X109.394 Y98.286 E0.12298
G1 F600 X109.607 Y97.800 E0.09558
G1 F600 X109.690 Y97.539 E0.04933
G1 F600 X110.017 Y97.539 E0.05890
G1 F600 X110.126 Y96.154 E0.25024
G1 F600 X110.105 Y95.541 E0.11048
G1 F600 X110.009 Y94.931 E0.11123
G1 F600 X109.842 Y94.337 E0.11114
G1 F600 X109.605 Y93.765 E0.11152
G1 F600 X109.302 Y93.226 E0.11137
G1 F600 X108.938 Y92.728 E0.11111
G1 F600 X108.517 Y92.276 E0.11126
G1 F600 X108.045 Y91.876 E0.11144
G1 F600 X107.529 Y91.536 E0.11130
G1 F600 X106.977 Y91.261 E0.11108
G1 F600 X106.398 Y91.050 E0.11100
G1 F600 X105.795 Y90.911 E0.11146
G1 F600 X105.182 Y90.845 E0.11105
G1 F600 X104.564 Y90.849 E0.11132
G1 F600 X103.951 Y90.931 E0.11140
G1 F600 X103.354 Y91.082 E0.11092
G1 F600 X102.776 Y91.303 E0.11146
G1 F600 X102.231 Y91.591 E0.11103
G1 F600 X101.722 Y91.942 E0.11137
G1 F600 X101.260 Y92.351 E0.11114
G1 F600 X100.847 Y92.812 E0.11148
G1 F600 X100.494 Y93.319 E0.11128
G1 F600 X100.203 Y93.862 E0.11097
G1 F600 X99.978 Y94.438 E0.11138
G1 F600 X99.823 Y95.035 E0.11110
G1 F600 X99.741 Y95.642 E0.11033
G1 F600 X99.734 Y96.098 E0.08214
G1 F600 X99.036 Y98.705 E0.48612
G1 F600 X98.421 Y98.540 E0.11469
G1 F600 X98.338 Y98.506 E0.01616
G1 F600 X98.308 Y98.483 E0.00681
G1 F600 X98.294 Y98.441 E0.00797
G1 F600 X99.312 Y94.581 E0.71904
G1 F600 X99.495 Y94.013 E0.10749
G1 F600 X99.717 Y93.492 E0.10201
G1 F600 X100.013 Y92.955 E0.11045
G1 F600 X100.135 Y92.713 E0.04882
G1 F600 X100.228 Y92.411 E0.05692
G1 F600 X100.270 Y92.094 E0.05760
G1 F600 X100.259 Y91.775 E0.05749
G1 F600 X100.194 Y91.464 E0.05723
G1 F600 X100.079 Y91.166 E0.05753
G1 F600 X99.914 Y90.891
G1 F600 X99.709 Y90.651
G1 F600 X99.462 Y90.444
G1 F600 X99.188 Y90.285
G1 F600 X98.895 Y90.173
G1 F600 X98.614 Y90.118
G1 F600 X57.556 Y85.631 E7.43944
G1 F600 X57.227 Y85.574 E0.06014
G1 F600 X56.938 Y85.487 E0.05436
G1 F600 X56.663 Y85.367 E0.05404
G1 F600 X56.404 Y85.213 E0.05428
G1 F600 X56.158 Y85.023 E0.05599
G1 F600 X55.943 Y84.810 E0.05451
G1 F600 X55.757 Y84.576 E0.05384
G1 F600 X55.596 Y84.313 E0.05554
G1 F600 X55.469 Y84.032 E0.05554
G1 F600 X55.377 Y83.742 E0.05480
G1 F600 X55.325 Y83.458 E0.05200
G1 F600 X55.303 Y74.980 E1.52707
G1 F600 X55.246 Y74.544 E0.07920
G1 F600 X55.054 Y74.083 E0.08995
G1 F600 X54.751 Y73.690 E0.08938
G1 F600 X54.358 Y73.388 E0.08927
G1 F600 X53.917 Y73.204 E0.08607
G1 F600 X53.571 Y73.143 E0.06328
G1 F600 X44.708 Y73.139 E1.59641
G1 F600 X44.208 Y73.111 E0.09020
G1 F600 X43.756 Y73.034 E0.08259
G1 F600 X43.311 Y72.904 E0.08350
G1 F600 X42.875 Y72.722 E0.08510
G1 F600 X42.475 Y72.498 E0.08258
G1 F600 X42.099 Y72.227 E0.08348
G1 F600 X41.805 Y71.960 E0.07153
G1 F600 X61.270 Y62.354 E3.90975
G1 F600 X61.861 Y62.085 E0.11696
G1 F600 X62.125 Y62.007 E0.04958
G1 F600 X62.390 Y61.961 E0.04845
G1 F600 X66.965 Y61.939 E0.82406
G1 F600 X67.400 Y61.880 E0.07907
G1 F600 X67.838 Y61.698 E0.08543
G1 F600 X68.141 Y61.486 E0.06661
G1 F600 X68.465 Y61.133 E0.08631
G1 F600 X68.696 Y60.691 E0.08983
G1 F600 X68.799 Y60.227 E0.08561
G1 F600 X68.803 Y51.635 E1.54760
G1 F600 X68.854 Y51.103 E0.09626
G1 F600 X68.929 Y50.816 E0.05343
G1 F600 X69.128 Y50.362 E0.08929
G1 F600 X69.298 Y50.100 E0.05626
G1 F600 X69.500 Y49.861 E0.05637
G1 F600 X69.742 Y49.640 E0.05903
G1 F600 X69.986 Y49.467 E0.05388
G1 F600 X70.438 Y49.248 E0.09047
G1 F600 X70.729 Y49.159 E0.05481
G1 F600 X71.053 Y49.105 E0.05916
G1 F600 X71.359 Y49.092 E0.05517
G1 F600 X71.685 Y49.121 E0.05895
G1 F600 X71.996 Y49.190 E0.05738
G1 F600 X72.290 Y49.295 E0.05623
G1 F600 X72.993 Y49.645 E0.14145
G1 F600 X160.967 Y94.517 E17.78819
G1 F600 X162.113 Y95.102 E0.23176
G1 F12000 X125.537 Y77.233 
G1 F12000 X100.624 Y67.285 
G1 F12000 X98.348 Y67.681 
G1 F12000 X95.652 Y68.484 
G1 F600 X95.790 Y67.998 E0.09100
G1 F600 X95.863 Y67.492 E0.09208
G1 F600 X95.871 Y66.983 E0.09169
G1 F600 X95.811 Y66.475 E0.09214
G1 F600 X95.686 Y65.980 E0.09196
G1 F600 X95.496 Y65.506 E0.09198
G1 F600 X95.248 Y65.061 E0.09176
G1 F600 X94.942 Y64.652 E0.09201
G1 F600 X94.586 Y64.286 E0.09197
G1 F600 X94.166 Y63.954 E0.09643
G1 F600 X80.721 Y57.067 E2.72095
G1 F600 X77.549 Y55.449 E0.64138
G1 F600 X77.116 Y55.262 E0.08495
G1 F600 X76.639 Y55.125 E0.08939
G1 F600 X76.148 Y55.051 E0.08944
G1 F600 X75.652 Y55.038 E0.08937
G1 F600 X75.157 Y55.089 E0.08963
G1 F600 X74.671 Y55.202 E0.08987
G1 F600 X74.206 Y55.377 E0.08949
G1 F600 X73.765 Y55.609 E0.08975
G1 F600 X73.357 Y55.897 E0.08995
G1 F600 X72.991 Y56.232 E0.08937
G1 F600 X72.670 Y56.612 E0.08960
G1 F600 X72.399 Y57.030 E0.08973
G1 F600 X72.185 Y57.479 E0.08959
G1 F600 X72.028 Y57.950 E0.08943
G1 F600 X71.930 Y58.457 E0.09301
G1 F600 X71.903 Y59.806 E0.24303
G1 F600 X71.878 Y60.488 E0.12293
G1 F600 X71.872 Y60.570 E0.01481
G1 F600 X71.790 Y61.088 E0.09446
G1 F600 X71.660 Y61.577 E0.09114
G1 F600 X71.470 Y62.070 E0.09517
G1 F600 X71.230 Y62.542 E0.09538
G1 F600 X70.950 Y62.973 E0.09258
G1 F600 X70.611 Y63.391 E0.09694
G1 F600 X70.255 Y63.747 E0.09068
G1 F600 X69.839 Y64.084 E0.09643
G1 F600 X69.400 Y64.369 E0.09428
G1 F600 X68.935 Y64.606 E0.09401
G1 F600 X68.449 Y64.792 E0.09373
G1 F600 X67.947 Y64.927 E0.09363
G1 F600 X67.433 Y65.008 E0.09372
G1 F600 X64.358 Y65.039 E0.55390
G1 F600 X63.720 Y65.039 E0.11492
G1 F600 X63.298 Y65.062 E0.07612
G1 F600 X62.858 Y65.139 E0.08046
G1 F600 X62.432 Y65.265 E0.08002
G1 F600 X62.044 Y65.429 E0.07587
G1 F600 X60.847 Y66.019 E0.24037
G1 F600 X60.240 Y66.342 E0.12385
G1 F600 X59.780 Y66.672 E0.10197
G1 F600 X59.426 Y67.014 E0.08866
G1 F600 X59.124 Y67.387 E0.08645
G1 F600 X58.868 Y67.798 E0.08722
G1 F600 X58.667 Y68.235 E0.08664
G1 F600 X58.520 Y68.695 E0.08698
G1 F600 X58.426 Y69.193 E0.09128
G1 F600 X58.403 Y77.388 E1.47610
G1 F600 X58.403 Y79.286 E0.34187
G1 F600 X58.431 Y79.735 E0.08103
G1 F600 X58.517 Y80.199 E0.08500
G1 F600 X58.659 Y80.652 E0.08551
G1 F600 X58.856 Y81.086 E0.08585
G1 F600 X59.104 Y81.490 E0.08539
G1 F600 X59.398 Y81.863 E0.08555
G1 F600 X59.738 Y82.197 E0.08585
G1 F600 X60.113 Y82.486 E0.08528
G1 F600 X60.521 Y82.728 E0.08544
G1 F600 X60.956 Y82.919 E0.08557
G1 F600 X61.408 Y83.055 E0.08502
G1 F600 X61.851 Y83.132 E0.08099
G1 F600 X84.179 Y85.572 E4.04569
G1 F600 X84.625 Y85.593 E0.08042
G1 F600 X85.092 Y85.559 E0.08434
G1 F600 X85.553 Y85.468 E0.08464
G1 F600 X86.001 Y85.323 E0.08482
G1 F600 X86.429 Y85.124 E0.08502
G1 F600 X86.829 Y84.876 E0.08477
G1 F600 X87.196 Y84.581 E0.08481
G1 F600 X87.524 Y84.246 E0.08445
G1 F600 X87.810 Y83.873 E0.08466
G1 F600 X88.036 Y83.488 E0.08041
G1 F600 X95.463 Y68.929 E2.94389
G1 F600 X95.652 Y68.484 E0.08708
G1 F12000 X95.085 Y68.284 
;TYPE:WALL-OUTER
G1 F600 X95.202 Y67.873 E0.07697
G1 F600 X95.264 Y67.445 E0.07790
G1 F600 X95.270 Y67.014 E0.07764
G1 F600 X95.220 Y66.584 E0.07797
G1 F600 X95.114 Y66.166 E0.07767
G1 F600 X94.953 Y65.765 E0.07783
G1 F600 X94.743 Y65.388 E0.07773
G1 F600 X94.485 Y65.043 E0.07760
G1 F600 X94.183 Y64.733 E0.07795
G1 F600 X93.840 Y64.461 E0.07885
G1 F600 X77.294 Y55.993 E3.34791
G1 F600 X76.913 Y55.828 E0.07479
G1 F600 X76.511 Y55.712 E0.07536
G1 F600 X76.095 Y55.650 E0.07576
G1 F600 X75.675 Y55.639 E0.07568
G1 F600 X75.256 Y55.682 E0.07587
G1 F600 X74.846 Y55.777 E0.07581
G1 F600 X74.452 Y55.926 E0.07587
G1 F600 X74.079 Y56.122 E0.07590
G1 F600 X73.734 Y56.365 E0.07601
G1 F600 X73.424 Y56.649 E0.07573
G1 F600 X73.153 Y56.970 E0.07567
G1 F600 X72.924 Y57.323 E0.07579
G1 F600 X72.742 Y57.704 E0.07605
G1 F600 X72.609 Y58.103 E0.07576
G1 F600 X72.529 Y58.520 E0.07648
G1 F600 X72.503 Y59.813 E0.23294
G1 F600 X72.476 Y60.523 E0.12798
G1 F600 X72.469 Y60.638 E0.02075
G1 F600 X72.380 Y61.203 E0.10302
G1 F600 X72.229 Y61.767 E0.10517
G1 F600 X72.019 Y62.313 E0.10537
G1 F600 X71.749 Y62.844 E0.10730
G1 F600 X71.434 Y63.328 E0.10402
G1 F600 X71.061 Y63.789 E0.10681
G1 F600 X70.653 Y64.197 E0.10393
G1 F600 X70.194 Y64.568 E0.10631
G1 F600 X69.699 Y64.890 E0.10636
G1 F600 X69.182 Y65.153 E0.10448
G1 F600 X68.636 Y65.363 E0.10537
G1 F600 X68.065 Y65.516 E0.10648
G1 F600 X67.501 Y65.605 E0.10285
G1 F600 X63.736 Y65.639 E0.67818
G1 F600 X63.367 Y65.659 E0.06656
G1 F600 X62.995 Y65.724 E0.06802
G1 F600 X62.634 Y65.831 E0.06782
G1 F600 X62.293 Y65.975 E0.06667
G1 F600 X61.120 Y66.553 E0.23554
G1 F600 X60.557 Y66.853 E0.11491
G1 F600 X60.165 Y67.134 E0.08687
G1 F600 X59.869 Y67.420 E0.07414
G1 F600 X59.614 Y67.736 E0.07314
G1 F600 X59.397 Y68.083 E0.07372
G1 F600 X59.227 Y68.453 E0.07334
G1 F600 X59.103 Y68.842 E0.07354
G1 F600 X59.026 Y69.250 E0.07479
G1 F600 X59.003 Y79.267 E1.80428
G1 F600 X59.028 Y79.662 E0.07129
G1 F600 X59.100 Y80.054 E0.07179
G1 F600 X59.220 Y80.437 E0.07229
G1 F600 X59.387 Y80.804 E0.07263
G1 F600 X59.597 Y81.146 E0.07229
G1 F600 X59.845 Y81.462 E0.07235
G1 F600 X60.133 Y81.744 E0.07260
G1 F600 X60.450 Y81.989 E0.07216
G1 F600 X60.796 Y82.193 E0.07235
G1 F600 X61.163 Y82.355 E0.07226
G1 F600 X61.546 Y82.470 E0.07203
G1 F600 X61.935 Y82.537 E0.07110
G1 F600 X84.226 Y84.973 E4.03898
G1 F600 X84.617 Y84.992 E0.07051
G1 F600 X85.012 Y84.963 E0.07134
G1 F600 X85.402 Y84.886 E0.07160
G1 F600 X85.782 Y84.764 E0.07189
G1 F600 X86.143 Y84.595 E0.07180
G1 F600 X86.482 Y84.385 E0.07183
G1 F600 X86.792 Y84.136 E0.07162
G1 F600 X87.070 Y83.852 E0.07158
G1 F600 X87.311 Y83.537 E0.07144
G1 F600 X87.510 Y83.199 E0.07065
G1 F600 X94.919 Y68.675 E2.93680
G1 F600 X95.085 Y68.284 E0.07651
G1 F12000 X95.469 Y68.394 
G1 F12000 X96.827 Y69.337 
G1 F12000 X97.170 Y69.542 
G1 F600 X91.200 Y81.247 E2.36671
G1 F600 X91.035 Y81.632 E0.07545
G1 F600 X90.919 Y82.037 E0.07588
G1 F600 X90.857 Y82.456 E0.07629
G1 F600 X90.847 Y82.883 E0.07693
G1 F600 X90.893 Y83.305 E0.07646
G1 F600 X90.993 Y83.719 E0.07671
G1 F600 X91.145 Y84.115 E0.07640
G1 F600 X91.348 Y84.490 E0.07681
G1 F600 X91.595 Y84.834 E0.07628
G1 F600 X91.887 Y85.145 E0.07684
G1 F600 X92.214 Y85.415 E0.07638
G1 F600 X92.575 Y85.640 E0.07662
G1 F600 X92.960 Y85.819 E0.07648
G1 F600 X93.372 Y85.947 E0.07771
G1 F600 X145.501 Y91.669 E9.44593
G1 F600 X145.989 Y91.749 E0.08907
G1 F600 X146.632 Y91.918 E0.11975
G1 F600 X147.193 Y92.140 E0.10867
G1 F600 X147.720 Y92.421 E0.10757
G1 F600 X148.214 Y92.758 E0.10771
G1 F600 X148.666 Y93.147 E0.10741
G1 F600 X149.082 Y93.593 E0.10985
G1 F600 X149.435 Y94.071 E0.10703
G1 F600 X149.739 Y94.593 E0.10881
G1 F600 X149.980 Y95.139 E0.10750
G1 F600 X150.156 Y95.703 E0.10642
G1 F600 X150.270 Y96.280 E0.10594
G1 F600 X150.322 Y96.902 E0.11243
G1 F600 X150.348 Y97.159 E0.04653
G1 F600 X150.410 Y97.372 E0.03996
G1 F600 X150.507 Y97.575 E0.04052
G1 F600 X150.638 Y97.756 E0.04024
G1 F600 X150.799 Y97.914 E0.04063
G1 F600 X150.982 Y98.039 E0.03992
G1 F600 X151.186 Y98.134 E0.04053
G1 F600 X151.413 Y98.194 E0.04229
G1 F600 X160.168 Y98.210 E1.57696
G1 F600 X160.381 Y98.191 E0.03852
G1 F600 X160.584 Y98.138 E0.03779
G1 F600 X160.787 Y98.047 E0.04007
G1 F600 X160.954 Y97.937 E0.03602
G1 F600 X161.119 Y97.783 E0.04065
G1 F600 X161.257 Y97.601 E0.04114
G1 F600 X161.353 Y97.414 E0.03786
G1 F600 X161.420 Y97.215 E0.03782
G1 F600 X161.453 Y97.005 E0.03829
G1 F600 X161.451 Y96.776 E0.04125
G1 F600 X161.407 Y96.555 E0.04059
G1 F600 X161.334 Y96.357 E0.03801
G1 F600 X161.227 Y96.174 E0.03818
G1 F600 X161.087 Y96.002 E0.03995
G1 F600 X160.928 Y95.862 E0.03816
G1 F600 X125.331 Y77.688 E7.19908
G1 F600 X101.334 Y67.987 E4.66220
G1 F600 X100.953 Y67.861 E0.07228
G1 F600 X100.556 Y67.780 E0.07298
G1 F600 X100.150 Y67.749 E0.07334
G1 F600 X99.743 Y67.769 E0.07340
G1 F600 X99.341 Y67.840 E0.07353
G1 F600 X98.951 Y67.958 E0.07339
G1 F600 X98.579 Y68.124 E0.07337
G1 F600 X98.229 Y68.335 E0.07361
G1 F600 X97.909 Y68.587 E0.07337
G1 F600 X97.622 Y68.876 E0.07336
G1 F600 X97.375 Y69.196 E0.07281
G1 F600 X97.170 Y69.542 E0.07244
G1 F12000 X96.827 Y69.337 
G1 F12000 X90.430 Y81.932 
G1 F12000 X90.691 Y84.323 
G1 F12000 X92.337 Y86.080 
G1 F12000 X93.271 Y86.437 
G1 F12000 X98.600 Y90.319 
G1 F12000 X98.523 Y90.711 
G1 F600 X57.484 Y86.227 E7.43598
G1 F600 X57.086 Y86.158 E0.07276
G1 F600 X56.736 Y86.053 E0.06582
G1 F600 X56.387 Y85.900 E0.06864
G1 F600 X56.065 Y85.709 E0.06743
G1 F600 X55.761 Y85.476 E0.06899
G1 F600 X55.495 Y85.212 E0.06750
G1 F600 X55.264 Y84.920 E0.06706
G1 F600 X55.063 Y84.591 E0.06944
G1 F600 X54.909 Y84.253 E0.06690
G1 F600 X54.794 Y83.889 E0.06876
G1 F600 X54.728 Y83.528 E0.06610
G1 F600 X54.703 Y83.010 E0.09341
G1 F600 X54.703 Y75.019 E1.43935
G1 F600 X54.661 Y74.701 E0.05778
G1 F600 X54.531 Y74.386 E0.06138
G1 F600 X54.324 Y74.118 E0.06100
G1 F600 X54.055 Y73.911 E0.06114
G1 F600 X53.748 Y73.783 E0.05991
G1 F600 X53.518 Y73.743 E0.04205
G1 F600 X44.691 Y73.739 E1.58993
G1 F600 X44.144 Y73.708 E0.09868
G1 F600 X43.621 Y73.619 E0.09556
G1 F600 X43.111 Y73.470 E0.09570
G1 F600 X42.614 Y73.262 E0.09704
G1 F600 X42.146 Y73.001 E0.09652
G1 F600 X41.721 Y72.695 E0.09433
G1 F600 X41.318 Y72.328 E0.09818
G1 F600 X40.974 Y71.936 E0.09394
G1 F600 X40.853 Y71.761 E0.03832
G1 F600 X61.021 Y61.808 E4.05096
G1 F600 X61.647 Y61.523 E0.12389
G1 F600 X61.991 Y61.421 E0.06463
G1 F600 X62.337 Y61.361 E0.06325
G1 F600 X66.924 Y61.339 E0.82622
G1 F600 X67.242 Y61.296 E0.05780
G1 F600 X67.548 Y61.169 E0.05968
G1 F600 X67.744 Y61.032 E0.04307
G1 F600 X67.970 Y60.786 E0.06017
G1 F600 X68.127 Y60.484 E0.06131
G1 F600 X68.199 Y60.161 E0.05961
G1 F600 X68.203 Y51.609 E1.54040
G1 F600 X68.262 Y50.993 E0.11146
G1 F600 X68.359 Y50.624 E0.06872
G1 F600 X68.600 Y50.074 E0.10816
G1 F600 X68.817 Y49.739 E0.07189
G1 F600 X69.065 Y49.445 E0.06928
G1 F600 X69.363 Y49.173 E0.07267
G1 F600 X69.679 Y48.950 E0.06966
G1 F600 X70.220 Y48.687 E0.10835
G1 F600 X70.593 Y48.573 E0.07025
G1 F600 X70.986 Y48.507 E0.07178
G1 F600 X71.381 Y48.492 E0.07120
G1 F600 X71.774 Y48.526 E0.07105
G1 F600 X72.162 Y48.612 E0.07158
G1 F600 X72.523 Y48.741 E0.06905
G1 F600 X73.268 Y49.112 E0.14991
G1 F600 X161.238 Y93.982 E17.78739
G1 F600 X169.296 Y98.093 E1.62939
G1 F600 X169.296 Y100.297 E0.39699
G1 F600 X169.280 Y100.497 E0.03614
G1 F600 X169.234 Y100.686 E0.03504
G1 F600 X169.166 Y100.850 E0.03198
G1 F600 X169.064 Y101.015 E0.03494
G1 F600 X168.941 Y101.158 E0.03397
G1 F600 X168.800 Y101.278 E0.03335
G1 F600 X168.639 Y101.376 E0.03395
G1 F600 X168.465 Y101.449 E0.03399
G1 F600 X168.284 Y101.492 E0.03351
G1 F600 X168.096 Y101.507 E0.03397
G1 F600 X167.908 Y101.492 E0.03397
G1 F600 X167.727 Y101.449 E0.03351
G1 F600 X167.548 Y101.374 E0.03496
G1 F600 X167.395 Y101.281 E0.03225
G1 F600 X167.245 Y101.152 E0.03564
G1 F600 X167.125 Y101.013 E0.03308
G1 F600 X167.030 Y100.856 E0.03305
G1 F600 X166.955 Y100.678 E0.03479
G1 F600 X166.912 Y100.497 E0.03351
G1 F600 X166.873 Y100.008 E0.08836
G1 F600 X150.913 Y100.008 E2.87473
G1 F600 X150.290 Y99.984 E0.11230
G1 F600 X149.918 Y99.915 E0.06815
G1 F600 X149.557 Y99.802 E0.06813
G1 F600 X149.212 Y99.645 E0.06827
G1 F600 X147.870 Y98.733 E0.29226
G1 F600 X148.086 Y98.297 E0.08764
G1 F600 X148.237 Y97.796 E0.09425
G1 F600 X148.474 Y97.796 E0.04269
G1 F600 X148.527 Y97.079 E0.12950
G1 F600 X148.504 Y96.628 E0.08134
G1 F600 X148.423 Y96.180 E0.08200
G1 F600 X148.287 Y95.744 E0.08226
G1 F600 X148.097 Y95.331 E0.08188
G1 F600 X147.854 Y94.943 E0.08246
G1 F600 X147.567 Y94.592 E0.08167
G1 F600 X147.236 Y94.276 E0.08243
G1 F600 X146.870 Y94.008 E0.08171
G1 F600 X146.470 Y93.785 E0.08249
G1 F600 X146.049 Y93.617 E0.08165
G1 F600 X145.606 Y93.503 E0.08239
G1 F600 X145.156 Y93.446 E0.08170
G1 F600 X144.698 Y93.446 E0.08250
G1 F600 X144.248 Y93.503 E0.08170
G1 F600 X143.806 Y93.617 E0.08222
G1 F600 X143.383 Y93.785 E0.08198
G1 F600 X142.984 Y94.008 E0.08233
G1 F600 X142.617 Y94.276 E0.08185
G1 F600 X142.287 Y94.592 E0.08230
G1 F600 X141.999 Y94.943 E0.08178
G1 F600 X141.757 Y95.332 E0.08252
G1 F600 X141.568 Y95.744 E0.08165
G1 F600 X141.430 Y96.180 E0.08237
G1 F600 X141.349 Y96.628 E0.08200
G1 F600 X141.326 Y97.080 E0.08152
G1 F600 X141.381 Y97.796 E0.12935
G1 F600 X141.617 Y97.796 E0.04251
G1 F600 X141.644 Y97.926 E0.02392
G1 F600 X141.768 Y98.297 E0.07046
G1 F600 X141.933 Y98.652 E0.07051
G1 F600 X141.983 Y98.733 E0.01715
G1 F600 X141.000 Y99.422 E0.21622
G1 F600 X140.892 Y99.485 E0.02252
G1 F600 X140.678 Y99.547 E0.04013
G1 F600 X140.563 Y99.552 E0.02073
G1 F600 X140.452 Y99.539 E0.02013
G1 F600 X140.344 Y99.507 E0.02029
G1 F600 X140.239 Y99.457 E0.02095
G1 F600 X140.147 Y99.393 E0.02019
G1 F600 X140.067 Y99.316 E0.02000
G1 F600 X140.000 Y99.226 E0.02021
G1 F600 X139.943 Y99.116 E0.02232
G1 F600 X139.767 Y98.627 E0.09361
G1 F600 X139.636 Y98.110 E0.09607
G1 F600 X139.555 Y97.574 E0.09764
G1 F600 X139.529 Y97.039 E0.09648
G1 F600 X139.555 Y96.486 E0.09972
G1 F600 X139.562 Y96.366 E0.02165
G1 F600 X139.524 Y96.045 E0.05822
G1 F600 X139.400 Y95.729 E0.06114
G1 F600 X139.203 Y95.462 E0.05977
G1 F600 X139.022 Y95.306 E0.04304
G1 F600 X138.732 Y95.148 E0.05948
G1 F600 X138.422 Y95.072 E0.05749
G1 F600 X112.330 Y92.220 E4.72771
G1 F600 X112.122 Y92.215 E0.03748
G1 F600 X111.908 Y92.247 E0.03897
G1 F600 X111.702 Y92.313 E0.03896
G1 F600 X111.508 Y92.413 E0.03931
G1 F600 X111.333 Y92.545 E0.03948
G1 F600 X111.184 Y92.703 E0.03912
G1 F600 X111.063 Y92.884 E0.03922
G1 F600 X110.973 Y93.084 E0.03950
G1 F600 X110.919 Y93.296 E0.03940
G1 F600 X110.900 Y93.511 E0.03888
G1 F600 X110.918 Y93.726 E0.03886
G1 F600 X111.157 Y94.579 E0.15956
G1 F600 X111.275 Y95.234 E0.11988
G1 F600 X111.325 Y95.914 E0.12281
G1 F600 X111.303 Y96.576 E0.11931
G1 F600 X111.213 Y97.239 E0.12052
G1 F600 X111.055 Y97.884 E0.11961
G1 F600 X110.825 Y98.520 E0.12182
G1 F600 X110.538 Y99.116 E0.11915
G1 F600 X110.188 Y99.681 E0.11971
G1 F600 X110.049 Y99.835 E0.03737
G1 F600 X109.899 Y99.930 E0.03198
G1 F600 X109.718 Y99.988 E0.03423
G1 F600 X109.606 Y99.997 E0.02024
G1 F600 X109.417 Y99.972 E0.03434
G1 F600 X109.308 Y99.933 E0.02085
G1 F600 X109.213 Y99.878 E0.01977
G1 F600 X108.241 Y98.925 E0.24519
G1 F600 X108.353 Y98.801 E0.03010
G1 F600 X108.626 Y98.423 E0.08399
G1 F600 X108.857 Y98.016 E0.08429
G1 F600 X109.045 Y97.588 E0.08420
G1 F600 X109.186 Y97.145 E0.08374
G1 F600 X109.228 Y96.939 E0.03787
G1 F600 X109.462 Y96.939 E0.04215
G1 F600 X109.525 Y96.141 E0.14418
G1 F600 X109.506 Y95.598 E0.09787
G1 F600 X109.422 Y95.059 E0.09826
G1 F600 X109.274 Y94.534 E0.09825
G1 F600 X109.064 Y94.028 E0.09868
G1 F600 X108.797 Y93.551 E0.09846
G1 F600 X108.475 Y93.111 E0.09821
G1 F600 X108.102 Y92.711 E0.09851
G1 F600 X107.685 Y92.357 E0.09853
G1 F600 X107.229 Y92.057 E0.09832
G1 F600 X106.740 Y91.813 E0.09844
G1 F600 X106.227 Y91.627 E0.09829
G1 F600 X105.695 Y91.504 E0.09835
G1 F600 X105.152 Y91.445 E0.09838
G1 F600 X104.606 Y91.449 E0.09835
G1 F600 X104.064 Y91.521 E0.09848
G1 F600 X103.535 Y91.655 E0.09829
G1 F600 X103.025 Y91.850 E0.09835
G1 F600 X102.542 Y92.105 E0.09838
G1 F600 X102.093 Y92.415 E0.09828
G1 F600 X101.683 Y92.778 E0.09863
G1 F600 X101.318 Y93.185 E0.09847
G1 F600 X101.007 Y93.633 E0.09823
G1 F600 X100.749 Y94.114 E0.09831
G1 F600 X100.550 Y94.623 E0.09844
G1 F600 X100.413 Y95.151 E0.09825
G1 F600 X100.340 Y95.687 E0.09744
G1 F600 X100.333 Y96.179 E0.08863
G1 F600 X99.460 Y99.439 E0.60788
G1 F600 X98.221 Y99.107 E0.23104
G1 F600 X98.037 Y99.031 E0.03586
G1 F600 X97.885 Y98.914 E0.03455
G1 F600 X97.816 Y98.831 E0.01944
G1 F600 X97.755 Y98.726 E0.02187
G1 F600 X97.697 Y98.544 E0.03441
G1 F600 X97.688 Y98.436 E0.01952
G1 F600 X97.728 Y98.180 E0.04667
G1 F600 X98.741 Y94.397 E0.70540
G1 F600 X98.934 Y93.799 E0.11318
G1 F600 X99.176 Y93.231 E0.11121
G1 F600 X99.482 Y92.676 E0.11415
G1 F600 X99.576 Y92.488 E0.03786
G1 F600 X99.640 Y92.282 E0.03885
G1 F600 X99.669 Y92.065 E0.03943
G1 F600 X99.661 Y91.847 E0.03929
G1 F600 X99.617 Y91.634 E0.03918
G1 F600 X99.538 Y91.431 E0.03924
G1 F600 X99.425 Y91.243 E0.03951
G1 F600 X99.285 Y91.078 E0.03898
G1 F600 X99.117 Y90.937 E0.03951
G1 F600 X98.929 Y90.828 E0.03914
G1 F600 X98.728 Y90.752 E0.03871
G1 F600 X98.523 Y90.711 E0.03766
G1  X98.614 Y90.118 ; Travel to start of close
G1 F600 X98.895 Y90.173 B0.81 ; copied node <
G1 F600 X99.188 Y90.285 B0.62 ; copied node <
G1 F600 X99.462 Y90.444 B0.43 ; copied node <
G1 F600 X99.709 Y90.651 B0.24 ; copied node <
G1 F600 X99.914 Y90.891 B0.05 ; copied node <
G1 F600 X99.953 Y90.957 B0 ; End of copy close segment - backwards to start
G1 F12000 X99.120 Y89.362 
T1
;TYPE:SKIN
G1 B1
G1 F600 X97.619 Y87.861 E0.38235
G1 F12000 X96.666 Y87.756 
G1 F600 X98.129 Y89.219 E0.37267
G1 F12000 X97.176 Y89.115 
G1 F600 X95.713 Y87.652 E0.37267
G1 F12000 X94.760 Y87.547 
G1 F600 X96.223 Y89.011 E0.37280
G1 F12000 X95.271 Y88.907 
G1 F600 X93.806 Y87.442 E0.37318
G1 F12000 X92.790 Y87.274 
G1 F600 X94.318 Y88.803 E0.38935
G1 F12000 X93.365 Y88.698 
G1 F600 X88.692 Y84.025 E1.19035
G1 F12000 X88.357 Y84.538 
G1 F600 X92.413 Y88.594 E1.03318
G1 F12000 X91.460 Y88.490 
G1 F600 X87.964 Y84.994 E0.89053
G1 F12000 X87.519 Y85.397 
G1 F600 X90.508 Y88.386 E0.76139
G1 F12000 X89.555 Y88.282 
G1 F600 X87.019 Y85.746 E0.64599
G1 F12000 X86.460 Y86.036 
G1 F600 X88.602 Y88.178 E0.54563
G1 F12000 X87.650 Y88.074 
G1 F600 X85.834 Y86.259 E0.46246
G1 F12000 X85.124 Y86.397 
G1 F600 X86.697 Y87.970 E0.40069
G1 F12000 X85.744 Y87.865 
G1 F600 X84.296 Y86.417 E0.36885
G1 F12000 X83.355 Y86.325 
G1 F600 X84.792 Y87.761 E0.36592
G1 F12000 X83.839 Y87.657 
G1 F600 X82.403 Y86.221 E0.36579
G1 F12000 X81.450 Y86.117 
G1 F600 X82.887 Y87.553 E0.36592
G1 F12000 X81.933 Y87.449 
G1 F600 X80.497 Y86.013 E0.36579
G1 F12000 X79.545 Y85.909 
G1 F600 X80.981 Y87.345 E0.36579
G1 F12000 X80.028 Y87.241 
G1 F600 X78.592 Y85.805 E0.36579
G1 F12000 X77.640 Y85.701 
G1 F600 X79.076 Y87.137 E0.36579
G1 F12000 X78.123 Y87.032 
G1 F600 X76.687 Y85.596 E0.36579
G1 F12000 X75.734 Y85.492 
G1 F600 X77.170 Y86.928 E0.36579
G1 F12000 X76.218 Y86.824 
G1 F600 X74.782 Y85.388 E0.36579
G1 F12000 X73.829 Y85.284 
G1 F600 X75.265 Y86.720 E0.36579
G1 F12000 X74.312 Y86.616 
G1 F600 X72.876 Y85.180 E0.36579
G1 F12000 X71.924 Y85.076 
G1 F600 X73.360 Y86.512 E0.36579
G1 F12000 X72.407 Y86.408 
G1 F600 X70.971 Y84.972 E0.36579
G1 F12000 X70.018 Y84.867 
G1 F600 X71.454 Y86.303 E0.36579
G1 F12000 X70.502 Y86.199 
G1 F600 X69.065 Y84.763 E0.36592
G1 F12000 X68.113 Y84.659 
G1 F600 X69.549 Y86.095 E0.36579
G1 F12000 X68.597 Y85.991 
G1 F600 X67.161 Y84.555 E0.36579
G1 F12000 X66.207 Y84.451 
G1 F600 X67.643 Y85.887 E0.36579
G1 F12000 X66.691 Y85.783 
G1 F600 X65.255 Y84.347 E0.36579
G1 F12000 X64.302 Y84.243 
G1 F600 X65.739 Y85.679 E0.36592
G1 F12000 X64.786 Y85.575 
G1 F600 X63.350 Y84.139 E0.36579
G1 F12000 X62.397 Y84.034 
G1 F600 X63.833 Y85.470 E0.36579
G1 F12000 X62.880 Y85.366 
G1 F600 X61.424 Y83.910 E0.37089
G1 F12000 X60.975 Y85.158 
G1 F600 X56.154 Y80.337 E1.22805
G1 F12000 X56.152 Y79.487 
G1 F600 X58.086 Y81.421 E0.49265
G1 F12000 X57.651 Y80.137 
G1 F600 X56.150 Y78.636 E0.38235
G1 F12000 X56.149 Y77.786 
G1 F600 X57.563 Y79.200 E0.36019
G1 F12000 X57.565 Y78.354 
G1 F600 X56.147 Y76.936 E0.36121
G1 F12000 X56.144 Y76.085 
G1 F600 X57.566 Y77.507 E0.36223
G1 F12000 X57.569 Y76.660 
G1 F600 X56.143 Y75.235 E0.36312
G1 F12000 X56.053 Y74.296 
G1 F600 X57.571 Y75.814 E0.38668
G1 F12000 X57.573 Y74.968 
G1 F600 X50.976 Y68.370 E1.68058
G1 F12000 X51.544 Y68.090 
G1 F600 X57.574 Y74.121 E1.53615
G1 F12000 X57.576 Y73.274 
G1 F600 X52.112 Y67.810 E1.39184
G1 F12000 X52.680 Y67.530 
G1 F600 X57.578 Y72.428 E1.24767
G1 F12000 X57.581 Y71.581 
G1 F600 X53.248 Y67.249 E1.10362
G1 F12000 X53.817 Y66.969 
G1 F600 X57.582 Y70.734 E0.95906
G1 F12000 X57.584 Y69.888 
G1 F600 X54.384 Y66.688 E0.81513
G1 F12000 X54.953 Y66.408 
G1 F600 X57.598 Y69.053 E0.67376
G1 F12000 X57.747 Y68.353 
G1 F600 X55.521 Y66.127 E0.56703
G1 F12000 X56.089 Y65.847 
G1 F600 X57.974 Y67.732 E0.48017
G1 F12000 X58.266 Y67.175 
G1 F600 X56.657 Y65.567 E0.40973
G1 F12000 X57.226 Y65.287 
G1 F600 X58.617 Y66.678 E0.35433
G1 F12000 X59.021 Y66.233 
G1 F600 X57.793 Y65.006 E0.31268
G1 F12000 X58.362 Y64.726 
G1 F600 X59.484 Y65.848 E0.28581
G1 F12000 X60.001 Y65.516 
G1 F600 X58.930 Y64.445 E0.27282
G1 F12000 X59.498 Y64.165 
G1 F600 X60.557 Y65.224 E0.26976
G1 F12000 X61.125 Y64.944 
G1 F600 X60.066 Y63.884 E0.26989
G1 F12000 X60.635 Y63.604 
G1 F600 X61.694 Y64.664 E0.26989
G1 F12000 X62.304 Y64.425 
G1 F600 X61.202 Y63.324 E0.28058
G1 F12000 X61.774 Y63.047 
G1 F600 X62.989 Y64.261 E0.30937
G1 F12000 X63.773 Y64.197 
G1 F600 X62.394 Y62.818 E0.35127
G1 F12000 X63.221 Y62.796 
G1 F600 X64.615 Y64.191 E0.35522
G1 F12000 X65.457 Y64.184 
G1 F600 X64.065 Y62.792 E0.35458
G1 F12000 X64.910 Y62.788 
G1 F600 X66.299 Y64.178 E0.35395
G1 F12000 X67.141 Y64.172 
G1 F600 X65.755 Y62.785 E0.35318
G1 F12000 X66.599 Y62.781 
G1 F600 X67.890 Y64.071 E0.32873
G1 F12000 X68.527 Y63.860 
G1 F600 X67.395 Y62.728 E0.28835
G1 F12000 X68.039 Y62.524 
G1 F600 X69.085 Y63.570 E0.26645
G1 F12000 X69.577 Y63.213 
G1 F600 X68.573 Y62.209 E0.25575
G1 F12000 X69.002 Y61.789 
G1 F600 X70.009 Y62.797 E0.25664
G1 F12000 X70.375 Y62.314 
G1 F600 X69.336 Y61.275 E0.26466
G1 F12000 X69.562 Y60.652 
G1 F600 X70.678 Y61.769 E0.28441
G1 F12000 X70.904 Y61.146 
G1 F600 X69.637 Y59.879 E0.32274
G1 F12000 X69.637 Y59.031 
G1 F600 X71.039 Y60.432 E0.35700
G1 F12000 X71.067 Y59.611 
G1 F600 X69.638 Y58.183 E0.36388
G1 F12000 X69.639 Y57.335 
G1 F600 X71.084 Y58.780 E0.36808
G1 F12000 X71.160 Y58.008 
G1 F600 X69.639 Y56.487 E0.38744
G1 F12000 X69.640 Y55.639 
G1 F600 X71.344 Y57.343 E0.43406
G1 F12000 X71.600 Y56.751 
G1 F600 X69.640 Y54.790 E0.49940
G1 F12000 X69.640 Y53.943 
G1 F600 X71.920 Y56.222 E0.58066
G1 F12000 X72.298 Y55.751 
G1 F600 X69.641 Y53.095 E0.67669
G1 F12000 X69.641 Y52.246 
G1 F600 X72.727 Y55.332 E0.78610
G1 F12000 X73.213 Y54.969 
G1 F600 X69.666 Y51.422 E0.90353
G1 F12000 X69.864 Y50.772 
G1 F600 X73.755 Y54.663 E0.99115
G1 F12000 X74.360 Y54.420 
G1 F600 X70.251 Y50.311 E1.04668
G1 F12000 X70.804 Y50.015 
G1 F600 X75.045 Y54.256 E1.08031
G1 F12000 X75.840 Y54.202 
G1 F600 X71.600 Y49.963 E1.07993
G1 F12000 X73.158 Y50.672 
G1 F600 X76.782 Y54.296 E0.92314
G1 F12000 X78.145 Y54.810 
G1 F600 X74.890 Y51.555 E0.82914
G1 F12000 X76.622 Y52.439 
G1 F600 X79.883 Y55.700 E0.83067
G1 F12000 X81.621 Y56.589 
G1 F600 X78.354 Y53.322 E0.83220
G1 F12000 X80.086 Y54.206 
G1 F600 X83.358 Y57.478 E0.83348
G1 F12000 X83.550 Y55.973 
G1 F600 X86.834 Y59.256 E0.83640
G1 F12000 X87.014 Y57.740 
G1 F600 X90.310 Y61.036 E0.83959
G1 F12000 X90.477 Y59.506 
G1 F600 X93.785 Y62.814 E0.84265
G1 F12000 X93.941 Y61.273 
G1 F600 X99.089 Y66.421 E1.31135
G1 F12000 X98.431 Y66.611 
G1 F600 X92.210 Y60.390 E1.58467
G1 F12000 X92.047 Y61.924 
G1 F600 X88.746 Y58.623 E0.84086
G1 F12000 X88.572 Y60.146 
G1 F600 X85.282 Y56.856 E0.83806
G1 F12000 X85.096 Y58.368 
G1 F600 X81.818 Y55.089 E0.83513
G1 F12000 X95.673 Y62.156 
G1 F600 X99.838 Y66.321 E1.06095
G1 F12000 X100.713 Y66.347 
G1 F600 X97.406 Y63.040 E0.84239
G1 F12000 X99.137 Y63.923 
G1 F600 X101.860 Y66.646 E0.69363
G1 F12000 X102.601 Y65.690 
G1 F600 X104.709 Y67.798 E0.53697
G1 F12000 X104.333 Y66.574 
G1 F600 X106.133 Y68.374 E0.45851
G1 F12000 X106.065 Y67.457 
G1 F600 X107.558 Y68.950 E0.38031
G1 F12000 X107.797 Y68.341 
G1 F600 X108.982 Y69.526 E0.30185
G1 F12000 X109.529 Y69.224 
G1 F600 X110.407 Y70.102 E0.22365
G1 F12000 X111.261 Y70.107 
G1 F600 X111.831 Y70.678 E0.14532
G1 F12000 X112.992 Y70.990 
G1 F600 X113.255 Y71.253 E0.06699
G1 F12000 X103.285 Y67.223 
G1 F600 X100.869 Y64.807 E0.61543
G1 F12000 X97.851 Y66.880 
G1 F600 X96.347 Y65.376 E0.38311
G1 F12000 X96.662 Y66.539 
G1 F600 X97.098 Y67.400 E0.17036
G1 F600 X96.702 Y67.428 E0.07151
G1 F12000 X89.272 Y82.908 
G1 F600 X89.200 Y83.261 E0.03656
G1 F600 X89.598 Y84.083 E0.16450
G1 F12000 X92.781 Y86.285 
G1 F12000 X98.572 Y87.966 
G1 F600 X101.606 Y90.999 E0.77272
G1 F12000 X101.114 Y91.356 
G1 F600 X101.006 Y91.248 E0.02751
G1 F12000 X102.142 Y90.687 
G1 F600 X99.525 Y88.070 E0.66663
G1 F12000 X100.479 Y88.175 
G1 F600 X102.725 Y90.421 E0.57212
G1 F12000 X103.364 Y90.211 
G1 F600 X101.432 Y88.280 E0.49201
G1 F12000 X102.385 Y88.384 
G1 F600 X104.067 Y90.067 E0.42858
G1 F12000 X104.856 Y90.006 
G1 F600 X103.338 Y88.489 E0.38655
G1 F12000 X104.291 Y88.594 
G1 F600 X105.759 Y90.062 E0.37394
G1 F12000 X106.876 Y90.330 
G1 F600 X105.245 Y88.698 E0.41559
G1 F12000 X106.198 Y88.803 
G1 F600 X108.873 Y91.479 E0.68153
G1 F12000 X109.589 Y92.194 
G1 F600 X109.730 Y92.336 E0.03604
G1 F12000 X110.050 Y91.807 
G1 F600 X107.151 Y88.908 E0.73846
G1 F12000 X108.104 Y89.012 
G1 F600 X110.477 Y91.385 E0.60447
G1 F12000 X110.995 Y91.055 
G1 F600 X109.057 Y89.117 E0.49367
G1 F12000 X110.010 Y89.222 
G1 F600 X111.621 Y90.832 E0.41024
G1 F12000 X112.418 Y90.781 
G1 F600 X110.964 Y89.326 E0.37050
G1 F12000 X111.916 Y89.430 
G1 F600 X113.371 Y90.885 E0.37063
G1 F12000 X114.324 Y90.989 
G1 F600 X112.869 Y89.535 E0.37050
G1 F12000 X113.822 Y89.639 
G1 F600 X115.276 Y91.093 E0.37038
G1 F12000 X116.229 Y91.197 
G1 F600 X114.776 Y89.744 E0.37012
G1 F12000 X115.729 Y89.849 
G1 F600 X117.181 Y91.301 E0.36987
G1 F12000 X118.134 Y91.406 
G1 F600 X116.682 Y89.953 E0.36999
G1 F12000 X117.635 Y90.058 
G1 F600 X119.087 Y91.510 E0.36987
G1 F12000 X120.039 Y91.614 
G1 F600 X118.588 Y90.163 E0.36961
G1 F12000 X119.542 Y90.267 
G1 F600 X120.993 Y91.718 E0.36961
G1 F12000 X121.945 Y91.822 
G1 F600 X120.495 Y90.372 E0.36936
G1 F12000 X121.448 Y90.477 
G1 F600 X122.897 Y91.926 E0.36910
G1 F12000 X123.851 Y92.031 
G1 F600 X122.401 Y90.581 E0.36936
G1 F12000 X123.354 Y90.686 
G1 F600 X124.803 Y92.135 E0.36910
G1 F12000 X125.756 Y92.239 
G1 F600 X124.307 Y90.791 E0.36898
G1 F12000 X125.261 Y90.895 
G1 F600 X126.708 Y92.343 E0.36872
G1 F12000 X127.661 Y92.447 
G1 F600 X126.214 Y91.000 E0.36859
G1 F12000 X127.167 Y91.105 
G1 F600 X128.614 Y92.551 E0.36847
G1 F12000 X129.566 Y92.655 
G1 F600 X128.120 Y91.209 E0.36834
G1 F12000 X129.073 Y91.314 
G1 F600 X130.519 Y92.760 E0.36834
G1 F12000 X131.472 Y92.864 
G1 F600 X130.027 Y91.419 E0.36808
G1 F12000 X130.979 Y91.522 
G1 F600 X132.424 Y92.968 E0.36821
G1 F12000 X133.378 Y93.072 
G1 F600 X131.932 Y91.627 E0.36821
G1 F12000 X132.885 Y91.732 
G1 F600 X134.330 Y93.176 E0.36796
G1 F12000 X135.282 Y93.280 
G1 F600 X133.839 Y91.836 E0.36770
G1 F12000 X134.792 Y91.941 
G1 F600 X136.235 Y93.384 E0.36757
G1 F12000 X137.188 Y93.489 
G1 F600 X135.745 Y92.046 E0.36757
G1 F12000 X136.698 Y92.150 
G1 F600 X138.141 Y93.593 E0.36757
G1 F12000 X139.168 Y93.772 
G1 F600 X137.651 Y92.255 E0.38642
G1 F12000 X138.604 Y92.360 
G1 F600 X140.642 Y94.397 E0.51901
G1 F12000 X140.992 Y93.899 
G1 F600 X139.558 Y92.464 E0.36541
G1 F12000 X140.511 Y92.569 
G1 F600 X141.393 Y93.451 E0.22467
G1 F12000 X141.844 Y93.054 
G1 F600 X141.464 Y92.674 E0.09680
G1 F12000 X146.684 Y93.334 
G1 F12000 X149.669 Y95.820 
G1 F12000 X150.259 Y98.083 
G1 F12000 X151.349 Y98.692 
G1 F12000 X160.748 Y98.610 
G1 F12000 X162.460 Y98.396 
G1 F600 X162.682 Y98.194 E0.04343
G1 F600 X163.480 Y98.567 E0.15866
G1 F12000 X164.328 Y98.567 
G1 F600 X162.889 Y97.128 E0.36656
G1 F12000 X163.216 Y96.607 
G1 F600 X165.177 Y98.567 E0.49940
G1 F12000 X166.025 Y98.567 
G1 F600 X164.949 Y97.491 E0.27409
G1 F12000 X166.683 Y98.376 
G1 F600 X166.860 Y98.554 E0.04521
G1 F12000 X151.017 Y98.606 
G1 F12000 X149.942 Y97.551 
G1 F12000 X147.557 Y93.893 
G1 F12000 X145.187 Y92.947 
G1 F12000 X142.714 Y93.587 
G1 F12000 X141.101 Y95.564 
G1 F12000 X140.967 Y98.242 
G1 F12000 X139.570 Y95.122 
G1 F12000 X138.508 Y94.580 
G1 F12000 X61.928 Y85.262 
G1 F600 X60.145 Y83.480 E0.45406
G1 F12000 X60.022 Y85.054 
G1 F600 X56.157 Y81.188 E0.98466
G1 F12000 X56.158 Y82.038 
G1 F600 X59.070 Y84.950 E0.74177
G1 F12000 X58.117 Y84.846 
G1 F600 X56.160 Y82.889 E0.49851
G1 F12000 X56.339 Y83.916 
G1 F600 X57.030 Y84.607 E0.17602
G1 F12000 X54.965 Y74.134 
G1 F12000 X54.145 Y72.389 
G1 F600 X50.408 Y68.651 E0.95205
G1 F12000 X49.839 Y68.931 
G1 F600 X53.209 Y72.301 E0.85844
G1 F12000 X52.361 Y72.301 
G1 F600 X49.271 Y69.212 E0.78699
G1 F12000 X48.703 Y69.492 
G1 F600 X51.512 Y72.300 E0.71541
G1 F12000 X50.662 Y72.300 
G1 F600 X48.135 Y69.773 E0.64370
G1 F12000 X47.567 Y70.053 
G1 F600 X49.814 Y72.300 E0.57238
G1 F12000 X48.965 Y72.299 
G1 F600 X46.999 Y70.333 E0.50080
G1 F12000 X46.430 Y70.613 
G1 F600 X48.116 Y72.299 E0.42947
G1 F12000 X47.267 Y72.298 
G1 F600 X45.862 Y70.894 E0.35777
G1 F12000 X45.294 Y71.174 
G1 F600 X45.934 Y71.814 E0.16306 ;Remainder pre close towards end
G1 F600 X46.418 Y72.298 B0.79 ; Start of overwrite close towards end
G1 F12000 X45.569 Y72.298 
G1 F600 X44.442 Y71.595 B0.44
G1 F600 X44.220 Y72.222 B0.2
G1 F600 X43.590 Y72.015 B0
M104 S;Go to nozzle temperature from loaded reel - don't wait
M140;Go to bed temperature from loaded reel - don't wait
;LAYER:1 height:0.550
M106 S127
G1 F12000 X43.332 Y72.857 Z0.550 
T0
;TYPE:WALL-INNER
G1 B1 F150 E0.60000
G1 F1800 X42.911 Y72.682 E0.04334
G1 F1800 X42.505 Y72.456 E0.04417
G1 F1800 X42.137 Y72.193 E0.04300
G1 F1800 X41.887 Y71.967 E0.03204
G1 F1800 X61.586 Y62.254 E2.08793
G1 F1800 X61.871 Y62.133 E0.02943
G1 F1800 X62.138 Y62.055 E0.02644
G1 F1800 X62.412 Y62.007 E0.02644
G1 F1800 X66.967 Y61.989 E0.43302
G1 F1800 X67.413 Y61.929 E0.04278
G1 F1800 X67.863 Y61.742 E0.04633
G1 F1800 X68.157 Y61.536 E0.03413
G1 F1800 X68.385 Y61.309 E0.03059
G1 F1800 X68.514 Y61.141 E0.02014
G1 F1800 X68.684 Y60.846 E0.03237
G1 F1800 X68.837 Y60.361 E0.04835
G1 F1800 X68.853 Y51.639 E0.82915
G1 F1800 X68.903 Y51.113 E0.05023
G1 F1800 X68.978 Y50.825 E0.02829
G1 F1800 X69.097 Y50.528 E0.03042
G1 F1800 X69.245 Y50.264 E0.02877
G1 F1800 X69.426 Y50.020 E0.02888
G1 F1800 X69.792 Y49.664 E0.04854
G1 F1800 X69.877 Y49.599 E0.01017
G1 F1800 X70.166 Y49.422 E0.03222
G1 F1800 X70.446 Y49.296 E0.02919
G1 F1800 X70.740 Y49.207 E0.02920
G1 F1800 X71.055 Y49.155 E0.03035
G1 F1800 X71.365 Y49.142 E0.02950
G1 F1800 X71.659 Y49.168 E0.02806
G1 F1800 X72.132 Y49.288 E0.04639
G1 F1800 X72.447 Y49.423 E0.03258
G1 F1800 X149.197 Y88.571 E8.19047
G1 F1800 X149.667 Y88.810 E0.05012
G1 F1800 X156.561 Y92.326 E0.73568
G1 F1800 X157.117 Y92.610 E0.05935
G1 F1800 X168.646 Y98.490 E1.23031
G1 F1800 X168.646 Y100.265 E0.16874
G1 F1800 X168.636 Y100.393 E0.01221
G1 F1800 X168.615 Y100.478 E0.00832
G1 F1800 X168.580 Y100.561 E0.00856
G1 F1800 X168.537 Y100.631 E0.00781
G1 F1800 X168.417 Y100.751 E0.01613
G1 F1800 X168.341 Y100.797 E0.00845
G1 F1800 X168.269 Y100.827 E0.00741
G1 F1800 X168.181 Y100.848 E0.00860
G1 F1800 X168.096 Y100.855 E0.00811
G1 F1800 X168.011 Y100.848 E0.00811
G1 F1800 X167.923 Y100.827 E0.00860
G1 F1800 X167.849 Y100.796 E0.00763
G1 F1800 X167.772 Y100.749 E0.00858
G1 F1800 X167.711 Y100.697 E0.00762
G1 F1800 X167.607 Y100.553 E0.01689
G1 F1800 X167.575 Y100.478 E0.00775
G1 F1800 X167.556 Y100.397 E0.00791
G1 F1800 X167.473 Y99.358 E0.09909
G1 F1800 X150.695 Y99.358 E1.59498
G1 F1800 X150.369 Y99.338 E0.03105
G1 F1800 X150.075 Y99.283 E0.02843
G1 F1800 X149.792 Y99.194 E0.02820
G1 F1800 X149.523 Y99.072 E0.02808
G1 F1800 X148.697 Y98.519 E0.09450
G1 F1800 X148.722 Y98.446 E0.00734
G1 F1800 X149.077 Y98.446 E0.03375
G1 F1800 X149.178 Y97.087 E0.12955
G1 F1800 X149.151 Y96.553 E0.05083
G1 F1800 X149.055 Y96.025 E0.05102
G1 F1800 X148.895 Y95.510 E0.05127
G1 F1800 X148.670 Y95.022 E0.05108
G1 F1800 X148.384 Y94.564 E0.05133
G1 F1800 X148.045 Y94.149 E0.05094
G1 F1800 X147.654 Y93.777 E0.05130
G1 F1800 X147.222 Y93.460 E0.05094
G1 F1800 X146.749 Y93.197 E0.05145
G1 F1800 X146.251 Y92.998 E0.05098
G1 F1800 X145.728 Y92.863 E0.05135
G1 F1800 X145.197 Y92.796 E0.05088
G1 F1800 X144.657 Y92.796 E0.05133
G1 F1800 X144.126 Y92.863 E0.05088
G1 F1800 X143.603 Y92.998 E0.05135
G1 F1800 X143.103 Y93.197 E0.05116
G1 F1800 X142.632 Y93.460 E0.05128
G1 F1800 X142.199 Y93.777 E0.05101
G1 F1800 X141.809 Y94.149 E0.05124
G1 F1800 X141.469 Y94.564 E0.05100
G1 F1800 X141.184 Y95.023 E0.05136
G1 F1800 X140.960 Y95.509 E0.05087
G1 F1800 X140.798 Y96.024 E0.05132
G1 F1800 X140.702 Y96.553 E0.05111
G1 F1800 X140.675 Y97.088 E0.05092
G1 F1800 X140.779 Y98.446 E0.12947
G1 F1800 X141.131 Y98.446 E0.03346
G1 F1800 X141.151 Y98.507 E0.00610
G1 F1800 X141.156 Y98.519 E0.00124
G1 F1800 X140.658 Y98.869 E0.05786
G1 F1800 X140.607 Y98.898 E0.00558
G1 F1800 X140.587 Y98.901 E0.00192
G1 F1800 X140.561 Y98.889 E0.00272
G1 F1800 X140.553 Y98.881 E0.00108
G1 F1800 X140.391 Y98.440 E0.04466
G1 F1800 X140.275 Y97.989 E0.04427
G1 F1800 X140.204 Y97.521 E0.04500
G1 F1800 X140.178 Y97.029 E0.04684
G1 F1800 X140.215 Y96.348 E0.06483
G1 F1800 X140.160 Y95.885 E0.04432
G1 F1800 X139.973 Y95.412 E0.04835
G1 F1800 X139.670 Y95.000 E0.04862
G1 F1800 X139.271 Y94.686 E0.04827
G1 F1800 X138.830 Y94.491 E0.04584
G1 F1800 X138.514 Y94.428 E0.03063
G1 F1800 X112.373 Y91.571 E2.49986
G1 F1800 X112.082 Y91.564 E0.02767
G1 F1800 X111.761 Y91.611 E0.03084
G1 F1800 X111.451 Y91.711 E0.03097
G1 F1800 X111.160 Y91.861 E0.03112
G1 F1800 X110.898 Y92.059 E0.03122
G1 F1800 X110.673 Y92.297 E0.03114
G1 F1800 X110.492 Y92.567 E0.03090
G1 F1800 X110.356 Y92.869 E0.03149
G1 F1800 X110.277 Y93.186 E0.03106
G1 F1800 X110.247 Y93.509 E0.03084
G1 F1800 X110.276 Y93.847 E0.03225
G1 F1800 X110.526 Y94.735 E0.08770
G1 F1800 X110.626 Y95.301 E0.05464
G1 F1800 X110.675 Y95.931 E0.06007
G1 F1800 X110.655 Y96.524 E0.05640
G1 F1800 X110.576 Y97.098 E0.05508
G1 F1800 X110.433 Y97.685 E0.05743
G1 F1800 X110.228 Y98.259 E0.05794
G1 F1800 X109.972 Y98.791 E0.05612
G1 F1800 X109.660 Y99.299 E0.05667
G1 F1800 X109.638 Y99.326 E0.00331
G1 F1800 X109.623 Y99.336 E0.00171
G1 F1800 X109.606 Y99.341 E0.00168
G1 F1800 X109.577 Y99.334 E0.00284
G1 F1800 X109.527 Y99.295 E0.00603
G1 F1800 X109.103 Y98.871 E0.05700
G1 F1800 X109.439 Y98.308 E0.06233
G1 F1800 X109.654 Y97.817 E0.05096
G1 F1800 X109.727 Y97.589 E0.02276
G1 F1800 X110.062 Y97.589 E0.03185
G1 F1800 X110.177 Y96.145 E0.13771
G1 F1800 X110.153 Y95.525 E0.05898
G1 F1800 X110.055 Y94.910 E0.05920
G1 F1800 X109.886 Y94.311 E0.05917
G1 F1800 X109.646 Y93.735 E0.05932
G1 F1800 X109.339 Y93.191 E0.05938
G1 F1800 X108.971 Y92.689 E0.05917
G1 F1800 X108.545 Y92.232 E0.05939
G1 F1800 X108.068 Y91.830 E0.05930
G1 F1800 X107.546 Y91.487 E0.05938
G1 F1800 X106.989 Y91.210 E0.05914
G1 F1800 X106.403 Y90.999 E0.05921
G1 F1800 X105.794 Y90.859 E0.05940
G1 F1800 X105.174 Y90.793 E0.05927
G1 F1800 X104.551 Y90.801 E0.05923
G1 F1800 X103.933 Y90.883 E0.05926
G1 F1800 X103.329 Y91.036 E0.05923
G1 F1800 X102.747 Y91.261 E0.05932
G1 F1800 X102.196 Y91.553 E0.05928
G1 F1800 X101.683 Y91.909 E0.05936
G1 F1800 X101.217 Y92.322 E0.05919
G1 F1800 X100.801 Y92.788 E0.05938
G1 F1800 X100.446 Y93.301 E0.05931
G1 F1800 X100.153 Y93.850 E0.05916
G1 F1800 X99.927 Y94.432 E0.05935
G1 F1800 X99.772 Y95.035 E0.05919
G1 F1800 X99.690 Y95.647 E0.05870
G1 F1800 X99.683 Y96.096 E0.04269
G1 F1800 X99.000 Y98.643 E0.25068
G1 F1800 X98.403 Y98.483 E0.05876
G1 F1800 X98.351 Y98.456 E0.00557
G1 F1800 X98.344 Y98.432 E0.00238
G1 F1800 X98.353 Y98.356 E0.00728
G1 F1800 X99.370 Y94.564 E0.37322
G1 F1800 X99.536 Y94.042 E0.05207
G1 F1800 X99.754 Y93.532 E0.05273
G1 F1800 X100.049 Y92.991 E0.05858
G1 F1800 X100.180 Y92.734 E0.02742
G1 F1800 X100.277 Y92.422 E0.03106
G1 F1800 X100.320 Y92.097 E0.03117
G1 F1800 X100.309 Y91.769 E0.03120
G1 F1800 X100.242 Y91.450 E0.03099
G1 F1800 X100.125 Y91.144 E0.03114
G1 F1800 X99.954 Y90.862 E0.03135
G1 F1800 X99.745 Y90.615 E0.03076
G1 F1800 X99.491 Y90.403 E0.03145
G1 F1800 X99.210 Y90.240 E0.03088
G1 F1800 X98.909 Y90.125 E0.03063
G1 F1800 X98.622 Y90.068 E0.02782
G1 F1800 X57.572 Y85.583 E3.92559
G1 F1800 X57.242 Y85.526 E0.03184
G1 F1800 X56.955 Y85.440 E0.02848
G1 F1800 X56.683 Y85.321 E0.02822
G1 F1800 X56.429 Y85.170 E0.02809
G1 F1800 X56.192 Y84.988 E0.02841
G1 F1800 X55.981 Y84.779 E0.02823
G1 F1800 X55.796 Y84.544 E0.02843
G1 F1800 X55.639 Y84.288 E0.02855
G1 F1800 X55.519 Y84.023 E0.02765
G1 F1800 X55.425 Y83.727 E0.02952
G1 F1800 X55.375 Y83.456 E0.02620
G1 F1800 X55.353 Y82.856 E0.05708
G1 F1800 X55.353 Y74.977 E0.74901
G1 F1800 X55.297 Y74.551 E0.04085
G1 F1800 X55.173 Y74.212 E0.03431
G1 F1800 X55.003 Y73.918 E0.03228
G1 F1800 X54.784 Y73.658 E0.03232
G1 F1800 X54.525 Y73.440 E0.03218
G1 F1800 X54.211 Y73.258 E0.03450
G1 F1800 X53.725 Y73.104 E0.04847
G1 F1800 X44.693 Y73.089 E0.85862
G1 F1800 X44.237 Y73.063 E0.04342
G1 F1800 X43.779 Y72.986 E0.04415
G1 F1800 X43.332 Y72.857 E0.04423
G1 F12000 X54.059 Y73.599 
G1 F12000 X58.353 Y74.718 
G1 F1800 X58.353 Y79.288 E0.43444
G1 F1800 X58.381 Y79.741 E0.04315
G1 F1800 X58.468 Y80.211 E0.04544
G1 F1800 X58.612 Y80.669 E0.04564
G1 F1800 X58.811 Y81.109 E0.04591
G1 F1800 X59.062 Y81.518 E0.04562
G1 F1800 X59.360 Y81.897 E0.04583
G1 F1800 X59.705 Y82.235 E0.04591
G1 F1800 X60.085 Y82.528 E0.04562
G1 F1800 X60.498 Y82.772 E0.04560
G1 F1800 X60.938 Y82.966 E0.04571
G1 F1800 X61.397 Y83.103 E0.04554
G1 F1800 X61.844 Y83.181 E0.04314
G1 F1800 X84.175 Y85.622 E2.13552
G1 F1800 X84.625 Y85.643 E0.04283
G1 F1800 X85.099 Y85.608 E0.04518
G1 F1800 X85.565 Y85.516 E0.04515
G1 F1800 X86.020 Y85.370 E0.04543
G1 F1800 X86.453 Y85.168 E0.04542
G1 F1800 X86.858 Y84.917 E0.04530
G1 F1800 X87.229 Y84.618 E0.04530
G1 F1800 X87.562 Y84.279 E0.04517
G1 F1800 X87.851 Y83.901 E0.04523
G1 F1800 X88.080 Y83.512 E0.04291
G1 F1800 X95.508 Y68.950 E1.55402
G1 F1800 X95.700 Y68.501 E0.04642
G1 F1800 X95.839 Y68.008 E0.04869
G1 F1800 X95.913 Y67.496 E0.04918
G1 F1800 X95.921 Y66.980 E0.04906
G1 F1800 X95.860 Y66.466 E0.04921
G1 F1800 X95.734 Y65.965 E0.04911
G1 F1800 X95.541 Y65.484 E0.04927
G1 F1800 X95.290 Y65.033 E0.04907
G1 F1800 X94.980 Y64.620 E0.04909
G1 F1800 X94.620 Y64.249 E0.04914
G1 F1800 X94.193 Y63.912 E0.05171
G1 F1800 X85.236 Y59.313 E0.95717
G1 F1800 X77.571 Y55.404 E0.81795
G1 F1800 X77.133 Y55.215 E0.04535
G1 F1800 X76.650 Y55.076 E0.04778
G1 F1800 X76.153 Y55.001 E0.04778
G1 F1800 X75.650 Y54.988 E0.04783
G1 F1800 X75.149 Y55.039 E0.04787
G1 F1800 X74.656 Y55.154 E0.04812
G1 F1800 X74.185 Y55.332 E0.04787
G1 F1800 X73.739 Y55.566 E0.04788
G1 F1800 X73.326 Y55.858 E0.04808
G1 F1800 X72.955 Y56.197 E0.04777
G1 F1800 X72.630 Y56.582 E0.04790
G1 F1800 X72.355 Y57.005 E0.04796
G1 F1800 X72.138 Y57.460 E0.04792
G1 F1800 X71.979 Y57.938 E0.04789
G1 F1800 X71.880 Y58.449 E0.04948
G1 F1800 X71.853 Y59.506 E0.10052
G1 F1800 X71.822 Y60.570 E0.10119
G1 F1800 X71.744 Y61.067 E0.04783
G1 F1800 X71.611 Y61.564 E0.04891
G1 F1800 X71.421 Y62.056 E0.05014
G1 F1800 X71.191 Y62.510 E0.04838
G1 F1800 X70.909 Y62.943 E0.04912
G1 F1800 X70.577 Y63.353 E0.05015
G1 F1800 X70.217 Y63.713 E0.04840
G1 F1800 X69.810 Y64.042 E0.04975
G1 F1800 X69.376 Y64.325 E0.04925
G1 F1800 X68.913 Y64.560 E0.04936
G1 F1800 X68.428 Y64.746 E0.04938
G1 F1800 X67.934 Y64.879 E0.04863
G1 F1800 X67.434 Y64.958 E0.04812
G1 F1800 X66.869 Y64.989 E0.05379
G1 F1800 X63.719 Y64.989 E0.29945
G1 F1800 X63.293 Y65.013 E0.04056
G1 F1800 X62.847 Y65.091 E0.04304
G1 F1800 X62.415 Y65.218 E0.04281
G1 F1800 X60.530 Y66.120 E0.19865
G1 F1800 X60.130 Y66.349 E0.04382
G1 F1800 X59.741 Y66.640 E0.04618
G1 F1800 X59.389 Y66.980 E0.04652
G1 F1800 X59.084 Y67.358 E0.04617
G1 F1800 X58.824 Y67.774 E0.04664
G1 F1800 X58.620 Y68.217 E0.04636
G1 F1800 X58.471 Y68.683 E0.04651
G1 F1800 X58.376 Y69.188 E0.04885
G1 F1800 X58.353 Y74.718 E0.52571
G1 F12000 X58.959 Y80.537 
G1 F12000 X60.293 Y82.220 
G1 F12000 X61.897 Y82.814 
G1 F12000 X85.049 Y85.240 
G1 F12000 X86.980 Y84.343 
G1 F12000 X90.283 Y81.900 
G1 F1800 X90.208 Y82.400 E0.04806
G1 F1800 X90.196 Y82.911 E0.04859
G1 F1800 X90.251 Y83.417 E0.04839
G1 F1800 X90.371 Y83.913 E0.04851
G1 F1800 X90.553 Y84.387 E0.04827
G1 F1800 X90.796 Y84.836 E0.04853
G1 F1800 X91.092 Y85.248 E0.04823
G1 F1800 X91.442 Y85.621 E0.04862
G1 F1800 X91.834 Y85.944 E0.04829
G1 F1800 X92.265 Y86.213 E0.04830
G1 F1800 X92.726 Y86.426 E0.04828
G1 F1800 X93.239 Y86.586 E0.05108
G1 F1800 X145.413 Y92.313 E4.98965
G1 F1800 X145.862 Y92.388 E0.04328
G1 F1800 X146.399 Y92.528 E0.05276
G1 F1800 X146.487 Y92.553 E0.00870
G1 F1800 X146.963 Y92.748 E0.04890
G1 F1800 X147.427 Y93.001 E0.05024
G1 F1800 X147.863 Y93.306 E0.05058
G1 F1800 X148.250 Y93.647 E0.04903
G1 F1800 X148.606 Y94.037 E0.05020
G1 F1800 X148.915 Y94.462 E0.04995
G1 F1800 X149.178 Y94.924 E0.05054
G1 F1800 X149.384 Y95.401 E0.04939
G1 F1800 X149.538 Y95.906 E0.05019
G1 F1800 X149.635 Y96.425 E0.05019
G1 F1800 X149.706 Y97.278 E0.08137
G1 F1800 X149.800 Y97.605 E0.03234
G1 F1800 X149.946 Y97.908 E0.03197
G1 F1800 X150.143 Y98.182 E0.03208
G1 F1800 X150.385 Y98.418 E0.03213
G1 F1800 X150.658 Y98.606 E0.03151
G1 F1800 X150.965 Y98.748 E0.03216
G1 F1800 X151.328 Y98.844 E0.03569
G1 F1800 X158.341 Y98.860 E0.66668
G1 F1800 X160.199 Y98.860 E0.17663
G1 F1800 X160.506 Y98.831 E0.02931
G1 F1800 X160.809 Y98.750 E0.02982
G1 F1800 X161.123 Y98.606 E0.03284
G1 F1800 X161.381 Y98.430 E0.02969
G1 F1800 X161.610 Y98.213 E0.02999
G1 F1800 X161.841 Y97.900 E0.03698
G1 F1800 X162.049 Y97.404 E0.05113
G1 F1800 X162.102 Y97.069 E0.03224
G1 F1800 X162.103 Y96.802 E0.02538
G1 F1800 X162.092 Y96.660 E0.01354
G1 F1800 X162.025 Y96.353 E0.02987
G1 F1800 X161.918 Y96.066 E0.02912
G1 F1800 X161.742 Y95.767 E0.03298
G1 F1800 X161.373 Y95.378 E0.05097
G1 F1800 X161.081 Y95.193 E0.03286
G1 F1800 X125.601 Y77.096 E3.78628
G1 F1800 X101.559 Y67.377 E2.46521
G1 F1800 X101.121 Y67.231 E0.04389
G1 F1800 X100.646 Y67.135 E0.04607
G1 F1800 X100.159 Y67.098 E0.04643
G1 F1800 X99.670 Y67.122 E0.04654
G1 F1800 X99.190 Y67.206 E0.04632
G1 F1800 X98.723 Y67.348 E0.04640
G1 F1800 X98.278 Y67.547 E0.04634
G1 F1800 X97.860 Y67.798 E0.04635
G1 F1800 X97.476 Y68.100 E0.04644
G1 F1800 X97.132 Y68.447 E0.04645
G1 F1800 X96.836 Y68.831 E0.04609
G1 F1800 X96.600 Y69.228 E0.04391
G1 F1800 X90.611 Y80.970 E1.25305
G1 F1800 X90.421 Y81.414 E0.04591
G1 F1800 X90.283 Y81.900 E0.04803
G1 F12000 X90.655 Y81.980 
G1 F1800 X90.587 Y82.433 E0.04355
G1 F1800 X90.576 Y82.895 E0.04393
G1 F1800 X90.626 Y83.351 E0.04361
G1 F1800 X90.735 Y83.800 E0.04392
G1 F1800 X90.899 Y84.228 E0.04357
G1 F1800 X91.119 Y84.634 E0.04390
G1 F1800 X91.386 Y85.006 E0.04353
G1 F1800 X91.702 Y85.343 E0.04392
G1 F1800 X92.056 Y85.635 E0.04362
G1 F1800 X92.446 Y85.878 E0.04368
G1 F1800 X92.863 Y86.071 E0.04368
G1 F1800 X93.317 Y86.213 E0.04522
G1 F1800 X145.478 Y91.938 E4.98840
G1 F1800 X145.930 Y92.014 E0.04357
G1 F1800 X146.519 Y92.167 E0.05785
G1 F1800 X146.602 Y92.191 E0.00821
G1 F1800 X147.137 Y92.410 E0.05496
G1 F1800 X147.630 Y92.679 E0.05339
G1 F1800 X148.093 Y93.002 E0.05367
G1 F1800 X148.519 Y93.377 E0.05395
G1 F1800 X148.902 Y93.797 E0.05404
G1 F1800 X149.237 Y94.259 E0.05425
G1 F1800 X149.517 Y94.750 E0.05373
G1 F1800 X149.742 Y95.272 E0.05404
G1 F1800 X149.908 Y95.815 E0.05398
G1 F1800 X150.012 Y96.372 E0.05387
G1 F1800 X150.081 Y97.208 E0.07974
G1 F1800 X150.157 Y97.469 E0.02584
G1 F1800 X150.274 Y97.713 E0.02572
G1 F1800 X150.432 Y97.933 E0.02575
G1 F1800 X150.627 Y98.123 E0.02588
G1 F1800 X150.847 Y98.275 E0.02542
G1 F1800 X151.094 Y98.389 E0.02586
G1 F1800 X151.378 Y98.464 E0.02792
G1 F1800 X158.341 Y98.480 E0.66193
G1 F1800 X160.182 Y98.480 E0.17501
G1 F1800 X160.438 Y98.456 E0.02444
G1 F1800 X160.680 Y98.391 E0.02382
G1 F1800 X160.935 Y98.274 E0.02667
G1 F1800 X161.142 Y98.133 E0.02381
G1 F1800 X161.325 Y97.960 E0.02394
G1 F1800 X161.508 Y97.711 E0.02938
G1 F1800 X161.680 Y97.299 E0.04244
G1 F1800 X161.722 Y97.038 E0.02513
G1 F1800 X161.723 Y96.816 E0.02110
G1 F1800 X161.715 Y96.716 E0.00954
G1 F1800 X161.659 Y96.460 E0.02491
G1 F1800 X161.574 Y96.230 E0.02331
G1 F1800 X161.436 Y95.997 E0.02574
G1 F1800 X161.130 Y95.673 E0.04237
G1 F1800 X160.892 Y95.523 E0.02674
G1 F1800 X125.443 Y77.442 E3.78296
G1 F1800 X101.427 Y67.734 E2.46253
G1 F1800 X101.023 Y67.599 E0.04049
G1 F1800 X100.593 Y67.512 E0.04171
G1 F1800 X100.154 Y67.479 E0.04185
G1 F1800 X99.713 Y67.500 E0.04197
G1 F1800 X99.278 Y67.577 E0.04200
G1 F1800 X98.856 Y67.705 E0.04192
G1 F1800 X98.454 Y67.885 E0.04187
G1 F1800 X98.076 Y68.112 E0.04192
G1 F1800 X97.729 Y68.385 E0.04197
G1 F1800 X97.418 Y68.698 E0.04195
G1 F1800 X97.151 Y69.045 E0.04162
G1 F1800 X96.933 Y69.412 E0.04058
G1 F1800 X90.956 Y81.132 E1.25067
G1 F1800 X90.780 Y81.542 E0.04242
G1 F1800 X90.655 Y81.980 E0.04330
G1 F12000 X87.747 Y83.329 
G1 F1800 X95.164 Y68.789 E1.55168
G1 F1800 X95.341 Y68.374 E0.04289
G1 F1800 X95.467 Y67.929 E0.04397
G1 F1800 X95.533 Y67.466 E0.04446
G1 F1800 X95.541 Y67.000 E0.04431
G1 F1800 X95.486 Y66.535 E0.04451
G1 F1800 X95.371 Y66.083 E0.04434
G1 F1800 X95.198 Y65.648 E0.04450
G1 F1800 X94.970 Y65.241 E0.04435
G1 F1800 X94.690 Y64.867 E0.04441
G1 F1800 X94.365 Y64.532 E0.04437
G1 F1800 X93.987 Y64.233 E0.04582
G1 F1800 X85.063 Y59.652 E0.95360
G1 F1800 X77.409 Y55.748 E0.81680
G1 F1800 X77.005 Y55.573 E0.04185
G1 F1800 X76.569 Y55.448 E0.04312
G1 F1800 X76.119 Y55.380 E0.04326
G1 F1800 X75.664 Y55.368 E0.04327
G1 F1800 X75.212 Y55.415 E0.04320
G1 F1800 X74.767 Y55.518 E0.04342
G1 F1800 X74.341 Y55.679 E0.04329
G1 F1800 X73.938 Y55.891 E0.04329
G1 F1800 X73.565 Y56.154 E0.04339
G1 F1800 X73.229 Y56.461 E0.04327
G1 F1800 X72.935 Y56.809 E0.04331
G1 F1800 X72.687 Y57.191 E0.04330
G1 F1800 X72.491 Y57.602 E0.04329
G1 F1800 X72.347 Y58.034 E0.04329
G1 F1800 X72.259 Y58.490 E0.04415
G1 F1800 X72.233 Y59.511 E0.09709
G1 F1800 X72.233 Y60.026 E0.04896
G1 F1800 X72.202 Y60.600 E0.05465
G1 F1800 X72.115 Y61.148 E0.05275
G1 F1800 X71.972 Y61.685 E0.05283
G1 F1800 X71.769 Y62.210 E0.05351
G1 F1800 X71.521 Y62.700 E0.05221
G1 F1800 X71.214 Y63.171 E0.05345
G1 F1800 X70.860 Y63.608 E0.05346
G1 F1800 X70.472 Y63.996 E0.05216
G1 F1800 X70.035 Y64.350 E0.05346
G1 F1800 X69.567 Y64.654 E0.05305
G1 F1800 X69.067 Y64.908 E0.05331
G1 F1800 X68.546 Y65.108 E0.05305
G1 F1800 X68.018 Y65.250 E0.05198
G1 F1800 X67.464 Y65.338 E0.05333
G1 F1800 X66.890 Y65.369 E0.05465
G1 F1800 X63.729 Y65.369 E0.30050
G1 F1800 X63.336 Y65.391 E0.03742
G1 F1800 X62.934 Y65.461 E0.03879
G1 F1800 X62.543 Y65.576 E0.03874
G1 F1800 X62.181 Y65.729 E0.03736
G1 F1800 X60.708 Y66.456 E0.15616
G1 F1800 X60.339 Y66.667 E0.04041
G1 F1800 X59.988 Y66.930 E0.04170
G1 F1800 X59.670 Y67.237 E0.04202
G1 F1800 X59.394 Y67.579 E0.04178
G1 F1800 X59.159 Y67.955 E0.04215
G1 F1800 X58.975 Y68.355 E0.04186
G1 F1800 X58.840 Y68.776 E0.04203
G1 F1800 X58.756 Y69.224 E0.04333
G1 F1800 X58.733 Y74.719 E0.52238
G1 F1800 X58.733 Y79.276 E0.43321
G1 F1800 X58.759 Y79.695 E0.03991
G1 F1800 X58.838 Y80.119 E0.04100
G1 F1800 X58.967 Y80.534 E0.04131
G1 F1800 X59.148 Y80.931 E0.04148
G1 F1800 X59.375 Y81.301 E0.04127
G1 F1800 X59.644 Y81.642 E0.04129
G1 F1800 X59.955 Y81.948 E0.04148
G1 F1800 X60.298 Y82.213 E0.04120
G1 F1800 X60.672 Y82.434 E0.04130
G1 F1800 X61.070 Y82.609 E0.04133
G1 F1800 X61.484 Y82.733 E0.04108
G1 F1800 X61.897 Y82.805 E0.03985
G1 F1800 X84.205 Y85.243 E2.13331
G1 F1800 X84.620 Y85.262 E0.03949
G1 F1800 X85.048 Y85.231
G1 F1800 X85.470 Y85.148
G1 F1800 X85.881 Y85.016
G1 F1800 X86.272 Y84.833
G1 F1800 X86.638 Y84.606
G1 F1800 X86.974 Y84.336
G1 F1800 X87.274 Y84.029
G1 F1800 X87.536 Y83.688
G1 F1800 X87.747 Y83.329 E0.03959
G1 F12000 X98.564 Y90.444 
G1 F1800 X57.512 Y85.958 E3.92579
G1 F1800 X57.152 Y85.896 E0.03473
G1 F1800 X56.825 Y85.798 E0.03245
G1 F1800 X56.510 Y85.659 E0.03273
G1 F1800 X56.213 Y85.483 E0.03282
G1 F1800 X55.944 Y85.276 E0.03227
G1 F1800 X55.699 Y85.034 E0.03274
G1 F1800 X55.483 Y84.760 E0.03317
G1 F1800 X55.302 Y84.465 E0.03290
G1 F1800 X55.160 Y84.153 E0.03259
G1 F1800 X55.059 Y83.831 E0.03208
G1 F1800 X54.997 Y83.497 E0.03229
G1 F1800 X54.973 Y82.835 E0.06297
G1 F1800 X54.973 Y75.002 E0.74464
G1 F1800 X54.926 Y74.642 E0.03451
G1 F1800 X54.827 Y74.374 E0.02716
G1 F1800 X54.691 Y74.137 E0.02598
G1 F1800 X54.515 Y73.927 E0.02605
G1 F1800 X54.306 Y73.752 E0.02591
G1 F1800 X54.056 Y73.607 E0.02747
G1 F1800 X53.666 Y73.484 E0.03888
G1 F1800 X44.689 Y73.469 E0.85339
G1 F1800 X44.189 Y73.441 E0.04761
G1 F1800 X43.696 Y73.358 E0.04753
G1 F1800 X43.205 Y73.216 E0.04859
G1 F1800 X42.745 Y73.025 E0.04735
G1 F1800 X42.302 Y72.778 E0.04822
G1 F1800 X41.897 Y72.488 E0.04735
G1 F1800 X41.519 Y72.146 E0.04846
G1 F1800 X41.260 Y71.852 E0.03725
G1 F1800 X61.425 Y61.909 E2.13733
G1 F1800 X61.743 Y61.775 E0.03280
G1 F1800 X62.057 Y61.683 E0.03110
G1 F1800 X62.361 Y61.630 E0.02934
G1 F1800 X62.867 Y61.609 E0.04814
G1 F1800 X66.941 Y61.609 E0.38729
G1 F1800 X67.313 Y61.559 E0.03568
G1 F1800 X67.679 Y61.407 E0.03767
G1 F1800 X67.912 Y61.244 E0.02703
G1 F1800 X68.098 Y61.058 E0.02501
G1 F1800 X68.197 Y60.929 E0.01546
G1 F1800 X68.334 Y60.692 E0.02602
G1 F1800 X68.457 Y60.302 E0.03888
G1 F1800 X68.473 Y51.613 E0.82601
G1 F1800 X68.527 Y51.047 E0.05405
G1 F1800 X68.616 Y50.706 E0.03350
G1 F1800 X68.754 Y50.363 E0.03515
G1 F1800 X68.923 Y50.060 E0.03298
G1 F1800 X69.140 Y49.768 E0.03458
G1 F1800 X69.538 Y49.380 E0.05284
G1 F1800 X69.674 Y49.276 E0.01628
G1 F1800 X69.977 Y49.091 E0.03375
G1 F1800 X70.311 Y48.941 E0.03481
G1 F1800 X70.661 Y48.835 E0.03476
G1 F1800 X71.009 Y48.777 E0.03354
G1 F1800 X71.375 Y48.762 E0.03482
G1 F1800 X71.723 Y48.793 E0.03321
G1 F1800 X72.256 Y48.927 E0.05225
G1 F1800 X72.606 Y49.078 E0.03624
G1 F1800 X169.026 Y98.257 E10.28949
G1 F1800 X169.026 Y100.282 E0.19250
G1 F1800 X169.013 Y100.452 E0.01621
G1 F1800 X168.977 Y100.600 E0.01448
G1 F1800 X168.919 Y100.736 E0.01406
G1 F1800 X168.846 Y100.855 E0.01327
G1 F1800 X168.747 Y100.969 E0.01435
G1 F1800 X168.645 Y101.056 E0.01274
G1 F1800 X168.384 Y101.191 E0.02793
G1 F1800 X168.240 Y101.225 E0.01407
G1 F1800 X168.096 Y101.236 E0.01373
G1 F1800 X167.952 Y101.225 E0.01373
G1 F1800 X167.808 Y101.191 E0.01407
G1 F1800 X167.673 Y101.134 E0.01393
G1 F1800 X167.551 Y101.060 E0.01356
G1 F1800 X167.440 Y100.965 E0.01389
G1 F1800 X167.344 Y100.853 E0.01402
G1 F1800 X167.211 Y100.591 E0.02793
G1 F1800 X167.180 Y100.458 E0.01298
G1 F1800 X167.122 Y99.738 E0.06867
G1 F1800 X150.688 Y99.738 E1.56228
G1 F1800 X150.325 Y99.715 E0.03458
G1 F1800 X149.981 Y99.652 E0.03325
G1 F1800 X149.653 Y99.548 E0.03271
G1 F1800 X149.346 Y99.409 E0.03204
G1 F1800 X148.219 Y98.648 E0.12927
G1 F1800 X148.337 Y98.397 E0.02637
G1 F1800 X148.447 Y98.066 E0.03316
G1 F1800 X148.724 Y98.066 E0.02633
G1 F1800 X148.797 Y97.083 E0.09371
G1 F1800 X148.772 Y96.597 E0.04626
G1 F1800 X148.686 Y96.116 E0.04645
G1 F1800 X148.539 Y95.647 E0.04672
G1 F1800 X148.335 Y95.203 E0.04645
G1 F1800 X148.074 Y94.786 E0.04677
G1 F1800 X147.766 Y94.408 E0.04635
G1 F1800 X147.410 Y94.069 E0.04673
G1 F1800 X147.016 Y93.780 E0.04645
G1 F1800 X146.586 Y93.541 E0.04677
G1 F1800 X146.133 Y93.360 E0.04637
G1 F1800 X145.656 Y93.237 E0.04683
G1 F1800 X145.173 Y93.176 E0.04628
G1 F1800 X144.681 Y93.176 E0.04677
G1 F1800 X144.198 Y93.237 E0.04628
G1 F1800 X143.722 Y93.360 E0.04674
G1 F1800 X143.267 Y93.541 E0.04655
G1 F1800 X142.838 Y93.780 E0.04668
G1 F1800 X142.443 Y94.069 E0.04653
G1 F1800 X142.088 Y94.408 E0.04666
G1 F1800 X141.778 Y94.786 E0.04647
G1 F1800 X141.519 Y95.203 E0.04667
G1 F1800 X141.315 Y95.646 E0.04636
G1 F1800 X141.167 Y96.115 E0.04675
G1 F1800 X141.081 Y96.597 E0.04654
G1 F1800 X141.056 Y97.083 E0.04626
G1 F1800 X141.131 Y98.066 E0.09372
G1 F1800 X141.406 Y98.066 E0.02614
G1 F1800 X141.525 Y98.416 E0.03514
G1 F1800 X141.633 Y98.649 E0.02441
G1 F1800 X140.856 Y99.193 E0.09017
G1 F1800 X140.714 Y99.264 E0.01509
G1 F1800 X140.640 Y99.279 E0.00718
G1 F1800 X140.577 Y99.282 E0.00600
G1 F1800 X140.442 Y99.255 E0.01309
G1 F1800 X140.375 Y99.223 E0.00706
G1 F1800 X140.321 Y99.185 E0.00628
G1 F1800 X140.230 Y99.083 E0.01299
G1 F1800 X140.191 Y99.007 E0.00812
G1 F1800 X140.027 Y98.552 E0.04598
G1 F1800 X139.901 Y98.061 E0.04819
G1 F1800 X139.825 Y97.559 E0.04827
G1 F1800 X139.797 Y97.030 E0.05036
G1 F1800 X139.823 Y96.520 E0.04855
G1 F1800 X139.833 Y96.359 E0.01533
G1 F1800 X139.788 Y95.979 E0.03638
G1 F1800 X139.638 Y95.598 E0.03893
G1 F1800 X139.394 Y95.267 E0.03909
G1 F1800 X139.074 Y95.014 E0.03878
G1 F1800 X138.715 Y94.855 E0.03733
G1 F1800 X112.348 Y91.951 E2.52171
G1 F1800 X112.105 Y91.945 E0.02311
G1 F1800 X111.847 Y91.983 E0.02479
G1 F1800 X111.598 Y92.063 E0.02486
G1 F1800 X111.363 Y92.184 E0.02513
G1 F1800 X111.152 Y92.343 E0.02512
G1 F1800 X110.972 Y92.535 E0.02502
G1 F1800 X110.826 Y92.752 E0.02486
G1 F1800 X110.717 Y92.995 E0.02532
G1 F1800 X110.652 Y93.250 E0.02502
G1 F1800 X110.629 Y93.510 E0.02481
G1 F1800 X110.652 Y93.779 E0.02567
G1 F1800 X110.897 Y94.650 E0.08601
G1 F1800 X111.004 Y95.256 E0.05850
G1 F1800 X111.055 Y95.915 E0.06283
G1 F1800 X111.033 Y96.558 E0.06116
G1 F1800 X110.949 Y97.173 E0.05901
G1 F1800 X110.797 Y97.794 E0.06078
G1 F1800 X110.582 Y98.397 E0.06086
G1 F1800 X110.302 Y98.982 E0.06165
G1 F1800 X109.974 Y99.514 E0.05941
G1 F1800 X109.891 Y99.616 E0.01250
G1 F1800 X109.783 Y99.684 E0.01213
G1 F1800 X109.667 Y99.721 E0.01157
G1 F1800 X109.614 Y99.726 E0.00506
G1 F1800 X109.492 Y99.710 E0.01170
G1 F1800 X109.390 Y99.668 E0.01049
G1 F1800 X109.271 Y99.577 E0.01424
G1 F1800 X108.605 Y98.911 E0.08954
G1 F1800 X108.853 Y98.569 E0.04016
G1 F1800 X109.099 Y98.137 E0.04726
G1 F1800 X109.298 Y97.683 E0.04712
G1 F1800 X109.448 Y97.209 E0.04726
G1 F1800 X109.711 Y97.209 E0.02500
G1 F1800 X109.797 Y96.138 E0.10214
G1 F1800 X109.774 Y95.563 E0.05471
G1 F1800 X109.684 Y94.992 E0.05495
G1 F1800 X109.526 Y94.436 E0.05495
G1 F1800 X109.304 Y93.902 E0.05498
G1 F1800 X109.020 Y93.397 E0.05508
G1 F1800 X108.678 Y92.932 E0.05487
G1 F1800 X108.283 Y92.508 E0.05509
G1 F1800 X107.841 Y92.135 E0.05498
G1 F1800 X107.356 Y91.817 E0.05513
G1 F1800 X106.839 Y91.560 E0.05489
G1 F1800 X106.296 Y91.364 E0.05488
G1 F1800 X105.731 Y91.235 E0.05509
G1 F1800 X105.156 Y91.174 E0.05497
G1 F1800 X104.578 Y91.180 E0.05495
G1 F1800 X104.005 Y91.256 E0.05495
G1 F1800 X103.444 Y91.399 E0.05504
G1 F1800 X102.905 Y91.608 E0.05496
G1 F1800 X102.394 Y91.878 E0.05494
G1 F1800 X101.918 Y92.208 E0.05506
G1 F1800 X101.486 Y92.592 E0.05495
G1 F1800 X101.100 Y93.024 E0.05507
G1 F1800 X100.771 Y93.500 E0.05501
G1 F1800 X100.499 Y94.009 E0.05486
G1 F1800 X100.289 Y94.548 E0.05499
G1 F1800 X100.146 Y95.108 E0.05494
G1 F1800 X100.070 Y95.676 E0.05448
G1 F1800 X100.062 Y96.148 E0.04488
G1 F1800 X99.269 Y99.108 E0.29131
G1 F1800 X98.275 Y98.842 E0.09782
G1 F1800 X98.130 Y98.769 E0.01543
G1 F1800 X98.035 Y98.672 E0.01291
G1 F1800 X98.004 Y98.619 E0.00584
G1 F1800 X97.964 Y98.489 E0.01293
G1 F1800 X97.959 Y98.439 E0.00478
G1 F1800 X97.979 Y98.284 E0.01486
G1 F1800 X99.006 Y94.453 E0.37705
G1 F1800 X99.183 Y93.902 E0.05502
G1 F1800 X99.414 Y93.360 E0.05601
G1 F1800 X99.713 Y92.814 E0.05918
G1 F1800 X99.827 Y92.590 E0.02389
G1 F1800 X99.905 Y92.340 E0.02490
G1 F1800 X99.939 Y92.078 E0.02512
G1 F1800 X99.930 Y91.814 E0.02511
G1 F1800 X99.877 Y91.558 E0.02485
G1 F1800 X99.782 Y91.311 E0.02516
G1 F1800 X99.645 Y91.085 E0.02512
G1 F1800 X99.476 Y90.886 E0.02482
G1 F1800 X99.272 Y90.715 E0.02531
G1 F1800 X99.045 Y90.584 E0.02492
G1 F1800 X98.803 Y90.491 E0.02465
G1 F1800 X98.564 Y90.444 E0.02316
G1 F12000 X98.698 Y90.858 
;TYPE:WALL-OUTER
G1 F1320 X98.507 Y90.820 E0.01851
G1 F1320 X57.455 Y86.334 E3.92579
G1 F1320 X57.070 Y86.268 E0.03713
G1 F1320 X56.693 Y86.155 E0.03741
G1 F1320 X56.335 Y85.998 E0.03716
G1 F1320 X56.000 Y85.799 E0.03704
G1 F1320 X55.695 Y85.564 E0.03660
G1 F1320 X55.413 Y85.285 E0.03771
G1 F1320 X55.170 Y84.978 E0.03722
G1 F1320 X54.967 Y84.645 E0.03707
G1 F1320 X54.805 Y84.290 E0.03710
G1 F1320 X54.688 Y83.919 E0.03698
G1 F1320 X54.619 Y83.539 E0.03671
G1 F1320 X54.593 Y82.856 E0.06498
G1 F1320 X54.593 Y75.027 E0.74426
G1 F1320 X54.555 Y74.733 E0.02818
G1 F1320 X54.482 Y74.535 E0.02006
G1 F1320 X54.378 Y74.356 E0.01968
G1 F1320 X54.245 Y74.197 E0.01971
G1 F1320 X54.087 Y74.064 E0.01963
G1 F1320 X53.902 Y73.957 E0.02032
G1 F1320 X53.607 Y73.864 E0.02940
G1 F1320 X44.685 Y73.849 E0.84816
G1 F1320 X44.141 Y73.818 E0.05180
G1 F1320 X43.615 Y73.730 E0.05070
G1 F1320 X43.076 Y73.574 E0.05334
G1 F1320 X42.580 Y73.368 E0.05106
G1 F1320 X42.100 Y73.101 E0.05221
G1 F1320 X41.656 Y72.783 E0.05192
G1 F1320 X41.250 Y72.416 E0.05203
G1 F1320 X40.890 Y72.006 E0.05187
G1 F1320 X40.685 Y71.711 E0.03415
G1 F1320 X61.266 Y61.564 E2.18138
G1 F1320 X61.618 Y61.415 E0.03634
G1 F1320 X61.964 Y61.314 E0.03426
G1 F1320 X62.325 Y61.251 E0.03484
G1 F1320 X62.852 Y61.229 E0.05014
G1 F1320 X66.916 Y61.229 E0.38634
G1 F1320 X67.213 Y61.189 E0.02849
G1 F1320 X67.495 Y61.072 E0.02902
G1 F1320 X67.667 Y60.951 E0.01999
G1 F1320 X67.812 Y60.807 E0.01943
G1 F1320 X67.880 Y60.718 E0.01065
G1 F1320 X67.984 Y60.538 E0.01976
G1 F1320 X68.077 Y60.243 E0.02940
G1 F1320 X68.093 Y51.598 E0.82183
G1 F1320 X68.151 Y50.983 E0.05872
G1 F1320 X68.257 Y50.581 E0.03952
G1 F1320 X68.407 Y50.206 E0.03840
G1 F1320 X68.608 Y49.846 E0.03920
G1 F1320 X68.852 Y49.519 E0.03879
G1 F1320 X69.294 Y49.088 E0.05869
G1 F1320 X69.454 Y48.966 E0.01913
G1 F1320 X69.804 Y48.752 E0.03900
G1 F1320 X70.176 Y48.584 E0.03880
G1 F1320 X70.574 Y48.464 E0.03952
G1 F1320 X70.970 Y48.398 E0.03816
G1 F1320 X71.385 Y48.381 E0.03948
G1 F1320 X71.787 Y48.417 E0.03837
G1 F1320 X72.374 Y48.565 E0.05755
G1 F1320 X72.773 Y48.736 E0.04127
G1 F1320 X169.406 Y98.024 E10.31224
G1 F1320 X169.406 Y100.308 E0.21713
G1 F1320 X169.390 Y100.511 E0.01936
G1 F1320 X169.338 Y100.721 E0.02057
G1 F1320 X169.258 Y100.911 E0.01960
G1 F1320 X169.153 Y101.081 E0.01899
G1 F1320 X169.015 Y101.239 E0.01994
G1 F1320 X168.867 Y101.367 E0.01860
G1 F1320 X168.680 Y101.479 E0.02072
G1 F1320 X168.504 Y101.553 E0.01815
G1 F1320 X168.298 Y101.601 E0.02011
G1 F1320 X168.096 Y101.618 E0.01927
G1 F1320 X167.894 Y101.601 E0.01927
G1 F1320 X167.688 Y101.553 E0.02011
G1 F1320 X167.503 Y101.475 E0.01909
G1 F1320 X167.327 Y101.368 E0.01958
G1 F1320 X167.171 Y101.234 E0.01955
G1 F1320 X167.036 Y101.077 E0.01968
G1 F1320 X166.929 Y100.901 E0.01958
G1 F1320 X166.851 Y100.716 E0.01909
G1 F1320 X166.803 Y100.513 E0.01983
G1 F1320 X166.771 Y100.118 E0.03767
G1 F1320 X150.680 Y100.118 E1.52967
G1 F1320 X150.274 Y100.093 E0.03867
G1 F1320 X149.888 Y100.021 E0.03733
G1 F1320 X149.520 Y99.906 E0.03665
G1 F1320 X149.162 Y99.743 E0.03739
G1 F1320 X148.783 Y99.506 E0.04249
G1 F1320 X147.722 Y98.764 E0.12308
G1 F1320 X147.822 Y98.600 E0.01826
G1 F1320 X147.984 Y98.256 E0.03615
G1 F1320 X148.103 Y97.898 E0.03586
G1 F1320 X148.147 Y97.686 E0.02058
G1 F1320 X148.371 Y97.686 E0.02129
G1 F1320 X148.416 Y97.078 E0.05796
G1 F1320 X148.394 Y96.640 E0.04169
G1 F1320 X148.316 Y96.207 E0.04183
G1 F1320 X148.184 Y95.784 E0.04212
G1 F1320 X148.000 Y95.384 E0.04186
G1 F1320 X147.765 Y95.007 E0.04223
G1 F1320 X147.487 Y94.667 E0.04175
G1 F1320 X147.165 Y94.361 E0.04223
G1 F1320 X146.811 Y94.101 E0.04175
G1 F1320 X146.423 Y93.885 E0.04222
G1 F1320 X146.014 Y93.722 E0.04186
G1 F1320 X145.585 Y93.611 E0.04213
G1 F1320 X145.149 Y93.556 E0.04178
G1 F1320 X144.705 Y93.556 E0.04221
G1 F1320 X144.269 Y93.611 E0.04178
G1 F1320 X143.840 Y93.722 E0.04213
G1 F1320 X143.430 Y93.885 E0.04194
G1 F1320 X143.043 Y94.101 E0.04213
G1 F1320 X142.688 Y94.361 E0.04183
G1 F1320 X142.367 Y94.667 E0.04216
G1 F1320 X142.088 Y95.007 E0.04181
G1 F1320 X141.854 Y95.384 E0.04218
G1 F1320 X141.670 Y95.783 E0.04177
G1 F1320 X141.537 Y96.206 E0.04215
G1 F1320 X141.459 Y96.640 E0.04192
G1 F1320 X141.437 Y97.078 E0.04169
G1 F1320 X141.483 Y97.686 E0.05796
G1 F1320 X141.706 Y97.686 E0.02120
G1 F1320 X141.750 Y97.897 E0.02049
G1 F1320 X141.873 Y98.263 E0.03671
G1 F1320 X142.030 Y98.600 E0.03534
G1 F1320 X142.131 Y98.764 E0.01831
G1 F1320 X141.056 Y99.517 E0.12477
G1 F1320 X140.822 Y99.630 E0.02470
G1 F1320 X140.692 Y99.657 E0.01262
G1 F1320 X140.561 Y99.662 E0.01246
G1 F1320 X140.310 Y99.612 E0.02433
G1 F1320 X140.182 Y99.551 E0.01348
G1 F1320 X140.080 Y99.481 E0.01176
G1 F1320 X139.982 Y99.386 E0.01298
G1 F1320 X139.908 Y99.287 E0.01175
G1 F1320 X139.842 Y99.160 E0.01361
G1 F1320 X139.664 Y98.666 E0.04992
G1 F1320 X139.530 Y98.142 E0.05142
G1 F1320 X139.447 Y97.596 E0.05250
G1 F1320 X139.417 Y97.030 E0.05388
G1 F1320 X139.444 Y96.496 E0.05083
G1 F1320 X139.452 Y96.369 E0.01210
G1 F1320 X139.417 Y96.072 E0.02843
G1 F1320 X139.303 Y95.783 E0.02953
G1 F1320 X139.119 Y95.534 E0.02943
G1 F1320 X138.876 Y95.342 E0.02944
G1 F1320 X138.600 Y95.220 E0.02869
G1 F1320 X112.323 Y92.330 E2.51306
G1 F1320 X112.128 Y92.326 E0.01854
G1 F1320 X111.933 Y92.354 E0.01873
G1 F1320 X111.744 Y92.415 E0.01888
G1 F1320 X111.566 Y92.507 E0.01905
G1 F1320 X111.407 Y92.627 E0.01894
G1 F1320 X111.270 Y92.772 E0.01896
G1 F1320 X111.159 Y92.937 E0.01890
G1 F1320 X111.077 Y93.120 E0.01906
G1 F1320 X111.028 Y93.314 E0.01902
G1 F1320 X111.010 Y93.511 E0.01881
G1 F1320 X111.027 Y93.711 E0.01908
G1 F1320 X111.262 Y94.546 E0.08246
G1 F1320 X111.382 Y95.210 E0.06414
G1 F1320 X111.436 Y95.907 E0.06646
G1 F1320 X111.413 Y96.576 E0.06364
G1 F1320 X111.412 Y96.596 E0.00190
G1 F1320 X111.325 Y97.233 E0.06112
G1 F1320 X111.161 Y97.907 E0.06594
G1 F1320 X110.931 Y98.551 E0.06501
G1 F1320 X110.643 Y99.151 E0.06327
G1 F1320 X110.278 Y99.743 E0.06611
G1 F1320 X110.126 Y99.917 E0.02196
G1 F1320 X109.945 Y100.032 E0.02039
G1 F1320 X109.739 Y100.097 E0.02053
G1 F1320 X109.606 Y100.108 E0.01269
G1 F1320 X109.395 Y100.080 E0.02023
G1 F1320 X109.198 Y100.000 E0.02021
G1 F1320 X109.019 Y99.863 E0.02143
G1 F1320 X108.087 Y98.931 E0.12530
G1 F1320 X108.267 Y98.731 E0.02558
G1 F1320 X108.533 Y98.363 E0.04317
G1 F1320 X108.759 Y97.966 E0.04343
G1 F1320 X108.942 Y97.549 E0.04329
G1 F1320 X109.079 Y97.117 E0.04308
G1 F1320 X109.138 Y96.829 E0.02795
G1 F1320 X109.360 Y96.829 E0.02110
G1 F1320 X109.416 Y96.130 E0.06666
G1 F1320 X109.395 Y95.600 E0.05042
G1 F1320 X109.312 Y95.074 E0.05062
G1 F1320 X109.167 Y94.561 E0.05068
G1 F1320 X108.962 Y94.069 E0.05067
G1 F1320 X108.700 Y93.604 E0.05074
G1 F1320 X108.385 Y93.175 E0.05060
G1 F1320 X108.020 Y92.784 E0.05085
G1 F1320 X107.613 Y92.440 E0.05066
G1 F1320 X107.167 Y92.147 E0.05073
G1 F1320 X106.690 Y91.910 E0.05063
G1 F1320 X106.189 Y91.729 E0.05064
G1 F1320 X105.668 Y91.610 E0.05080
G1 F1320 X105.138 Y91.554 E0.05066
G1 F1320 X104.605 Y91.560 E0.05067
G1 F1320 X104.077 Y91.630 E0.05063
G1 F1320 X103.560 Y91.762 E0.05072
G1 F1320 X103.063 Y91.954 E0.05065
G1 F1320 X102.592 Y92.203 E0.05065
G1 F1320 X102.153 Y92.507 E0.05076
G1 F1320 X101.755 Y92.861 E0.05064
G1 F1320 X101.399 Y93.259 E0.05076
G1 F1320 X101.096 Y93.698 E0.05071
G1 F1320 X100.845 Y94.168 E0.05065
G1 F1320 X100.652 Y94.665 E0.05068
G1 F1320 X100.519 Y95.181 E0.05066
G1 F1320 X100.449 Y95.704 E0.05016
G1 F1320 X100.441 Y96.202 E0.04735
G1 F1320 X99.537 Y99.574 E0.33188
G1 F1320 X98.176 Y99.209 E0.13395
G1 F1320 X98.118 Y99.191 E0.00577
G1 F1320 X97.918 Y99.087 E0.02143
G1 F1320 X97.813 Y98.999 E0.01302
G1 F1320 X97.721 Y98.888 E0.01371
G1 F1320 X97.654 Y98.773 E0.01265
G1 F1320 X97.588 Y98.564 E0.02084
G1 F1320 X97.577 Y98.432 E0.01259
G1 F1320 X97.606 Y98.211 E0.02119
G1 F1320 X98.639 Y94.354 E0.37958
G1 F1320 X98.823 Y93.778 E0.05748
G1 F1320 X99.071 Y93.196 E0.06014
G1 F1320 X99.377 Y92.637 E0.06058
G1 F1320 X99.474 Y92.447 E0.02028
G1 F1320 X99.532 Y92.258 E0.01879
G1 F1320 X99.558 Y92.060 E0.01898
G1 F1320 X99.551 Y91.860 E0.01902
G1 F1320 X99.511 Y91.665 E0.01892
G1 F1320 X99.439 Y91.479 E0.01896
G1 F1320 X99.336 Y91.308 E0.01898
G1 F1320 X99.207 Y91.157 E0.01888
G1 F1320 X99.053 Y91.028 E0.01910
G1 F1320 X98.881 Y90.928 E0.01891
G1 F1320 X98.698 Y90.858 E0.01863
G1 F12000 X98.800 Y90.588 
G1 F12000 X93.363 Y86.126 
G1 F12000 X93.395 Y85.839 
G1 F1320 X145.525 Y91.561 E4.98544
G1 F1320 X146.010 Y91.641 E0.04673
G1 F1320 X146.610 Y91.798 E0.05896
G1 F1320 X147.294 Y92.063 E0.06973
G1 F1320 X147.828 Y92.354 E0.05781
G1 F1320 X148.331 Y92.706 E0.05836
G1 F1320 X148.788 Y93.108 E0.05786
G1 F1320 X149.193 Y93.552 E0.05713
G1 F1320 X149.559 Y94.055 E0.05914
G1 F1320 X149.860 Y94.584 E0.05786
G1 F1320 X150.098 Y95.135 E0.05706
G1 F1320 X150.277 Y95.723 E0.05843
G1 F1320 X150.391 Y96.332 E0.05890
G1 F1320 X150.456 Y97.137 E0.07678
G1 F1320 X150.513 Y97.333 E0.01940
G1 F1320 X150.602 Y97.518 E0.01952
G1 F1320 X150.721 Y97.684 E0.01942
G1 F1320 X150.869 Y97.828 E0.01963
G1 F1320 X151.036 Y97.944 E0.01933
G1 F1320 X151.223 Y98.030 E0.01957
G1 F1320 X151.427 Y98.084 E0.02006
G1 F1320 X160.164 Y98.100 E0.83057
G1 F1320 X160.371 Y98.081 E0.01976
G1 F1320 X160.551 Y98.032 E0.01773
G1 F1320 X160.748 Y97.942 E0.02059
G1 F1320 X160.903 Y97.836 E0.01785
G1 F1320 X161.039 Y97.707 E0.01782
G1 F1320 X161.175 Y97.522 E0.02183
G1 F1320 X161.312 Y97.195 E0.03370
G1 F1320 X161.342 Y97.007 E0.01810
G1 F1320 X161.343 Y96.830 E0.01683
G1 F1320 X161.338 Y96.772 E0.00553
G1 F1320 X161.294 Y96.567 E0.01993
G1 F1320 X161.229 Y96.394 E0.01757
G1 F1320 X161.131 Y96.227 E0.01841
G1 F1320 X160.887 Y95.969 E0.03376
G1 F1320 X160.704 Y95.854 E0.02055
G1 F1320 X125.285 Y77.788 E3.77977
G1 F1320 X101.296 Y68.091 E2.45976
G1 F1320 X100.925 Y67.967 E0.03719
G1 F1320 X100.541 Y67.889 E0.03725
G1 F1320 X100.149 Y67.860 E0.03737
G1 F1320 X99.755 Y67.879 E0.03750
G1 F1320 X99.367 Y67.947 E0.03745
G1 F1320 X98.989 Y68.062 E0.03756
G1 F1320 X98.630 Y68.222 E0.03736
G1 F1320 X98.292 Y68.425 E0.03748
G1 F1320 X97.982 Y68.669 E0.03750
G1 F1320 X97.705 Y68.949 E0.03744
G1 F1320 X97.466 Y69.258 E0.03714
G1 F1320 X91.300 Y81.293 E1.28551
G1 F1320 X91.139 Y81.669 E0.03888
G1 F1320 X91.027 Y82.061 E0.03876
G1 F1320 X90.966 Y82.466 E0.03894
G1 F1320 X90.957 Y82.878 E0.03918
G1 F1320 X91.001 Y83.286 E0.03901
G1 F1320 X91.098 Y83.687 E0.03922
G1 F1320 X91.245 Y84.069 E0.03891
G1 F1320 X91.442 Y84.432 E0.03926
G1 F1320 X91.680 Y84.764 E0.03883
G1 F1320 X91.963 Y85.065 E0.03928
G1 F1320 X92.279 Y85.326 E0.03896
G1 F1320 X92.627 Y85.543 E0.03899
G1 F1320 X93.000 Y85.716 E0.03909
G1 F1320 X93.395 Y85.839 E0.03933
G1 F12000 X93.363 Y86.126 
G1 F12000 X87.450 Y83.650 
G1 F12000 X87.220 Y83.475 
G1 F1320 X94.819 Y68.628 E1.58554
G1 F1320 X94.982 Y68.247 E0.03939
G1 F1320 X95.094 Y67.850 E0.03921
G1 F1320 X95.154 Y67.436 E0.03977
G1 F1320 X95.160 Y67.019 E0.03965
G1 F1320 X95.111 Y66.604 E0.03973
G1 F1320 X95.009 Y66.200 E0.03961
G1 F1320 X94.854 Y65.812 E0.03972
G1 F1320 X94.651 Y65.448 E0.03962
G1 F1320 X94.401 Y65.114 E0.03966
G1 F1320 X94.110 Y64.815 E0.03966
G1 F1320 X93.780 Y64.554 E0.04000
G1 F1320 X77.247 Y56.092 E1.76559
G1 F1320 X76.876 Y55.932 E0.03841
G1 F1320 X76.488 Y55.820 E0.03839
G1 F1320 X76.086 Y55.759 E0.03865
G1 F1320 X75.679 Y55.749 E0.03870
G1 F1320 X75.275 Y55.790 E0.03860
G1 F1320 X74.878 Y55.883 E0.03876
G1 F1320 X74.497 Y56.026 E0.03869
G1 F1320 X74.137 Y56.216 E0.03870
G1 F1320 X73.804 Y56.451 E0.03875
G1 F1320 X73.504 Y56.725 E0.03862
G1 F1320 X73.241 Y57.036 E0.03872
G1 F1320 X73.020 Y57.377 E0.03863
G1 F1320 X72.844 Y57.745 E0.03878
G1 F1320 X72.716 Y58.131 E0.03866
G1 F1320 X72.638 Y58.531 E0.03874
G1 F1320 X72.613 Y59.516 E0.09367
G1 F1320 X72.613 Y60.029 E0.04877
G1 F1320 X72.580 Y60.641 E0.05826
G1 F1320 X72.487 Y61.229 E0.05659
G1 F1320 X72.332 Y61.808 E0.05698
G1 F1320 X72.119 Y62.362 E0.05642
G1 F1320 X71.850 Y62.891 E0.05642
G1 F1320 X71.525 Y63.390 E0.05661
G1 F1320 X71.138 Y63.868 E0.05847
G1 F1320 X70.732 Y64.274 E0.05458
G1 F1320 X70.254 Y64.661 E0.05847
G1 F1320 X69.755 Y64.985 E0.05656
G1 F1320 X69.226 Y65.255 E0.05646
G1 F1320 X68.664 Y65.470 E0.05720
G1 F1320 X68.103 Y65.621 E0.05523
G1 F1320 X67.505 Y65.716 E0.05756
G1 F1320 X66.893 Y65.749 E0.05826
G1 F1320 X63.740 Y65.749 E0.29974
G1 F1320 X63.379 Y65.769 E0.03437
G1 F1320 X63.021 Y65.832 E0.03456
G1 F1320 X62.671 Y65.935 E0.03468
G1 F1320 X62.339 Y66.075 E0.03425
G1 F1320 X60.887 Y66.791 E0.15390
G1 F1320 X60.548 Y66.985 E0.03713
G1 F1320 X60.235 Y67.220 E0.03721
G1 F1320 X59.951 Y67.494 E0.03751
G1 F1320 X59.704 Y67.800 E0.03738
G1 F1320 X59.494 Y68.136 E0.03767
G1 F1320 X59.330 Y68.493 E0.03735
G1 F1320 X59.209 Y68.869 E0.03755
G1 F1320 X59.136 Y69.260 E0.03781
G1 F1320 X59.113 Y79.264 E0.95102
G1 F1320 X59.137 Y79.648 E0.03658
G1 F1320 X59.207 Y80.028 E0.03673
G1 F1320 X59.323 Y80.398 E0.03686
G1 F1320 X59.484 Y80.752 E0.03697
G1 F1320 X59.687 Y81.083 E0.03691
G1 F1320 X59.927 Y81.388 E0.03689
G1 F1320 X60.205 Y81.661 E0.03704
G1 F1320 X60.512 Y81.898 E0.03687
G1 F1320 X60.846 Y82.095 E0.03686
G1 F1320 X61.201 Y82.252 E0.03690
G1 F1320 X61.571 Y82.362 E0.03670
G1 F1320 X61.950 Y82.428 E0.03657
G1 F1320 X84.234 Y84.864 E2.13102
G1 F1320 X84.615 Y84.881 E0.03626
G1 F1320 X84.997 Y84.854 E0.03640
G1 F1320 X85.375 Y84.779 E0.03663
G1 F1320 X85.742 Y84.661 E0.03665
G1 F1320 X86.091 Y84.498 E0.03662
G1 F1320 X86.418 Y84.295 E0.03659
G1 F1320 X86.718 Y84.054 E0.03658
G1 F1320 X86.987 Y83.780 E0.03650
G1 F1320 X87.220 Y83.475 E0.03649
G1  X87.536 Y83.688 ; Travel to start of close
G1 F1800 X87.274 Y84.029 B0.86 ; copied node <
G1 F1800 X86.974 Y84.336 B0.73 ; copied node <
G1 F1800 X86.638 Y84.606 B0.59 ; copied node <
G1 F1800 X86.272 Y84.833 B0.45 ; copied node <
G1 F1800 X85.881 Y85.016 B0.32 ; copied node <
G1 F1800 X85.470 Y85.148 B0.18 ; copied node <
G1 F1800 X85.048 Y85.231 B0.05 ; copied node <
G1 F1800 X84.902 Y85.242 B0 ; End of copy close segment - backwards to start
G1 F12000 X87.450 Y83.650 
G1 F12000 X89.009 Y82.393 
T1
;TYPE:SKIN
G1 B1
G1 F1800 X90.161 Y80.675 E0.31824
G1 F1800 X91.302 Y78.402 E0.29777
G1 F1800 X92.479 Y76.093 E0.29760
G1 F1800 X93.657 Y73.784 E0.29765
G1 F1800 X94.835 Y71.475 E0.29700
G1 F1800 X95.950 Y69.794 E0.40371
G1 F12000 X95.997 Y68.616 
G1 F1800 X100.515 Y64.098 E1.27874
G1 F12000 X101.265 Y64.480 
G1 F1800 X98.736 Y67.009 E0.71579
G1 F12000 X96.236 Y67.246 
G1 F1800 X99.767 Y63.715 E0.99939
G1 F12000 X99.017 Y63.334 
G1 F1800 X96.127 Y66.224 E0.81797
G1 F12000 X95.843 Y65.376 
G1 F1800 X98.268 Y62.951 E0.68635
G1 F12000 X97.519 Y62.569 
G1 F1800 X95.418 Y64.670 E0.59465
G1 F12000 X94.890 Y64.067 
G1 F1800 X96.770 Y62.187 E0.53210
G1 F12000 X96.020 Y61.805 
G1 F1800 X94.246 Y63.580 E0.50224
G1 F12000 X93.497 Y63.196 
G1 F1800 X95.271 Y61.423 E0.50196
G1 F12000 X94.522 Y61.040 
G1 F1800 X92.749 Y62.814 E0.50196
G1 F12000 X92.000 Y62.431 
G1 F1800 X93.772 Y60.659 E0.50153
G1 F12000 X93.024 Y60.276 
G1 F1800 X91.252 Y62.047 E0.50139
G1 F12000 X90.504 Y61.665 
G1 F1800 X92.274 Y59.894 E0.50111
G1 F12000 X91.525 Y59.512 
G1 F1800 X89.755 Y61.282 E0.50097
G1 F12000 X89.007 Y60.898 
G1 F1800 X90.776 Y59.130 E0.50054
G1 F12000 X90.027 Y58.747 
G1 F1800 X88.258 Y60.516 E0.50069
G1 F12000 X87.510 Y60.133 
G1 F1800 X89.277 Y58.366 E0.50012
G1 F12000 X88.529 Y57.983 
G1 F1800 X86.762 Y59.749 E0.49998
G1 F12000 X86.013 Y59.367 
G1 F1800 X87.779 Y57.601 E0.49984
G1 F12000 X87.029 Y57.219 
G1 F1800 X85.265 Y58.984 E0.49941
G1 F12000 X84.517 Y58.600 
G1 F1800 X86.281 Y56.837 E0.49913
G1 F12000 X85.531 Y56.455 
G1 F1800 X83.768 Y58.218 E0.49899
G1 F12000 X83.020 Y57.834 
G1 F1800 X84.782 Y56.072 E0.49870
G1 F12000 X84.033 Y55.691 
G1 F1800 X82.272 Y57.451 E0.49828
G1 F12000 X81.524 Y57.068 
G1 F1800 X83.284 Y55.308 E0.49814
G1 F12000 X82.534 Y54.926 
G1 F1800 X80.775 Y56.685 E0.49785
G1 F12000 X80.027 Y56.302 
G1 F1800 X81.786 Y54.544 E0.49771
G1 F12000 X81.036 Y54.162 
G1 F1800 X79.279 Y55.919 E0.49729
G1 F12000 X78.530 Y55.536 
G1 F1800 X80.287 Y53.780 E0.49715
G1 F12000 X79.538 Y53.397 
G1 F1800 X77.782 Y55.153 E0.49701
G1 F12000 X76.969 Y54.835 
G1 F1800 X78.788 Y53.016 E0.51484
G1 F12000 X78.039 Y52.633 
G1 F1800 X75.996 Y54.677 E0.57838
G1 F12000 X74.735 Y54.806 
G1 F1800 X77.290 Y52.251 E0.72315
G1 F12000 X76.541 Y51.869 
G1 F1800 X69.159 Y59.251 E2.08935
G1 F12000 X69.157 Y60.384 
G1 F1800 X71.663 Y57.878 E0.70928
G1 F12000 X71.540 Y59.132 
G1 F1800 X66.004 Y64.668 E1.56687
G1 F12000 X64.873 Y64.668 
G1 F1800 X67.271 Y62.270 E0.67871
G1 F12000 X66.098 Y62.312 
G1 F1800 X63.742 Y64.668 E0.66683
G1 F12000 X62.387 Y64.891 
G1 F1800 X64.962 Y62.316 E0.72881
G1 F12000 X63.826 Y62.321 
G1 F1800 X60.219 Y65.928 E1.02090
G1 F12000 X60.971 Y62.913 
G1 F1800 X51.106 Y72.778 E2.79212
G1 F12000 X52.235 Y72.781 
G1 F1800 X62.690 Y62.325 E2.95925
G1 F12000 X67.151 Y64.652 
G1 F1800 X71.508 Y60.296 E1.23303
G1 F12000 X71.200 Y61.735 
G1 F1800 X68.597 Y64.338 E0.73673
G1 F12000 X69.161 Y58.117 
G1 F1800 X75.791 Y51.487 E1.87651
G1 F12000 X75.043 Y51.104 
G1 F1800 X69.162 Y56.985 E1.66452
G1 F12000 X69.164 Y55.851 
G1 F1800 X74.293 Y50.722 E1.45168
G1 F12000 X73.544 Y50.340 
G1 F1800 X69.167 Y54.718 E1.23898
G1 F12000 X69.169 Y53.584 
G1 F1800 X72.795 Y49.958 E1.02628
G1 F12000 X72.029 Y49.592 
G1 F1800 X69.171 Y52.451 E0.80905
G1 F12000 X69.207 Y51.283 
G1 F1800 X71.003 Y49.487 E0.50833
G1 F12000 X68.105 Y61.064 
G1 F12000 X66.941 Y61.618 
G1 F12000 X58.740 Y64.013 
G1 F1800 X49.976 Y72.777 E2.48050
G1 F12000 X48.846 Y72.775 
G1 F1800 X56.508 Y65.113 E2.16860
G1 F12000 X54.276 Y66.214 
G1 F1800 X47.717 Y72.773 E1.85641
G1 F12000 X46.587 Y72.771 
G1 F1800 X52.045 Y67.314 E1.54465
G1 F12000 X49.812 Y68.415 
G1 F1800 X45.458 Y72.769 E1.23233
G1 F12000 X44.347 Y72.749 
G1 F1800 X47.581 Y69.515 E0.91533
G1 F12000 X45.349 Y70.615 
G1 F1800 X43.418 Y72.547 E0.54668
G1 F12000 X42.659 Y72.174 
G1 F1800 X43.117 Y71.716 E0.12963
G1 F12000 X53.364 Y72.783 
G1 F1800 X58.565 Y67.582 E1.47205
G1 F12000 X58.055 Y69.223 
G1 F1800 X54.322 Y72.956 E1.05656
G1 F12000 X54.994 Y73.416 
G1 F1800 X58.053 Y70.357 E0.86580
G1 F12000 X58.050 Y71.491 
G1 F1800 X55.466 Y74.075 E0.73136
G1 F12000 X55.673 Y74.999 
G1 F1800 X58.047 Y72.625 E0.67192
G1 F12000 X58.045 Y73.759 
G1 F1800 X55.673 Y76.131 E0.67135
G1 F12000 X55.673 Y77.262 
G1 F1800 X58.042 Y74.893 E0.67050
G1 F12000 X58.040 Y76.027 
G1 F1800 X55.673 Y78.394 E0.66994
G1 F12000 X55.673 Y79.525 
G1 F1800 X58.037 Y77.161 E0.66909
G1 F12000 X58.035 Y78.295 
G1 F1800 X55.673 Y80.656 E0.66838
G1 F12000 X55.673 Y81.788 
G1 F1800 X58.040 Y79.421 E0.66994
G1 F12000 X58.192 Y80.400 
G1 F1800 X55.675 Y82.917 E0.71239
G1 F12000 X55.817 Y83.906 
G1 F1800 X58.508 Y81.215 E0.76164
G1 F12000 X58.955 Y81.900 
G1 F1800 X56.256 Y84.599 E0.76391
G1 F12000 X56.913 Y85.073 
G1 F1800 X59.504 Y82.482 E0.73334
G1 F12000 X60.170 Y82.947 
G1 F1800 X57.829 Y85.289 E0.66272
G1 F12000 X58.849 Y85.400 
G1 F1800 X60.949 Y83.300 E0.59437
G1 F12000 X61.876 Y83.505 
G1 F1800 X59.869 Y85.511 E0.56791
G1 F12000 X60.888 Y85.623 
G1 F1800 X62.896 Y83.616 E0.56819
G1 F12000 X63.916 Y83.727 
G1 F1800 X61.909 Y85.734 E0.56805
G1 F12000 X62.928 Y85.846 
G1 F1800 X64.935 Y83.839 E0.56805
G1 F12000 X65.956 Y83.950 
G1 F1800 X63.949 Y85.957 E0.56805
G1 F12000 X64.968 Y86.069 
G1 F1800 X66.975 Y84.062 E0.56805
G1 F12000 X67.995 Y84.173 
G1 F1800 X65.988 Y86.180 E0.56805
G1 F12000 X67.008 Y86.291 
G1 F1800 X69.015 Y84.285 E0.56791
G1 F12000 X70.035 Y84.396 
G1 F1800 X68.028 Y86.403 E0.56805
G1 F12000 X69.048 Y86.515 
G1 F1800 X71.055 Y84.508 E0.56805
G1 F12000 X72.075 Y84.619 
G1 F1800 X70.068 Y86.626 E0.56805
G1 F12000 X71.088 Y86.737 
G1 F1800 X73.095 Y84.731 E0.56791
G1 F12000 X74.114 Y84.842 
G1 F1800 X72.107 Y86.849 E0.56805
G1 F12000 X73.128 Y86.960 
G1 F1800 X75.135 Y84.953 E0.56805
G1 F12000 X76.154 Y85.065 
G1 F1800 X74.147 Y87.072 E0.56805
G1 F12000 X75.168 Y87.183 
G1 F1800 X77.174 Y85.177 E0.56776
G1 F12000 X78.194 Y85.288 
G1 F1800 X76.187 Y87.295 E0.56805
G1 F12000 X77.207 Y87.406 
G1 F1800 X79.214 Y85.400 E0.56791
G1 F12000 X80.233 Y85.511 
G1 F1800 X78.227 Y87.517 E0.56776
G1 F12000 X79.247 Y87.629 
G1 F1800 X81.254 Y85.622 E0.56805
G1 F12000 X82.273 Y85.734 
G1 F1800 X80.267 Y87.741 E0.56791
G1 F12000 X81.287 Y87.852 
G1 F1800 X83.293 Y85.846 E0.56776
G1 F12000 X84.323 Y85.948 
G1 F1800 X82.307 Y87.964 E0.57059
G1 F12000 X83.326 Y88.075 
G1 F1800 X85.559 Y85.842 E0.63201
G1 F12000 X85.366 Y88.298 
G1 F1800 X89.984 Y83.680 E1.30705
G1 F12000 X90.265 Y84.531 
G1 F1800 X86.386 Y88.410 E1.09788
G1 F12000 X87.406 Y88.521 
G1 F1800 X90.689 Y85.238 E0.92920
G1 F12000 X91.213 Y85.846 
G1 F1800 X88.426 Y88.633 E0.78881
G1 F12000 X89.446 Y88.744 
G1 F1800 X91.855 Y86.334 E0.68197
G1 F12000 X92.601 Y86.720 
G1 F1800 X90.466 Y88.855 E0.60428
G1 F12000 X91.486 Y88.967 
G1 F1800 X93.516 Y86.937 E0.57456
G1 F12000 X94.535 Y87.049 
G1 F1800 X92.506 Y89.078 E0.57427
G1 F12000 X93.526 Y89.190 
G1 F1800 X95.555 Y87.160 E0.57442
G1 F12000 X96.575 Y87.272 
G1 F1800 X94.545 Y89.301 E0.57442
G1 F12000 X95.566 Y89.412 
G1 F1800 X97.594 Y87.384 E0.57399
G1 F12000 X98.613 Y87.496 
G1 F1800 X96.585 Y89.524 E0.57399
G1 F12000 X97.605 Y89.636 
G1 F1800 X99.633 Y87.608 E0.57399
G1 F12000 X100.652 Y87.720 
G1 F1800 X98.625 Y89.747 E0.57371
G1 F12000 X99.477 Y90.026 
G1 F1800 X101.672 Y87.832 E0.62112
G1 F12000 X102.691 Y87.944 
G1 F1800 X100.098 Y90.537 E0.73390
G1 F12000 X100.510 Y91.257 
G1 F1800 X103.711 Y88.056 E0.90599
G1 F12000 X104.730 Y88.168 
G1 F1800 X100.617 Y92.280 E1.16397
G1 F12000 X103.321 Y90.708 
G1 F1800 X105.749 Y88.280 E0.68720
G1 F12000 X106.769 Y88.391 
G1 F1800 X104.682 Y90.479 E0.59083
G1 F12000 X105.757 Y90.535 
G1 F1800 X107.788 Y88.504 E0.57484
G1 F12000 X108.808 Y88.616 
G1 F1800 X106.668 Y90.755 E0.60555
G1 F12000 X107.464 Y91.090 
G1 F1800 X109.827 Y88.727 E0.66881
G1 F12000 X110.847 Y88.839 
G1 F1800 X108.171 Y91.515 E0.75740
G1 F12000 X108.791 Y92.027 
G1 F1800 X111.866 Y88.951 E0.87047
G1 F12000 X112.886 Y89.063 
G1 F1800 X109.322 Y92.627 E1.00873
G1 F12000 X109.965 Y93.116 
G1 F1800 X109.772 Y93.308 E0.05448
G1 F12000 X111.799 Y91.281 
G1 F1800 X113.905 Y89.175 E0.59607
G1 F12000 X114.924 Y89.287 
G1 F1800 X112.903 Y91.308 E0.57201
G1 F12000 X113.923 Y91.420 
G1 F1800 X115.944 Y89.399 E0.57201
G1 F12000 X116.963 Y89.511 
G1 F1800 X114.943 Y91.531 E0.57173
G1 F12000 X115.963 Y91.643 
G1 F1800 X117.983 Y89.622 E0.57187
G1 F12000 X119.002 Y89.735 
G1 F1800 X116.983 Y91.754 E0.57144
G1 F12000 X118.003 Y91.865 
G1 F1800 X120.022 Y89.847 E0.57130
G1 F12000 X121.041 Y89.958 
G1 F1800 X119.023 Y91.977 E0.57130
G1 F12000 X120.043 Y92.088 
G1 F1800 X122.060 Y90.071 E0.57088
G1 F12000 X123.080 Y90.182 
G1 F1800 X121.063 Y92.200 E0.57102
G1 F12000 X122.083 Y92.311 
G1 F1800 X124.100 Y90.294 E0.57088
G1 F12000 X125.119 Y90.406 
G1 F1800 X123.103 Y92.423 E0.57074
G1 F12000 X124.122 Y92.534 
G1 F1800 X126.138 Y90.518 E0.57059
G1 F12000 X127.158 Y90.630 
G1 F1800 X125.143 Y92.645 E0.57031
G1 F12000 X126.162 Y92.757 
G1 F1800 X128.177 Y90.742 E0.57031
G1 F12000 X129.196 Y90.854 
G1 F1800 X127.182 Y92.869 E0.57017
G1 F12000 X128.202 Y92.980 
G1 F1800 X130.216 Y90.966 E0.57003
G1 F12000 X131.236 Y91.078 
G1 F1800 X129.222 Y93.092 E0.57003
G1 F12000 X130.242 Y93.203 
G1 F1800 X132.255 Y91.189 E0.56989
G1 F12000 X133.274 Y91.302 
G1 F1800 X131.262 Y93.314 E0.56946
G1 F12000 X132.282 Y93.426 
G1 F1800 X134.294 Y91.414 E0.56946
G1 F12000 X135.314 Y91.525 
G1 F1800 X133.302 Y93.537 E0.56946
G1 F12000 X134.322 Y93.649 
G1 F1800 X136.333 Y91.638 E0.56918
G1 F12000 X137.352 Y91.749 
G1 F1800 X135.342 Y93.760 E0.56904
G1 F12000 X136.362 Y93.871 
G1 F1800 X138.372 Y91.861 E0.56890
G1 F12000 X139.391 Y91.973 
G1 F1800 X137.381 Y93.983 E0.56890
G1 F12000 X138.402 Y94.094 
G1 F1800 X140.410 Y92.085 E0.56847
G1 F12000 X141.430 Y92.197 
G1 F1800 X139.284 Y94.343 E0.60739
G1 F12000 X139.937 Y94.822 
G1 F1800 X142.450 Y92.309 E0.71126
G1 F12000 X142.996 Y92.894 
G1 F1800 X143.469 Y92.421 E0.13387
G1 F12000 X140.798 Y95.092 
G1 F1800 X140.362 Y95.528 E0.12340
G1 F12000 X143.719 Y93.351 
G1 F12000 X146.135 Y93.351 
G1 F12000 X148.082 Y94.780 
G1 F12000 X150.843 Y98.282 
G1 F12000 X161.742 Y99.038 
G1 F1800 X164.200 Y96.580 E0.69569
G1 F12000 X164.948 Y96.963 
G1 F1800 X162.874 Y99.038 E0.58715
G1 F12000 X164.005 Y99.038 
G1 F1800 X165.698 Y97.345 E0.47917
G1 F12000 X166.447 Y97.727 
G1 F1800 X165.137 Y99.038 E0.37091
G1 F12000 X166.268 Y99.038 
G1 F1800 X167.570 Y98.300 E0.26283
G1 F1800 X167.611 Y99.391 E0.15459
G1 F1800 X168.324 Y99.244 E0.14570
G1 F12000 X163.450 Y96.199 
G1 F1800 X162.354 Y96.729 E0.29786
G1 F1800 X162.701 Y95.816 E0.19547
G1 F12000 X122.243 Y75.181 
G1 F1800 X121.792 Y75.065 E0.04287
G1 F1800 X121.014 Y74.711 E0.05902
G1 F1800 X120.237 Y74.357 E0.07476
G1 F1800 X119.460 Y74.003 E0.09057
G1 F1800 X118.682 Y73.650 E0.10686
G1 F1800 X117.659 Y73.541 E0.12277
G1 F1800 X117.373 Y72.696 E0.13881
G1 F1800 X116.048 Y72.890 E0.15444
G1 F1800 X115.874 Y71.932 E0.17099
G1 F1800 X114.436 Y72.239 E0.18687
G1 F1800 X114.376 Y71.168 E0.20260
G1 F1800 X112.825 Y71.587 E0.21824
G1 F1800 X112.878 Y70.403 E0.23482
G1 F1800 X111.214 Y70.935 E0.25042
G1 F1800 X111.379 Y69.639 E0.26604
G1 F1800 X109.603 Y70.284 E0.28220
G1 F1800 X109.880 Y68.875 E0.29852
G1 F1800 X108.395 Y69.795 E0.34961
G1 F12000 X107.589 Y69.470 
G1 F1800 X108.757 Y68.302 E0.33058
G1 F12000 X108.008 Y67.919 
G1 F1800 X106.783 Y69.144 E0.34672
G1 F12000 X105.978 Y68.818 
G1 F1800 X107.258 Y67.537 E0.36242
G1 F12000 X106.510 Y67.155 
G1 F1800 X105.172 Y68.493 E0.37870
G1 F12000 X104.366 Y68.167 
G1 F1800 X105.760 Y66.773 E0.39455
G1 F12000 X105.011 Y66.390 
G1 F1800 X103.561 Y67.841 E0.41054
