; File post-processed by the CEL Tech Roboxiser on Thu 10 Dec 2015 16:56:46
; Robox? AutoMaker? - 2.00.00_RC10
;
; Pre print gcode
; Printed with safety features OFF
;
; Macro Start - before_print
;
M83				;Set Extruder to Relative moves
M139			;Set & heat first layer Bed temp.

;
; Macro Start - Home_all_Axis_in_sequence
;
;Home_all_Axis_in_sequence
G90 			;Use X Y Z Absolute positioning
G0 Z5			;Move up 5mm if homed
G28 Y			;Home Y
G0 Y115			;Position Y
T0				;Select Nozzle 0
G39				;Clear the bed levelling points
G28 Z			;Home Z
G0 Z10			;Move up 10mm if homed
G28 X			;Home X
;
; Macro End - Home_all_Axis_in_sequence
;

M190			;Wait for Bed to get to temp.
M140			;Go to bed temperature from loaded reel - don't wait
M103			;Set & heat first layer nozzle temp.
M109			;Wait for Nozzle to get to temp.
M170			;Set Ambient temp.

;
; Macro Start - Short_Purge#RBX01-DM#N0
;
;Short_Purge_T0(Dual Material)
G0 Y-6 X11 Z8
T0
M109
G0 Z4
G1 Y-4 F400
G36 D1200 F1000
G0 B1
G1 D2 F200
G1 D30 X23 F200
G0 B0
G0 Z4.5
G0 Y3
;
; Macro End - Short_Purge#RBX01-DM#N0
;

;
; Macro Start - Short_Purge#RBX01-DM#N1
;
;Short_Purge_T1 (Dual Material)
G0 Y-6 X36 Z8
T1
M109
G0 Z4
G1 Y-4 F400
G36 E1200 F1000
G0 B1
G1 E2 F200
G1 E30 X23 F200
G0 B0
G0 Z4.5
G0 Y3
;
; Macro End - Short_Purge#RBX01-DM#N1
;

;
; Macro Start - Level_Gantry_(2-points)
;
;Level_Gantry
T0			;Select Nozzle 0 (T0)
G0 X20 Y75		;Level Gantry Position 1
G28 Z			;Home Z
G0 Z4 			;Move up 4mm
G0 X190 Y75		;Level Gantry Position 2
G28 Z			;Home Z
G0 Z4 			;Move up 4mm
G38 			;Level gantry
;
; Macro End - Level_Gantry_(2-points)
;

;
; Macro Start - 7_point_Bed_probing-Set_Washout
;
;7_point_Bed_probing-Set_Washout
G0 Y20
G28 Z
G0 Z2
G0 X105
G28 Z
G0 Z2
G0 X20
G28 Z
G0 Z2
G0 Y130
G28 Z
G0 Z2
G0 X105
G28 Z
G0 Z2
G0 X190
G28 Z
G0 Z2
G0 X105 Y75
G28 Z
G0 Z2

G39 S0.5		;set washout over the first 2mm
;
; Macro End - 7_point_Bed_probing-Set_Washout
;

;Centre head and prime
G0 X105 Y75 Z5
G1 E0.5 D0.5 F400
M129			;Head LED on
;
; Macro End - before_print
;
; End of Pre print gcode
;LAYER:0 height:0.300
M107
G1 F12000 X41.811 Y71.880 Z0.300 
T1
;TYPE:WALL-INNER
G1 B1
G1 F960 X61.590 Y62.153 E3.97012
G1 F960 X61.879 Y62.031 E0.05650
G1 F960 X62.148 Y61.951 E0.05055
G1 F960 X62.408 Y61.907 E0.04750
G1 F960 X66.983 Y61.889 E0.82406
G1 F960 X67.400 Y61.835 E0.07574
G1 F960 X67.729 Y61.714 E0.06314
G1 F960 X67.999 Y61.560 E0.05599
G1 F960 X68.165 Y61.432 E0.03776
G1 F960 X68.384 Y61.213 E0.05579
G1 F960 X68.583 Y60.930 E0.06232
G1 F960 X68.760 Y60.508 E0.08243
G1 F960 X68.822 Y60.159 E0.06385
G1 F960 X68.862 Y51.218 E1.61048
G1 F960 X68.967 Y50.751 E0.08622
G1 F960 X69.155 Y50.320 E0.08470
G1 F960 X69.232 Y50.192 E0.02691
G1 F960 X69.426 Y49.933 E0.05829
G1 F960 X69.646 Y49.704 E0.05720
G1 F960 X69.905 Y49.495 E0.05995
G1 F960 X70.169 Y49.334 E0.05570
G1 F960 X70.473 Y49.198 E0.05999
G1 F960 X70.748 Y49.115 E0.05174
G1 F960 X71.086 Y49.059 E0.06171
G1 F960 X71.397 Y49.047 E0.05606
G1 F960 X71.714 Y49.076 E0.05734
G1 F960 X72.013 Y49.141 E0.05511
G1 F960 X72.508 Y49.337 E0.09589
G1 F960 X168.683 Y98.505 E19.45568
G1 F960 X168.681 Y100.320 E0.32692
G1 F960 X168.671 Y100.449 E0.02331
G1 F960 X168.649 Y100.538 E0.01651
G1 F960 X168.614 Y100.622 E0.01639
G1 F960 X168.559 Y100.711 E0.01884
G1 F960 X168.504 Y100.775 E0.01520
G1 F960 X168.352 Y100.885 E0.03380
G1 F960 X168.263 Y100.921 E0.01729
G1 F960 X168.170 Y100.944 E0.01726
G1 F960 X168.084 Y100.951 E0.01554
G1 F960 X167.986 Y100.943 E0.01771
G1 F960 X167.897 Y100.922 E0.01647
G1 F960 X167.729 Y100.836 E0.03399
G1 F960 X167.659 Y100.776 E0.01661
G1 F960 X167.598 Y100.704 E0.01700
G1 F960 X167.547 Y100.620 E0.01770
G1 F960 X167.491 Y100.448 E0.03258
G1 F960 X167.408 Y99.454 E0.17966
G1 F960 X150.326 Y99.412 E3.07684
G1 F960 X150.053 Y99.361 E0.05002
G1 F960 X149.755 Y99.267 E0.05628
G1 F960 X149.492 Y99.147 E0.05207
G1 F960 X149.142 Y98.929 E0.07427
G1 F960 X148.623 Y98.566 E0.11408
G1 F960 X148.673 Y98.425 E0.02695
G1 F960 X149.017 Y98.427 E0.06196
G1 F960 X149.117 Y97.111 E0.23772
G1 F960 X149.090 Y96.587 E0.09451
G1 F960 X148.995 Y96.063 E0.09592
G1 F960 X148.839 Y95.556 E0.09555
G1 F960 X148.617 Y95.075 E0.09542
G1 F960 X148.334 Y94.619 E0.09667
G1 F960 X147.999 Y94.208 E0.09551
G1 F960 X147.614 Y93.843 E0.09556
G1 F960 X147.186 Y93.526 E0.09593
G1 F960 X146.720 Y93.268 E0.09594
G1 F960 X146.227 Y93.071 E0.09563
G1 F960 X145.713 Y92.937 E0.09568
G1 F960 X145.183 Y92.869 E0.09625
G1 F960 X144.654 Y92.869 E0.09528
G1 F960 X144.124 Y92.935 E0.09620
G1 F960 X143.610 Y93.069 E0.09568
G1 F960 X143.115 Y93.266 E0.09596
G1 F960 X142.651 Y93.523 E0.09554
G1 F960 X142.224 Y93.837 E0.09547
G1 F960 X141.836 Y94.203 E0.09607
G1 F960 X141.501 Y94.613 E0.09537
G1 F960 X141.218 Y95.067 E0.09636
G1 F960 X140.994 Y95.550 E0.09590
G1 F960 X140.837 Y96.056 E0.09543
G1 F960 X140.741 Y96.580 E0.09595
G1 F960 X140.714 Y97.107 E0.09505
G1 F960 X140.811 Y98.412 E0.23571
G1 F960 X141.154 Y98.414 E0.06178
G1 F960 X141.204 Y98.559 E0.02763
G1 F960 X140.667 Y98.934 E0.11798
G1 F960 X140.607 Y98.965 E0.01216
G1 F960 X140.574 Y98.970 E0.00601
G1 F960 X140.534 Y98.959 E0.00747
G1 F960 X140.497 Y98.927 E0.00881
G1 F960 X140.322 Y98.450 E0.09152
G1 F960 X140.213 Y98.016 E0.08060
G1 F960 X140.142 Y97.541 E0.08651
G1 F960 X140.116 Y97.052 E0.08820
G1 F960 X140.153 Y96.363 E0.12428
G1 F960 X140.104 Y95.937 E0.07724
G1 F960 X139.988 Y95.608 E0.06284
G1 F960 X139.839 Y95.334 E0.05618
G1 F960 X139.716 Y95.168 E0.03721
G1 F960 X139.502 Y94.945 E0.05567
G1 F960 X139.237 Y94.753 E0.05894
G1 F960 X138.941 Y94.604 E0.05969
G1 F960 X138.623 Y94.513 E0.05958
G1 F960 X112.361 Y91.614 E4.75907
G1 F960 X112.084 Y91.608 E0.04991
G1 F960 X111.765 Y91.651 E0.05798
G1 F960 X111.463 Y91.749 E0.05719
G1 F960 X111.175 Y91.897 E0.05832
G1 F960 X110.930 Y92.085 E0.05562
G1 F960 X110.709 Y92.313 E0.05719
G1 F960 X110.527 Y92.585 E0.05895
G1 F960 X110.394 Y92.879 E0.05812
G1 F960 X110.318 Y93.186 E0.05697
G1 F960 X110.290 Y93.502 E0.05714
G1 F960 X110.316 Y93.830 E0.05927
G1 F960 X110.555 Y94.679 E0.15887
G1 F960 X110.671 Y95.315 E0.11645
G1 F960 X110.714 Y95.921 E0.10943
G1 F960 X110.694 Y96.513 E0.10669
G1 F960 X110.612 Y97.107 E0.10801
G1 F960 X110.469 Y97.693 E0.10865
G1 F960 X110.259 Y98.274 E0.11128
G1 F960 X109.993 Y98.828 E0.11069
G1 F960 X109.687 Y99.318 E0.10406
G1 F960 X109.664 Y99.347 E0.00667
G1 F960 X109.636 Y99.368 E0.00630
G1 F960 X109.599 Y99.384 E0.00726
G1 F960 X109.540 Y99.373 E0.01081
G1 F960 X109.023 Y98.867 E0.13030
G1 F960 X109.126 Y98.723 E0.03189
G1 F960 X109.389 Y98.262 E0.09560
G1 F960 X109.600 Y97.775 E0.09560
G1 F960 X109.678 Y97.529 E0.04648
G1 F960 X110.003 Y97.529 E0.05854
G1 F960 X110.116 Y96.134 E0.25209
G1 F960 X110.093 Y95.522 E0.11031
G1 F960 X109.998 Y94.913 E0.11102
G1 F960 X109.830 Y94.316 E0.11171
G1 F960 X109.592 Y93.747 E0.11109
G1 F960 X109.290 Y93.208 E0.11129
G1 F960 X108.926 Y92.713 E0.11067
G1 F960 X108.504 Y92.258 E0.11178
G1 F960 X108.034 Y91.862 E0.11070
G1 F960 X107.516 Y91.520 E0.11180
G1 F960 X106.966 Y91.245 E0.11076
G1 F960 X106.383 Y91.035 E0.11162
G1 F960 X105.783 Y90.896 E0.11093
G1 F960 X105.166 Y90.829 E0.11179
G1 F960 X104.552 Y90.837 E0.11060
G1 F960 X103.937 Y90.915 E0.11166
G1 F960 X103.339 Y91.068 E0.11118
G1 F960 X102.762 Y91.290 E0.11136
G1 F960 X102.215 Y91.579 E0.11143
G1 F960 X101.709 Y91.929 E0.11082
G1 F960 X101.245 Y92.340 E0.11165
G1 F960 X100.833 Y92.802 E0.11150
G1 F960 X100.483 Y93.307 E0.11067
G1 F960 X100.191 Y93.852 E0.11137
G1 F960 X99.967 Y94.429 E0.11149
G1 F960 X99.812 Y95.024 E0.11075
G1 F960 X99.730 Y95.631 E0.11033
G1 F960 X99.722 Y96.089 E0.08251
G1 F960 X99.023 Y98.686 E0.48442
G1 F960 X98.410 Y98.521 E0.11434
G1 F960 X98.326 Y98.485 E0.01646
G1 F960 X98.295 Y98.462 E0.00695
G1 F960 X98.283 Y98.425 E0.00701
G1 F960 X98.315 Y98.238 E0.03417
G1 F960 X99.491 Y93.980 E0.79567
G1 F960 X99.707 Y93.476 E0.09877
G1 F960 X100.125 Y92.705 E0.15797
G1 F960 X100.222 Y92.392 E0.05902
G1 F960 X100.263 Y92.075 E0.05757
G1 F960 X100.253 Y91.760 E0.05677
G1 F960 X100.187 Y91.441 E0.05868
G1 F960 X100.071 Y91.145 E0.05726
G1 F960 X99.911 Y90.876 E0.05638
G1 F960 X99.701 Y90.628 E0.05853
G1 F960 X99.453 Y90.424 E0.05784
G1 F960 X99.185 Y90.266 E0.05604
G1 F960 X98.892 Y90.156 E0.05637
G1 F960 X98.611 Y90.098 E0.05168
G1 F960 X57.550 Y85.572 E7.44074
G1 F960 X57.224 Y85.514 E0.05964
G1 F960 X56.945 Y85.431 E0.05243
G1 F960 X56.657 Y85.304 E0.05669
G1 F960 X56.402 Y85.153 E0.05338
G1 F960 X56.160 Y84.965 E0.05520
G1 F960 X55.941 Y84.749 E0.05541
G1 F960 X55.753 Y84.511 E0.05463
G1 F960 X55.597 Y84.255 E0.05400
G1 F960 X55.470 Y83.976 E0.05522
G1 F960 X55.379 Y83.682 E0.05543
G1 F960 X55.324 Y83.383 E0.05476
G1 F960 X55.305 Y83.062 E0.05792
G1 F960 X55.312 Y74.918 E1.46691
G1 F960 X55.257 Y74.499 E0.07612
G1 F960 X55.136 Y74.171 E0.06297
G1 F960 X54.964 Y73.872 E0.06213
G1 F960 X54.668 Y73.548 E0.07905
G1 F960 X54.478 Y73.399 E0.04349
G1 F960 X54.066 Y73.185 E0.08362
G1 F960 X53.601 Y73.081 E0.08583
G1 F960 X44.202 Y73.036 E1.69298
G1 F960 X43.774 Y72.962 E0.07824
G1 F960 X43.324 Y72.832 E0.08437
G1 F960 X42.894 Y72.653 E0.08389
G1 F960 X42.496 Y72.431 E0.08209
G1 F960 X42.111 Y72.153 E0.08554
G1 F960 X41.811 Y71.880 E0.07306
G1 F12000 X58.441 Y69.137 
G1 F960 X58.408 Y79.229 E1.81779
G1 F960 X58.436 Y79.676 E0.08067
G1 F960 X58.522 Y80.142 E0.08535
G1 F960 X58.662 Y80.592 E0.08489
G1 F960 X58.858 Y81.026 E0.08577
G1 F960 X59.106 Y81.432 E0.08569
G1 F960 X59.400 Y81.805 E0.08555
G1 F960 X59.738 Y82.138 E0.08546
G1 F960 X60.114 Y82.431 E0.08586
G1 F960 X60.523 Y82.673 E0.08560
G1 F960 X60.957 Y82.864 E0.08541
G1 F960 X61.407 Y82.999 E0.08462
G1 F960 X61.852 Y83.077 E0.08138
G1 F960 X84.179 Y85.539 E4.04594
G1 F960 X84.623 Y85.559 E0.08005
G1 F960 X85.091 Y85.527 E0.08449
G1 F960 X85.553 Y85.435 E0.08485
G1 F960 X86.001 Y85.292 E0.08471
G1 F960 X86.428 Y85.093 E0.08485
G1 F960 X86.672 Y84.942 E0.05168
G1 F960 X86.768 Y84.990 E0.01933
G1 F960 X87.527 Y84.213 E0.19565
G1 F960 X87.828 Y83.820 E0.08916
G1 F960 X95.477 Y68.908 E3.01871
G1 F960 X95.669 Y68.461 E0.08763
G1 F960 X95.806 Y67.975 E0.09095
G1 F960 X95.880 Y67.469 E0.09211
G1 F960 X95.888 Y66.959 E0.09187
G1 F960 X95.828 Y66.450 E0.09232
G1 F960 X95.703 Y65.959 E0.09126
G1 F960 X95.514 Y65.483 E0.09225
G1 F960 X95.266 Y65.036 E0.09208
G1 F960 X94.959 Y64.627 E0.09211
G1 F960 X94.608 Y64.265 E0.09082
G1 F960 X94.188 Y63.932 E0.09654
G1 F960 X77.578 Y55.410 E3.36261
G1 F960 X77.145 Y55.222 E0.08503
G1 F960 X76.668 Y55.085 E0.08939
G1 F960 X76.175 Y55.010 E0.08982
G1 F960 X75.679 Y54.997 E0.08937
G1 F960 X75.183 Y55.048 E0.08981
G1 F960 X74.700 Y55.161 E0.08935
G1 F960 X74.231 Y55.336 E0.09017
G1 F960 X73.792 Y55.567 E0.08935
G1 F960 X73.385 Y55.852 E0.08950
G1 F960 X73.016 Y56.190 E0.09013
G1 F960 X72.697 Y56.567 E0.08895
G1 F960 X72.425 Y56.986 E0.08998
G1 F960 X72.209 Y57.437 E0.09007
G1 F960 X72.053 Y57.906 E0.08903
G1 F960 X71.956 Y58.411 E0.09262
G1 F960 X71.894 Y60.533 E0.38238
G1 F960 X71.813 Y61.038 E0.09212
G1 F960 X71.678 Y61.538 E0.09329
G1 F960 X71.491 Y62.024 E0.09380
G1 F960 X71.251 Y62.496 E0.09538
G1 F960 X70.969 Y62.927 E0.09277
G1 F960 X70.631 Y63.343 E0.09655
G1 F960 X70.274 Y63.700 E0.09094
G1 F960 X69.857 Y64.037 E0.09657
G1 F960 X69.424 Y64.319 E0.09307
G1 F960 X68.956 Y64.556 E0.09449
G1 F960 X68.463 Y64.745 E0.09510
G1 F960 X67.961 Y64.880 E0.09363
G1 F960 X67.454 Y64.959 E0.09242
G1 F960 X66.892 Y64.989 E0.10137
G1 F960 X63.736 Y64.986 E0.56846
G1 F960 X63.318 Y65.010 E0.07541
G1 F960 X62.876 Y65.086 E0.08078
G1 F960 X62.447 Y65.211 E0.08049
G1 F960 X60.265 Y66.282 E0.43782
G1 F960 X59.798 Y66.616 E0.10342
G1 F960 X58.997 Y67.385 E0.20000
G1 F960 X59.046 Y67.483 E0.01974
G1 F960 X58.884 Y67.742 E0.05503
G1 F960 X58.681 Y68.179 E0.08679
G1 F960 X58.536 Y68.637 E0.08653
G1 F960 X58.441 Y69.137 E0.09167
G1 F12000 X58.619 Y80.117 
G1 F12000 X59.805 Y82.062 
G1 F12000 X61.866 Y82.978 
G1 F12000 X85.077 Y85.427 
G1 F12000 X86.738 Y84.820 
G1 F12000 X87.742 Y83.765 
G1 F12000 X90.471 Y81.404 
G1 F960 X90.333 Y81.883 E0.08979
G1 F960 X90.260 Y82.380 E0.09048
G1 F960 X90.248 Y82.883 E0.09063
G1 F960 X90.303 Y83.383 E0.09060
G1 F960 X90.421 Y83.870 E0.09026
G1 F960 X90.599 Y84.335 E0.08968
G1 F960 X90.837 Y84.781 E0.09106
G1 F960 X91.130 Y85.188 E0.09033
G1 F960 X91.476 Y85.558 E0.09124
G1 F960 X91.860 Y85.875 E0.08969
G1 F960 X92.289 Y86.145 E0.09130
G1 F960 X92.743 Y86.355 E0.09010
G1 F960 X93.247 Y86.512 E0.09508
G1 F960 X145.427 Y92.290 E9.45616
G1 F960 X145.859 Y92.362 E0.07889
G1 F960 X146.436 Y92.514 E0.10748
G1 F960 X146.933 Y92.712 E0.09636
G1 F960 X147.447 Y92.987 E0.10500
G1 F960 X147.830 Y93.254 E0.08410
G1 F960 X148.243 Y93.610 E0.09821
G1 F960 X148.636 Y94.033 E0.10400
G1 F960 X148.920 Y94.424 E0.08704
G1 F960 X149.190 Y94.886 E0.09638
G1 F960 X149.400 Y95.361 E0.09355
G1 F960 X149.559 Y95.871 E0.09622
G1 F960 X149.664 Y96.397 E0.09661
G1 F960 X149.744 Y97.296 E0.16257
G1 F960 X149.834 Y97.614 E0.05953
G1 F960 X149.979 Y97.912 E0.05969
G1 F960 X150.168 Y98.177 E0.05863
G1 F960 X150.404 Y98.409 E0.05961
G1 F960 X150.669 Y98.591 E0.05791
G1 F960 X150.968 Y98.730 E0.05939
G1 F960 X151.319 Y98.824 E0.06545
G1 F960 X160.179 Y98.847 E1.59588
G1 F960 X160.467 Y98.822 E0.05207
G1 F960 X160.768 Y98.746 E0.05592
G1 F960 X161.065 Y98.613 E0.05861
G1 F960 X161.310 Y98.450 E0.05300
G1 F960 X161.553 Y98.227 E0.05941
G1 F960 X161.757 Y97.958 E0.06081
G1 F960 X161.896 Y97.684 E0.05534
G1 F960 X161.992 Y97.400 E0.05400
G1 F960 X162.042 Y97.086 E0.05727
G1 F960 X162.038 Y96.755 E0.05962
G1 F960 X161.974 Y96.430 E0.05966
G1 F960 X161.866 Y96.138 E0.05608
G1 F960 X161.715 Y95.875 E0.05462
G1 F960 X161.507 Y95.619 E0.05941
G1 F960 X161.276 Y95.420 E0.05492
G1 F960 X161.043 Y95.274 E0.04953
G1 F960 X125.588 Y77.148 E7.17237
G1 F960 X102.158 Y67.650 E4.55381
G1 F960 X102.158 Y67.605 E0.00811
G1 F960 X101.124 Y67.263 E0.19617
G1 F960 X100.655 Y67.167 E0.08623
G1 F960 X100.173 Y67.130 E0.08707
G1 F960 X99.693 Y67.153 E0.08656
G1 F960 X99.216 Y67.237 E0.08724
G1 F960 X98.756 Y67.375 E0.08650
G1 F960 X98.314 Y67.572 E0.08716
G1 F960 X97.903 Y67.820 E0.08646
G1 F960 X97.523 Y68.118 E0.08698
G1 F960 X97.184 Y68.461 E0.08686
G1 F960 X96.892 Y68.838 E0.08589
G1 F960 X96.658 Y69.230 E0.08223
G1 F960 X90.660 Y80.964 E2.37366
G1 F960 X90.471 Y81.404 E0.08626
G1 F12000 X91.203 Y81.220 
;TYPE:WALL-OUTER
G1 F960 X91.037 Y81.606 E0.07568
G1 F960 X90.921 Y82.010 E0.07571
G1 F960 X90.859 Y82.431 E0.07665
G1 F960 X90.849 Y82.857 E0.07675
G1 F960 X90.895 Y83.279 E0.07646
G1 F960 X90.995 Y83.691 E0.07636
G1 F960 X91.146 Y84.086 E0.07617
G1 F960 X91.347 Y84.462 E0.07680
G1 F960 X91.595 Y84.806 E0.07638
G1 F960 X91.888 Y85.120 E0.07736
G1 F960 X92.212 Y85.388 E0.07574
G1 F960 X92.576 Y85.616 E0.07736
G1 F960 X92.959 Y85.794 E0.07607
G1 F960 X93.370 Y85.922 E0.07754
G1 F960 X145.495 Y91.694 E9.44620
G1 F960 X145.984 Y91.774 E0.08925
G1 F960 X146.625 Y91.943 E0.11940
G1 F960 X147.186 Y92.167 E0.10881
G1 F960 X147.760 Y92.473 E0.11716
G1 F960 X148.205 Y92.784 E0.09779
G1 F960 X148.656 Y93.174 E0.10740
G1 F960 X149.099 Y93.649 E0.11699
G1 F960 X149.427 Y94.100 E0.10045
G1 F960 X149.725 Y94.612 E0.10671
G1 F960 X149.965 Y95.155 E0.10693
G1 F960 X150.142 Y95.724 E0.10733
G1 F960 X150.259 Y96.310 E0.10763
G1 F960 X150.337 Y97.187 E0.15859
G1 F960 X150.397 Y97.399 E0.03969
G1 F960 X150.496 Y97.604 E0.04101
G1 F960 X150.626 Y97.786 E0.04029
G1 F960 X150.787 Y97.944 E0.04063
G1 F960 X150.968 Y98.068 E0.03952
G1 F960 X151.173 Y98.164 E0.04077
G1 F960 X151.398 Y98.224 E0.04194
G1 F960 X160.154 Y98.247 E1.57715
G1 F960 X160.367 Y98.229 E0.03850
G1 F960 X160.570 Y98.177 E0.03775
G1 F960 X160.774 Y98.086 E0.04023
G1 F960 X160.939 Y97.976 E0.03572
G1 F960 X161.108 Y97.822 E0.04118
G1 F960 X161.246 Y97.639 E0.04128
G1 F960 X161.341 Y97.451 E0.03794
G1 F960 X161.407 Y97.256 E0.03708
G1 F960 X161.441 Y97.042 E0.03903
G1 F960 X161.439 Y96.817 E0.04053
G1 F960 X161.395 Y96.593 E0.04112
G1 F960 X161.321 Y96.394 E0.03824
G1 F960 X161.218 Y96.216 E0.03704
G1 F960 X161.074 Y96.038 E0.04124
G1 F960 X160.919 Y95.904 E0.03691
G1 F960 X125.338 Y77.694 E7.19946
G1 F960 X101.558 Y68.054 E4.62184
G1 F960 X101.558 Y68.038 E0.00288
G1 F960 X100.969 Y67.844 E0.11170
G1 F960 X100.572 Y67.762 E0.07302
G1 F960 X100.164 Y67.731 E0.07370
G1 F960 X99.759 Y67.750 E0.07303
G1 F960 X99.355 Y67.822 E0.07392
G1 F960 X98.965 Y67.938 E0.07329
G1 F960 X98.593 Y68.105 E0.07345
G1 F960 X98.245 Y68.315 E0.07321
G1 F960 X97.923 Y68.567 E0.07365
G1 F960 X97.636 Y68.857 E0.07349
G1 F960 X97.389 Y69.177 E0.07281
G1 F960 X91.203 Y81.220 E2.43863
G1 F12000 X90.838 Y81.062 
G1 F12000 X87.636 Y83.739 
G1 F12000 X87.319 Y83.498 
G1 F960 X94.934 Y68.652 E3.00533
G1 F960 X95.102 Y68.260 E0.07682
G1 F960 X95.218 Y67.850 E0.07675
G1 F960 X95.281 Y67.421 E0.07810
G1 F960 X95.287 Y66.990 E0.07764
G1 F960 X95.237 Y66.559 E0.07815
G1 F960 X95.131 Y66.144 E0.07715
G1 F960 X94.971 Y65.740 E0.07827
G1 F960 X94.761 Y65.363 E0.07773
G1 F960 X94.502 Y65.018 E0.07770
G1 F960 X94.204 Y64.710 E0.07719
G1 F960 X93.861 Y64.439 E0.07874
G1 F960 X77.321 Y55.953 E3.34843
G1 F960 X76.942 Y55.788 E0.07445
G1 F960 X76.539 Y55.672 E0.07554
G1 F960 X76.122 Y55.609 E0.07596
G1 F960 X75.702 Y55.598 E0.07568
G1 F960 X75.282 Y55.641 E0.07605
G1 F960 X74.874 Y55.736 E0.07546
G1 F960 X74.477 Y55.885 E0.07638
G1 F960 X74.105 Y56.080 E0.07565
G1 F960 X73.761 Y56.321 E0.07565
G1 F960 X73.449 Y56.607 E0.07624
G1 F960 X73.180 Y56.926 E0.07516
G1 F960 X72.949 Y57.281 E0.07629
G1 F960 X72.766 Y57.662 E0.07613
G1 F960 X72.635 Y58.058 E0.07513
G1 F960 X72.554 Y58.477 E0.07687
G1 F960 X72.492 Y60.592 E0.38112
G1 F960 X72.402 Y61.158 E0.10323
G1 F960 X72.250 Y61.724 E0.10556
G1 F960 X72.037 Y62.276 E0.10657
G1 F960 X71.774 Y62.791 E0.10416
G1 F960 X71.454 Y63.282 E0.10556
G1 F960 X71.077 Y63.747 E0.10783
G1 F960 X70.677 Y64.146 E0.10176
G1 F960 X70.212 Y64.522 E0.10771
G1 F960 X69.725 Y64.838 E0.10457
G1 F960 X69.193 Y65.108 E0.10746
G1 F960 X68.653 Y65.315 E0.10417
G1 F960 X68.083 Y65.469 E0.10635
G1 F960 X67.520 Y65.556 E0.10261
G1 F960 X66.905 Y65.589 E0.11093
G1 F960 X63.753 Y65.586 E0.56774
G1 F960 X63.386 Y65.607 E0.06621
G1 F960 X63.011 Y65.671 E0.06852
G1 F960 X62.650 Y65.777 E0.06777
G1 F960 X62.310 Y65.922 E0.06658
G1 F960 X60.576 Y66.797 E0.34984
G1 F960 X60.182 Y67.079 E0.08727
G1 F960 X59.731 Y67.512 E0.11261
G1 F960 X59.744 Y67.538 E0.00524
G1 F960 X59.629 Y67.681 E0.03305
G1 F960 X59.413 Y68.028 E0.07362
G1 F960 X59.242 Y68.397 E0.07325
G1 F960 X59.119 Y68.784 E0.07314
G1 F960 X59.041 Y69.194 E0.07517
G1 F960 X59.008 Y79.211 E1.80428
G1 F960 X59.033 Y79.603 E0.07075
G1 F960 X59.105 Y79.998 E0.07232
G1 F960 X59.224 Y80.379 E0.07190
G1 F960 X59.389 Y80.745 E0.07231
G1 F960 X59.599 Y81.089 E0.07259
G1 F960 X59.848 Y81.404 E0.07232
G1 F960 X60.134 Y81.686 E0.07235
G1 F960 X60.453 Y81.934 E0.07278
G1 F960 X60.798 Y82.138 E0.07219
G1 F960 X61.165 Y82.300 E0.07226
G1 F960 X61.546 Y82.414 E0.07163
G1 F960 X61.937 Y82.483 E0.07152
G1 F960 X84.226 Y84.940 E4.03904
G1 F960 X84.616 Y84.958 E0.07032
G1 F960 X85.011 Y84.931 E0.07131
G1 F960 X85.403 Y84.853 E0.07199
G1 F960 X85.782 Y84.732 E0.07166
G1 F960 X86.142 Y84.564 E0.07156
G1 F960 X86.480 Y84.355 E0.07158
G1 F960 X86.619 Y84.244 E0.03204
G1 F960 X86.645 Y84.257 E0.00524
G1 F960 X87.072 Y83.820 E0.11005
G1 F960 X87.319 Y83.498 E0.07310
G1 F12000 X87.636 Y83.739 
G1 F12000 X98.562 Y90.295 
G1 F12000 X98.518 Y90.691 
G1 F960 X57.470 Y86.168 E7.43836
G1 F960 X57.089 Y86.100 E0.06971
G1 F960 X56.737 Y85.995 E0.06616
G1 F960 X56.382 Y85.839 E0.06984
G1 F960 X56.064 Y85.650 E0.06663
G1 F960 X55.761 Y85.415 E0.06907
G1 F960 X55.497 Y85.155 E0.06674
G1 F960 X55.258 Y84.851 E0.06965
G1 F960 X55.064 Y84.533 E0.06710
G1 F960 X54.910 Y84.194 E0.06707
G1 F960 X54.796 Y83.826 E0.06939
G1 F960 X54.728 Y83.457 E0.06758
G1 F960 X54.705 Y83.083 E0.06749
G1 F960 X54.712 Y74.957 E1.46366
G1 F960 X54.671 Y74.644 E0.05686
G1 F960 X54.591 Y74.426 E0.04183
G1 F960 X54.477 Y74.228 E0.04115
G1 F960 X54.259 Y73.989 E0.05827
G1 F960 X54.152 Y73.906 E0.02439
G1 F960 X53.859 Y73.754 E0.05945
G1 F960 X53.534 Y73.681 E0.06000
G1 F960 X44.149 Y73.636 E1.69046
G1 F960 X43.635 Y73.547 E0.09396
G1 F960 X43.126 Y73.400 E0.09543
G1 F960 X42.637 Y73.196 E0.09544
G1 F960 X42.167 Y72.933 E0.09701
G1 F960 X41.732 Y72.621 E0.09642
G1 F960 X41.335 Y72.259 E0.09677
G1 F960 X40.976 Y71.850 E0.09802
G1 F960 X40.858 Y71.680 E0.03727
G1 F960 X61.337 Y61.608 E4.11069
G1 F960 X61.669 Y61.467 E0.06497
G1 F960 X62.011 Y61.366 E0.06423
G1 F960 X62.358 Y61.307 E0.06340
G1 F960 X66.943 Y61.289 E0.82586
G1 F960 X67.257 Y61.248 E0.05704
G1 F960 X67.476 Y61.168 E0.04200
G1 F960 X67.768 Y60.981 E0.06246
G1 F960 X67.923 Y60.825 E0.03961
G1 F960 X68.055 Y60.638 E0.04123
G1 F960 X68.181 Y60.338 E0.05861
G1 F960 X68.222 Y60.105 E0.04261
G1 F960 X68.262 Y51.150 E1.61300
G1 F960 X68.393 Y50.569 E0.10728
G1 F960 X68.631 Y50.027 E0.10662
G1 F960 X68.733 Y49.857 E0.03571
G1 F960 X68.969 Y49.542 E0.07090
G1 F960 X69.237 Y49.262 E0.06981
G1 F960 X69.561 Y49.002 E0.07483
G1 F960 X69.884 Y48.805 E0.06815
G1 F960 X70.429 Y48.580 E0.10620
G1 F960 X70.626 Y48.527 E0.03675
G1 F960 X71.019 Y48.461 E0.07178
G1 F960 X71.413 Y48.447 E0.07101
G1 F960 X71.811 Y48.483 E0.07198
G1 F960 X72.189 Y48.566 E0.06971
G1 F960 X72.751 Y48.788 E0.10884
G1 F960 X169.283 Y98.139 E19.52793
G1 F960 X169.281 Y100.342 E0.39681
G1 F960 X169.265 Y100.548 E0.03722
G1 F960 X169.222 Y100.723 E0.03246
G1 F960 X169.146 Y100.903 E0.03519
G1 F960 X169.046 Y101.064 E0.03414
G1 F960 X168.926 Y101.203 E0.03308
G1 F960 X168.781 Y101.327 E0.03437
G1 F960 X168.619 Y101.424 E0.03401
G1 F960 X168.453 Y101.493 E0.03238
G1 F960 X168.265 Y101.538 E0.03482
G1 F960 X168.081 Y101.552 E0.03324
G1 F960 X167.891 Y101.537 E0.03433
G1 F960 X167.711 Y101.494 E0.03333
G1 F960 X167.535 Y101.421 E0.03432
G1 F960 X167.374 Y101.321 E0.03414
G1 F960 X167.233 Y101.200 E0.03347
G1 F960 X167.111 Y101.058 E0.03372
G1 F960 X167.009 Y100.891 E0.03525
G1 F960 X166.940 Y100.725 E0.03238
G1 F960 X166.897 Y100.543 E0.03368
G1 F960 X166.856 Y100.053 E0.08857
G1 F960 X150.273 Y100.012 E2.98696
G1 F960 X149.899 Y99.941 E0.06857
G1 F960 X149.545 Y99.831 E0.06677
G1 F960 X149.201 Y99.673 E0.06818
G1 F960 X147.856 Y98.761 E0.29270
G1 F960 X147.906 Y98.680 E0.01715
G1 F960 X148.074 Y98.322 E0.07123
G1 F960 X148.224 Y97.823 E0.09385
G1 F960 X148.461 Y97.824 E0.04269
G1 F960 X148.516 Y97.104 E0.13006
G1 F960 X148.493 Y96.656 E0.08080
G1 F960 X148.411 Y96.206 E0.08239
G1 F960 X148.277 Y95.771 E0.08199
G1 F960 X148.088 Y95.360 E0.08148
G1 F960 X147.845 Y94.968 E0.08307
G1 F960 X147.558 Y94.617 E0.08167
G1 F960 X147.228 Y94.304 E0.08192
G1 F960 X146.861 Y94.032 E0.08228
G1 F960 X146.463 Y93.811 E0.08200
G1 F960 X146.039 Y93.642 E0.08221
G1 F960 X145.598 Y93.527 E0.08209
G1 F960 X145.145 Y93.469 E0.08226
G1 F960 X144.691 Y93.469 E0.08177
G1 F960 X144.237 Y93.526 E0.08242
G1 F960 X143.797 Y93.640 E0.08187
G1 F960 X143.372 Y93.809 E0.08238
G1 F960 X142.976 Y94.029 E0.08160
G1 F960 X142.609 Y94.298 E0.08196
G1 F960 X142.276 Y94.613 E0.08256
G1 F960 X141.990 Y94.963 E0.08141
G1 F960 X141.747 Y95.353 E0.08277
G1 F960 X141.555 Y95.766 E0.08204
G1 F960 X141.421 Y96.199 E0.08164
G1 F960 X141.338 Y96.650 E0.08260
G1 F960 X141.315 Y97.100 E0.08116
G1 F960 X141.368 Y97.815 E0.12914
G1 F960 X141.606 Y97.816 E0.04287
G1 F960 X141.636 Y97.957 E0.02597
G1 F960 X141.753 Y98.316 E0.06801
G1 F960 X141.920 Y98.674 E0.07115
G1 F960 X141.970 Y98.755 E0.01715
G1 F960 X140.991 Y99.440 E0.21522
G1 F960 X140.779 Y99.543 E0.04245
G1 F960 X140.664 Y99.566 E0.02112
G1 F960 X140.548 Y99.571 E0.02091
G1 F960 X140.438 Y99.558 E0.01995
G1 F960 X140.329 Y99.526 E0.02046
G1 F960 X140.231 Y99.479 E0.01958
G1 F960 X140.134 Y99.413 E0.02113
G1 F960 X140.052 Y99.334 E0.02051
G1 F960 X139.984 Y99.243 E0.02046
G1 F960 X139.931 Y99.139 E0.02102
G1 F960 X139.751 Y98.637 E0.09606
G1 F960 X139.625 Y98.138 E0.09270
G1 F960 X139.544 Y97.600 E0.09800
G1 F960 X139.516 Y97.050 E0.09919
G1 F960 X139.551 Y96.382 E0.12049
G1 F960 X139.515 Y96.072 E0.05621
G1 F960 X139.438 Y95.852 E0.04198
G1 F960 X139.332 Y95.658 E0.03982
G1 F960 X139.257 Y95.556 E0.02280
G1 F960 X139.107 Y95.400 E0.03898
G1 F960 X138.924 Y95.268 E0.04064
G1 F960 X138.721 Y95.165 E0.04100
G1 F960 X138.506 Y95.104 E0.04025
G1 F960 X112.321 Y92.213 E4.74513
G1 F960 X112.118 Y92.209 E0.03657
G1 F960 X111.900 Y92.238 E0.03961
G1 F960 X111.694 Y92.305 E0.03902
G1 F960 X111.497 Y92.406 E0.03988
G1 F960 X111.330 Y92.534 E0.03790
G1 F960 X111.178 Y92.692 E0.03949
G1 F960 X111.054 Y92.877 E0.04012
G1 F960 X110.963 Y93.077 E0.03958
G1 F960 X110.911 Y93.286 E0.03879
G1 F960 X110.892 Y93.505 E0.03959
G1 F960 X110.909 Y93.724 E0.03957
G1 F960 X111.143 Y94.553 E0.15515
G1 F960 X111.267 Y95.239 E0.12557
G1 F960 X111.315 Y95.901 E0.11955
G1 F960 X111.291 Y96.577 E0.12184
G1 F960 X111.203 Y97.219 E0.11672
G1 F960 X111.044 Y97.867 E0.12018
G1 F960 X110.815 Y98.501 E0.12142
G1 F960 X110.518 Y99.120 E0.12366
G1 F960 X110.175 Y99.669 E0.11660
G1 F960 X110.084 Y99.781 E0.02599
G1 F960 X109.939 Y99.892 E0.03289
G1 F960 X109.762 Y99.966 E0.03456
G1 F960 X109.647 Y99.987 E0.02106
G1 F960 X109.596 Y99.989 E0.00919
G1 F960 X109.402 Y99.963 E0.03526
G1 F960 X109.292 Y99.923 E0.02108
G1 F960 X109.191 Y99.865 E0.02098
G1 F960 X109.051 Y99.744 E0.03333
G1 F960 X108.225 Y98.916 E0.21066
G1 F960 X108.348 Y98.779 E0.03316
G1 F960 X108.620 Y98.399 E0.08417
G1 F960 X108.852 Y97.993 E0.08423
G1 F960 X109.037 Y97.564 E0.08415
G1 F960 X109.174 Y97.135 E0.08112
G1 F960 X109.217 Y96.929 E0.03790
G1 F960 X109.450 Y96.929 E0.04197
G1 F960 X109.515 Y96.121 E0.14601
G1 F960 X109.495 Y95.580 E0.09751
G1 F960 X109.411 Y95.041 E0.09826
G1 F960 X109.262 Y94.513 E0.09882
G1 F960 X109.052 Y94.010 E0.09818
G1 F960 X108.785 Y93.534 E0.09830
G1 F960 X108.463 Y93.096 E0.09792
G1 F960 X108.089 Y92.693 E0.09903
G1 F960 X107.674 Y92.343 E0.09779
G1 F960 X107.215 Y92.041 E0.09897
G1 F960 X106.729 Y91.798 E0.09787
G1 F960 X106.213 Y91.612 E0.09880
G1 F960 X105.682 Y91.489 E0.09818
G1 F960 X105.137 Y91.430 E0.09874
G1 F960 X104.594 Y91.436 E0.09781
G1 F960 X104.050 Y91.506 E0.09879
G1 F960 X103.522 Y91.641 E0.09816
G1 F960 X103.011 Y91.837 E0.09858
G1 F960 X102.527 Y92.093 E0.09862
G1 F960 X102.080 Y92.402 E0.09788
G1 F960 X101.669 Y92.766 E0.09889
G1 F960 X101.305 Y93.174 E0.09849
G1 F960 X100.996 Y93.620 E0.09773
G1 F960 X100.737 Y94.103 E0.09872
G1 F960 X100.539 Y94.614 E0.09871
G1 F960 X100.402 Y95.140 E0.09790
G1 F960 X100.329 Y95.677 E0.09761
G1 F960 X100.321 Y96.172 E0.08917
G1 F960 X99.446 Y99.421 E0.60606
G1 F960 X98.211 Y99.088 E0.23039
G1 F960 X98.024 Y99.010 E0.03650
G1 F960 X97.870 Y98.892 E0.03495
G1 F960 X97.802 Y98.810 E0.01919
G1 F960 X97.742 Y98.705 E0.02178
G1 F960 X97.684 Y98.523 E0.03441
G1 F960 X97.675 Y98.422 E0.01826
G1 F960 X97.731 Y98.096 E0.05958
G1 F960 X98.921 Y93.788 E0.80502
G1 F960 X99.167 Y93.215 E0.11232
G1 F960 X99.569 Y92.471 E0.15232
G1 F960 X99.633 Y92.263 E0.03920
G1 F960 X99.662 Y92.045 E0.03961
G1 F960 X99.655 Y91.831 E0.03857
G1 F960 X99.610 Y91.612 E0.04027
G1 F960 X99.530 Y91.410 E0.03913
G1 F960 X99.421 Y91.226 E0.03852
G1 F960 X99.278 Y91.057 E0.03988
G1 F960 X99.108 Y90.917 E0.03967
G1 F960 X98.925 Y90.809 E0.03827
G1 F960 X98.725 Y90.734 E0.03847
G1 F960 X98.518 Y90.691 E0.03808
G1 F12000 X98.801 Y89.892 
;TYPE:SKIN
G1 F960 X95.963 Y87.054 E0.72292
G1 F12000 X95.009 Y86.948 
G1 F960 X97.831 Y89.770 E0.71885
G1 F12000 X96.877 Y89.665 
G1 F960 X94.055 Y86.843 E0.71885
G1 F12000 X93.074 Y86.710 
G1 F960 X95.923 Y89.560 E0.72585
G1 F12000 X94.970 Y89.455 
G1 F960 X88.517 Y83.001 E1.64390
G1 F12000 X88.804 Y82.440 
G1 F960 X90.153 Y83.790 E0.34376
G1 F12000 X90.009 Y82.797 
G1 F960 X89.092 Y81.880 E0.23359
G1 F12000 X89.379 Y81.318 
G1 F960 X90.156 Y81.670 E0.17592
G1 F960 X89.811 Y80.477 E0.14652
G1 F960 X90.644 Y80.462 E0.13906
G1 F960 X90.386 Y79.355 E0.13888
G1 F960 X91.219 Y79.339 E0.13881
G1 F960 X90.962 Y78.234 E0.13861
G1 F960 X91.793 Y78.217 E0.13848
G1 F960 X91.537 Y77.112 E0.13825
G1 F960 X92.367 Y77.094 E0.13807
G1 F960 X92.112 Y75.990 E0.13776
G1 F960 X92.941 Y75.971 E0.13791
G1 F960 X92.688 Y74.869 E0.13781
G1 F960 X93.515 Y74.848 E0.13734
G1 F960 X93.263 Y73.746 E0.13744
G1 F960 X94.089 Y73.725 E0.13717
G1 F960 X93.838 Y72.625 E0.13684
G1 F960 X94.663 Y72.601 E0.13677
G1 F960 X94.414 Y71.504 E0.13677
G1 F960 X95.237 Y71.479 E0.13644
G1 F960 X94.989 Y70.381 E0.13652
G1 F960 X95.811 Y70.356 E0.13628
G1 F960 X95.563 Y69.259 E0.13607
G1 F960 X96.390 Y69.237 E0.13635
G1 F960 X96.017 Y68.016 E0.15139
G1 F960 X96.882 Y68.457 E0.17488
G1 F12000 X97.288 Y68.014 
G1 F960 X96.114 Y66.839 E0.29918
G1 F12000 X95.880 Y65.758 
G1 F960 X97.753 Y67.631 E0.47711
G1 F12000 X98.290 Y67.319 
G1 F960 X89.020 Y58.049 E2.36134
G1 F12000 X90.756 Y58.936 
G1 F960 X98.900 Y67.080 E2.07452
G1 F12000 X99.594 Y66.926 
G1 F960 X92.493 Y59.824 E1.80896
G1 F12000 X91.617 Y62.343 
G1 F960 X85.548 Y56.274 E1.54595
G1 F12000 X87.284 Y57.161 
G1 F960 X93.360 Y63.237 E1.54774
G1 F12000 X94.229 Y60.712 
G1 F960 X100.425 Y66.908 E1.57830
G1 F12000 X101.499 Y67.134 
G1 F960 X95.964 Y61.599 E1.40993
G1 F12000 X97.700 Y62.487 
G1 F960 X102.908 Y67.694 E1.32650
G1 F12000 X104.335 Y68.273 
G1 F960 X99.436 Y63.374 E1.24792
G1 F12000 X89.875 Y61.449 
G1 F960 X83.812 Y55.386 E1.54443
G1 F12000 X82.076 Y54.499 
G1 F960 X88.133 Y60.555 E1.54277
G1 F12000 X86.390 Y59.661 
G1 F960 X80.340 Y53.612 E1.54099
G1 F12000 X78.604 Y52.724 
G1 F960 X84.647 Y58.767 E1.53933
G1 F12000 X82.905 Y57.873 
G1 F960 X76.868 Y51.836 E1.53780
G1 F12000 X75.132 Y50.949 
G1 F960 X81.163 Y56.980 E1.53627
G1 F12000 X79.420 Y56.086 
G1 F960 X73.396 Y50.061 E1.53462
G1 F12000 X71.834 Y49.348 
G1 F960 X77.678 Y55.192 E1.48864
G1 F12000 X76.445 Y54.807 
G1 F960 X70.960 Y49.322 E1.39719
G1 F12000 X70.318 Y49.530 
G1 F960 X75.557 Y54.768 E1.33440
G1 F12000 X74.824 Y54.884 
G1 F960 X69.815 Y49.875 E1.27594
G1 F12000 X69.425 Y50.333 
G1 F960 X74.186 Y55.094 E1.21277
G1 F12000 X73.629 Y55.386 
G1 F960 X69.172 Y50.928 E1.13546
G1 F12000 X69.099 Y51.704 
G1 F960 X73.142 Y55.747 E1.02987
G1 F12000 X72.718 Y56.171 
G1 F960 X69.094 Y52.548 E0.92301
G1 F12000 X69.091 Y53.393 
G1 F960 X72.353 Y56.655 E0.83093
G1 F12000 X72.053 Y57.204 
G1 F960 X69.087 Y54.238 E0.75553
G1 F12000 X69.083 Y55.082 
G1 F960 X71.826 Y57.825 E0.69872
G1 F12000 X71.711 Y58.559 
G1 F960 X69.080 Y55.927 E0.67032
G1 F12000 X69.076 Y56.772 
G1 F960 X71.687 Y59.383 E0.66510
G1 F12000 X71.663 Y60.208 
G1 F960 X69.073 Y57.617 E0.65988
G1 F12000 X69.068 Y58.462 
G1 F960 X71.580 Y60.973 E0.63975
G1 F12000 X71.386 Y61.628 
G1 F960 X69.065 Y59.307 E0.59123
G1 F12000 X69.061 Y60.152 
G1 F960 X71.124 Y62.214 E0.52538
G1 F12000 X70.803 Y62.742 
G1 F960 X68.886 Y60.825 E0.48832
G1 F12000 X68.572 Y61.359 
G1 F960 X70.423 Y63.211 E0.47163
G1 F12000 X69.986 Y63.622 
G1 F960 X68.126 Y61.762 E0.47380
G1 F12000 X67.550 Y62.035 
G1 F960 X69.498 Y63.983 E0.49621
G1 F12000 X68.953 Y64.286 
G1 F960 X66.797 Y62.130 E0.54920
G1 F12000 X65.951 Y62.133 
G1 F960 X68.345 Y64.527 E0.60982
G1 F12000 X67.654 Y64.684 
G1 F960 X65.106 Y62.137 E0.64892
G1 F12000 X64.261 Y62.139 
G1 F960 X66.869 Y64.748 E0.66446
G1 F12000 X66.020 Y64.747 
G1 F960 X63.416 Y62.143 E0.66332
G1 F12000 X62.571 Y62.146 
G1 F960 X65.170 Y64.746 E0.66217
G1 F12000 X64.321 Y64.745 
G1 F960 X61.869 Y62.293 E0.62460
G1 F12000 X61.292 Y62.565 
G1 F960 X63.485 Y64.758 E0.55862
G1 F12000 X62.750 Y64.871 
G1 F960 X60.723 Y62.844 E0.51634
G1 F12000 X60.154 Y63.124 
G1 F960 X62.127 Y65.097 E0.50258
G1 F12000 X61.559 Y65.377 
G1 F960 X59.586 Y63.404 E0.50258
G1 F12000 X59.017 Y63.684 
G1 F960 X60.990 Y65.656 E0.50245
G1 F12000 X60.421 Y65.937 
G1 F960 X58.448 Y63.964 E0.50258
G1 F12000 X57.880 Y64.244 
G1 F960 X59.890 Y66.254 E0.51201
G1 F12000 X59.426 Y66.639 
G1 F960 X57.311 Y64.523 E0.53888
G1 F12000 X56.742 Y64.803 
G1 F960 X58.993 Y67.054 E0.57340
G1 F12000 X58.690 Y67.600 
G1 F960 X56.173 Y65.083 E0.64115
G1 F12000 X55.604 Y65.362 
G1 F960 X58.427 Y68.185 E0.71910
G1 F12000 X58.250 Y68.856 
G1 F960 X55.036 Y65.642 E0.81870
G1 F12000 X54.467 Y65.922 
G1 F960 X58.199 Y69.654 E0.95065
G1 F12000 X58.196 Y70.499 
G1 F960 X53.898 Y66.202 E1.09470
G1 F12000 X53.329 Y66.482 
G1 F960 X58.193 Y71.345 E1.23888
G1 F12000 X58.191 Y72.192 
G1 F960 X52.760 Y66.761 E1.38344
G1 F12000 X52.192 Y67.041 
G1 F960 X58.188 Y73.037 E1.52736
G1 F12000 X58.185 Y73.883 
G1 F960 X51.623 Y67.321 E1.67154
G1 F12000 X51.054 Y67.600 
G1 F960 X58.182 Y74.729 E1.81584
G1 F12000 X58.180 Y75.574 
G1 F960 X50.486 Y67.880 E1.95989
G1 F12000 X49.917 Y68.160 
G1 F960 X58.177 Y76.420 E2.10407
G1 F12000 X58.174 Y77.266 
G1 F960 X55.512 Y74.604 E0.67809
G1 F12000 X55.551 Y75.491 
G1 F960 X58.172 Y78.112 E0.66765
G1 F12000 X58.169 Y78.958 
G1 F960 X55.550 Y76.339 E0.66714
G1 F12000 X55.549 Y77.187 
G1 F960 X58.227 Y79.864 E0.68204
G1 F12000 X58.641 Y81.127 
G1 F960 X55.548 Y78.034 E0.78788
G1 F12000 X55.548 Y78.882 
G1 F960 X62.545 Y85.880 E1.78247
G1 F12000 X63.498 Y85.984 
G1 F960 X60.377 Y82.863 E0.79501
G1 F12000 X61.646 Y83.283 
G1 F960 X64.452 Y86.090 E0.71490
G1 F12000 X65.406 Y86.195 
G1 F960 X62.612 Y83.401 E0.71171
G1 F12000 X63.566 Y83.506 
G1 F960 X66.359 Y86.300 E0.71159
G1 F12000 X67.313 Y86.405 
G1 F960 X64.519 Y83.611 E0.71171
G1 F12000 X65.473 Y83.716 
G1 F960 X68.267 Y86.510 E0.71171
G1 F12000 X69.221 Y86.616 
G1 F960 X66.427 Y83.821 E0.71184
G1 F12000 X67.380 Y83.927 
G1 F960 X70.174 Y86.720 E0.71159
G1 F12000 X71.128 Y86.826 
G1 F960 X68.334 Y84.032 E0.71171
G1 F12000 X69.287 Y84.137 
G1 F960 X72.082 Y86.931 E0.71184
G1 F12000 X73.035 Y87.036 
G1 F960 X70.241 Y84.242 E0.71171
G1 F12000 X71.195 Y84.347 
G1 F960 X73.989 Y87.141 E0.71171
G1 F12000 X74.943 Y87.247 
G1 F960 X72.148 Y84.452 E0.71197
G1 F12000 X73.102 Y84.557 
G1 F960 X75.896 Y87.351 E0.71171
G1 F12000 X76.850 Y87.457 
G1 F960 X74.056 Y84.663 E0.71171
G1 F12000 X75.009 Y84.767 
G1 F960 X77.804 Y87.562 E0.71197
G1 F12000 X78.758 Y87.667 
G1 F960 X75.963 Y84.873 E0.71184
G1 F12000 X76.917 Y84.978 
G1 F960 X79.711 Y87.772 E0.71171
G1 F12000 X80.665 Y87.877 
G1 F960 X77.870 Y85.083 E0.71184
G1 F12000 X78.824 Y85.188 
G1 F960 X81.619 Y87.983 E0.71197
G1 F12000 X82.572 Y88.087 
G1 F960 X79.778 Y85.294 E0.71159
G1 F12000 X61.591 Y85.774 
G1 F960 X55.547 Y79.730 E1.53959
G1 F12000 X55.044 Y74.215 
G1 F12000 X53.783 Y72.875 
G1 F960 X49.348 Y68.440 E1.12973
G1 F12000 X48.779 Y68.720 
G1 F960 X52.896 Y72.836 E1.04859
G1 F12000 X52.043 Y72.832 
G1 F960 X48.211 Y69.000 E0.97612
G1 F12000 X47.642 Y69.279 
G1 F960 X51.190 Y72.828 E0.90391
G1 F12000 X50.338 Y72.824 
G1 F960 X47.073 Y69.559 E0.83169
G1 F12000 X46.504 Y69.839 
G1 F960 X49.486 Y72.820 E0.75948
G1 F12000 X48.633 Y72.816 
G1 F960 X45.935 Y70.118 E0.68726
G1 F12000 X45.367 Y70.398 
G1 F960 X47.780 Y72.812 E0.61479
G1 F12000 X46.928 Y72.808 
G1 F960 X44.798 Y70.678 E0.54257
G1 F12000 X44.229 Y70.958 
G1 F960 X46.075 Y72.804 E0.47023
G1 F12000 X45.223 Y72.800 
G1 F960 X43.661 Y71.238 E0.39789
G1 F12000 X43.091 Y71.517 
G1 F960 X44.370 Y72.795 E0.32567
G1 F12000 X43.278 Y72.552 
G1 F960 X42.523 Y71.797 E0.19232
G1 F12000 X54.423 Y73.484 
G1 F12000 X55.211 Y74.924 
G1 F12000 X55.546 Y80.578 
G1 F960 X60.637 Y85.669 E1.29683
G1 F12000 X59.684 Y85.564 
G1 F960 X55.546 Y81.426 E1.05407
G1 F12000 X55.545 Y82.273 
G1 F960 X58.730 Y85.459 E0.81144
G1 F12000 X57.776 Y85.354 
G1 F960 X55.548 Y83.126 E0.56754
G1 F12000 X55.961 Y84.386 
G1 F960 X56.492 Y84.918 E0.13539
G1 F12000 X80.731 Y85.398 
G1 F960 X83.526 Y88.193 E0.71197
G1 F12000 X84.480 Y88.298 
G1 F960 X81.685 Y85.504 E0.71184
G1 F12000 X82.639 Y85.609 
G1 F960 X85.434 Y88.403 E0.71184
G1 F12000 X86.387 Y88.508 
G1 F960 X83.593 Y85.714 E0.71171
G1 F12000 X84.521 Y85.793 
G1 F960 X87.341 Y88.613 E0.71834
G1 F12000 X88.295 Y88.719 
G1 F960 X85.304 Y85.728 E0.76190
G1 F12000 X85.976 Y85.552 
G1 F960 X89.248 Y88.823 E0.83335
G1 F12000 X90.202 Y88.929 
G1 F960 X86.564 Y85.291 E0.92671
G1 F12000 X87.107 Y84.985 
G1 F960 X91.155 Y89.034 E1.03127
G1 F12000 X92.109 Y89.140 
G1 F960 X87.526 Y84.556 E1.16755
G1 F12000 X87.916 Y84.097 
G1 F960 X93.063 Y89.244 E1.31109
G1 F12000 X94.016 Y89.350 
G1 F960 X88.229 Y83.562 E1.47425
G1 F12000 X93.267 Y86.412 
G1 F12000 X96.918 Y87.160 
G1 F960 X101.527 Y91.769 E1.17405
G1 F12000 X101.077 Y92.167 
G1 F960 X100.457 Y91.971 E0.15909
G1 F960 X100.452 Y92.815 E0.05473
G1 F960 X100.127 Y93.338 E0.02459
G1 F960 X100.022 Y93.658 E0.06066
G1 F12000 X102.024 Y91.417 
G1 F960 X97.872 Y87.265 E1.05764
G1 F12000 X98.826 Y87.371 
G1 F960 X102.572 Y91.117 E0.95422
G1 F12000 X103.176 Y90.872 
G1 F960 X99.780 Y87.476 E0.86506
G1 F12000 X100.735 Y87.582 
G1 F960 X103.843 Y90.691 E0.79183
G1 F12000 X104.596 Y90.595 
G1 F960 X101.689 Y87.688 E0.74050
G1 F12000 X102.643 Y87.794 
G1 F960 X105.470 Y90.621 E0.72012
G1 F12000 X106.530 Y90.832 
G1 F960 X103.597 Y87.899 E0.74712
G1 F12000 X104.551 Y88.005 
G1 F960 X108.422 Y91.876 E0.98606
G1 F12000 X109.124 Y92.578 
G1 F960 X110.049 Y93.502 E0.23550
G1 F12000 X110.175 Y92.780 
G1 F960 X105.505 Y88.111 E1.18946
G1 F12000 X106.459 Y88.216 
G1 F960 X110.474 Y92.231 E1.02274
G1 F12000 X110.897 Y91.805 
G1 F960 X107.414 Y88.322 E0.88722
G1 F12000 X108.368 Y88.427 
G1 F960 X111.442 Y91.502 E0.78317
G1 F12000 X112.158 Y91.369 
G1 F960 X109.322 Y88.534 E0.72229
G1 F12000 X110.276 Y88.639 
G1 F960 X113.089 Y91.452 E0.71655
G1 F12000 X114.043 Y91.557 
G1 F960 X111.231 Y88.745 E0.71630
G1 F12000 X112.185 Y88.850 
G1 F960 X114.997 Y91.662 E0.71630
G1 F12000 X115.951 Y91.768 
G1 F960 X113.139 Y88.956 E0.71630
G1 F12000 X114.093 Y89.062 
G1 F960 X116.905 Y91.873 E0.71617
G1 F12000 X117.859 Y91.979 
G1 F960 X115.047 Y89.167 E0.71630
G1 F12000 X116.002 Y89.273 
G1 F960 X118.813 Y92.084 E0.71604
G1 F12000 X119.766 Y92.189 
G1 F960 X116.956 Y89.379 E0.71579
G1 F12000 X117.910 Y89.485 
G1 F960 X120.720 Y92.295 E0.71579
G1 F12000 X121.674 Y92.400 
G1 F960 X118.864 Y89.590 E0.71579
G1 F12000 X119.819 Y89.696 
G1 F960 X122.628 Y92.505 E0.71554
G1 F12000 X123.582 Y92.611 
G1 F960 X120.773 Y89.801 E0.71566
G1 F12000 X121.727 Y89.907 
G1 F960 X124.536 Y92.716 E0.71554
G1 F12000 X125.490 Y92.821 
G1 F960 X122.681 Y90.013 E0.71541
G1 F12000 X123.635 Y90.118 
G1 F960 X126.444 Y92.927 E0.71554
G1 F12000 X127.398 Y93.032 
G1 F960 X124.590 Y90.224 E0.71528
G1 F12000 X125.543 Y90.330 
G1 F960 X128.351 Y93.137 E0.71515
G1 F12000 X129.305 Y93.243 
G1 F960 X126.498 Y90.436 E0.71503
G1 F12000 X127.452 Y90.541 
G1 F960 X130.259 Y93.348 E0.71503
G1 F12000 X131.213 Y93.454 
G1 F960 X128.407 Y90.647 E0.71490
G1 F12000 X129.360 Y90.752 
G1 F960 X132.167 Y93.559 E0.71503
G1 F12000 X133.121 Y93.664 
G1 F960 X130.314 Y90.858 E0.71490
G1 F12000 X131.269 Y90.964 
G1 F960 X134.075 Y93.770 E0.71477
G1 F12000 X135.029 Y93.875 
G1 F960 X132.223 Y91.069 E0.71477
G1 F12000 X133.177 Y91.175 
G1 F960 X135.982 Y93.980 E0.71452
G1 F12000 X136.936 Y94.086 
G1 F960 X134.131 Y91.281 E0.71452
G1 F12000 X135.086 Y91.387 
G1 F960 X137.890 Y94.191 E0.71426
G1 F12000 X138.886 Y94.338 
G1 F960 X136.040 Y91.492 E0.72496
G1 F12000 X136.994 Y91.598 
G1 F960 X140.796 Y95.400 E0.96848
G1 F12000 X140.287 Y95.740 
G1 F960 X140.594 Y96.046 E0.07807
G1 F12000 X141.079 Y94.835 
G1 F960 X137.948 Y91.703 E0.79769
G1 F12000 X138.903 Y91.810 
G1 F960 X141.422 Y94.329 E0.64166
G1 F12000 X141.824 Y93.882 
G1 F960 X139.857 Y91.915 E0.50105
G1 F12000 X92.779 Y86.260 
G1 F12000 X90.923 Y84.726 
G1 F12000 X90.360 Y82.390 
G1 F12000 X90.752 Y81.007 
G1 F12000 X97.260 Y68.528 
G1 F12000 X99.239 Y67.335 
G1 F12000 X101.098 Y67.360 
G1 F12000 X125.546 Y77.240 
G1 F12000 X139.641 Y84.062 
G1 F960 X139.366 Y83.787 E0.07005
G1 F12000 X137.905 Y83.175 
G1 F960 X137.630 Y82.900 E0.07005
G1 F12000 X136.168 Y82.287 
G1 F960 X135.893 Y82.012 E0.07005
G1 F12000 X134.433 Y81.400 
G1 F960 X134.157 Y81.124 E0.07031
G1 F12000 X132.697 Y80.512 
G1 F960 X132.422 Y80.237 E0.07005
G1 F12000 X130.960 Y79.624 
G1 F960 X130.686 Y79.350 E0.06980
G1 F12000 X129.224 Y78.737 
G1 F960 X128.950 Y78.462 E0.06992
G1 F12000 X127.488 Y77.849 
G1 F960 X127.214 Y77.575 E0.06980
G1 F12000 X125.752 Y76.962 
G1 F960 X125.478 Y76.687 E0.06992
G1 F12000 X124.316 Y76.374 
G1 F960 X123.741 Y75.799 E0.14647
G1 F12000 X122.888 Y75.795 
G1 F960 X122.005 Y74.912 E0.22493
G1 F12000 X121.461 Y75.217 
G1 F960 X120.269 Y74.024 E0.30377
G1 F12000 X120.034 Y74.638 
G1 F960 X118.533 Y73.137 E0.38235
G1 F12000 X118.607 Y74.059 
G1 F960 X116.797 Y72.250 E0.46093
G1 F12000 X115.753 Y72.902 
G1 F960 X113.325 Y70.474 E0.61848
G1 F12000 X112.898 Y71.745 
G1 F960 X109.853 Y68.699 E0.77578
G1 F12000 X108.617 Y70.009 
G1 F960 X104.645 Y66.037 E1.01179
G1 F12000 X106.381 Y66.924 
G1 F960 X110.044 Y70.587 E0.93307
G1 F12000 X111.471 Y71.166 
G1 F960 X108.117 Y67.812 E0.85436
G1 F12000 X107.190 Y69.430 
G1 F960 X102.909 Y65.149 E1.09050
G1 F12000 X101.172 Y64.261 
G1 F960 X105.762 Y68.851 E1.16921
G1 F12000 X111.589 Y69.587 
G1 F960 X114.325 Y72.323 E0.69694
G1 F12000 X115.061 Y71.362 
G1 F960 X117.180 Y73.481 E0.53977
G1 F12000 X141.102 Y84.675 
G1 F960 X141.377 Y84.950 E0.07005
G1 F12000 X142.838 Y85.562 
G1 F960 X143.114 Y85.838 E0.07031
G1 F12000 X144.574 Y86.450 
G1 F960 X144.850 Y86.725 E0.07018
G1 F12000 X146.310 Y87.337 
G1 F960 X146.586 Y87.613 E0.07031
G1 F12000 X148.046 Y88.225 
G1 F960 X148.322 Y88.501 E0.07031
G1 F12000 X149.782 Y89.113 
G1 F960 X150.058 Y89.388 E0.07018
G1 F12000 X151.518 Y90.000 
G1 F960 X151.794 Y90.276 E0.07031
G1 F12000 X153.254 Y90.887 
G1 F960 X153.531 Y91.164 E0.07056
G1 F12000 X154.990 Y91.775 
G1 F960 X155.267 Y92.051 E0.07043
G1 F12000 X156.726 Y92.662 
G1 F960 X157.003 Y92.939 E0.07056
G1 F12000 X158.462 Y93.550 
G1 F960 X158.739 Y93.826 E0.07043
G1 F12000 X161.774 Y96.182 
G1 F12000 X161.803 Y97.645 
G1 F12000 X160.734 Y98.650 
G1 F12000 X150.507 Y99.171 
G1 F960 X149.292 Y97.956 E0.30950
G1 F12000 X149.505 Y97.320 
G1 F960 X149.352 Y97.167 E0.03897
G1 F12000 X147.925 Y94.276 
G1 F12000 X145.694 Y93.036 
G1 F12000 X144.813 Y92.628 
G1 F960 X144.335 Y92.575 E0.04707
G1 F960 X143.530 Y92.618 E0.09366
G1 F960 X142.719 Y92.232 E0.16178
G1 F12000 X142.802 Y93.163 
G1 F960 X141.765 Y92.126 E0.26415
G1 F12000 X140.811 Y92.020 
G1 F960 X142.283 Y93.492 E0.37496
G1 F12000 X145.176 Y92.970 
G1 F12000 X149.006 Y94.368 
G1 F12000 X150.245 Y98.111 
G1 F12000 X151.333 Y98.722 
G1 F12000 X160.734 Y98.650 
G1 F12000 X161.803 Y97.645 
G1 F12000 X161.774 Y96.182 
G1 F12000 X160.992 Y95.361 
G1 F12000 X160.199 Y94.438 
G1 F960 X160.475 Y94.714 E0.07031
G1 F12000 X161.935 Y95.325 
G1 F960 X165.819 Y99.209 E0.98937
G1 F12000 X164.968 Y99.207 
G1 F960 X162.224 Y96.463 E0.69898
G1 F12000 X162.244 Y97.332 
G1 F960 X164.118 Y99.205 E0.47724
G1 F12000 X163.267 Y99.203 
G1 F960 X162.023 Y97.959 E0.31688
G1 F12000 X161.665 Y98.450 
G1 F960 X161.991 Y99.200 E0.19125
G1 F960 X160.951 Y99.009 E0.09618
G1 F960 X160.564 Y99.045 E0.07001
G1 F12000 X163.671 Y96.213 
G1 F960 X166.670 Y99.212 E0.76393
G1 F12000 X167.520 Y99.214 
G1 F960 X165.407 Y97.100 E0.53837
G1 F12000 X167.143 Y97.988 
G1 F960 X168.442 Y99.286 E0.33077
G1 F12000 X167.638 Y99.331 
G1 F960 X168.299 Y100.416 E0.20443
G1 F960 X167.715 Y100.257 E0.10902
M104 S T;Go to nozzle temperature from loaded reel - don't wait
M140;Go to bed temperature from loaded reel - don't wait
;LAYER:1 height:0.550
M106 S127
G1 F12000 X167.339 Y99.528 Z0.550 

;TYPE:WALL-INNER
G1 F1980 X150.673 Y99.512 E2.29312
G1 F1980 X150.347 Y99.492 E0.04494
G1 F1980 X150.027 Y99.431 E0.04482
G1 F1980 X149.729 Y99.338 E0.04295
G1 F1980 X149.471 Y99.220 E0.03904
G1 F1980 X148.533 Y98.581 E0.15616
G1 F1980 X148.618 Y98.350 E0.03387
G1 F1980 X148.948 Y98.352 E0.04541
G1 F1980 X149.042 Y97.110 E0.17138
G1 F1980 X149.015 Y96.596 E0.07082
G1 F1980 X148.922 Y96.081 E0.07201
G1 F1980 X148.768 Y95.583 E0.07172
G1 F1980 X148.551 Y95.110 E0.07160
G1 F1980 X148.273 Y94.663 E0.07243
G1 F1980 X147.944 Y94.259 E0.07169
G1 F1980 X147.566 Y93.900 E0.07173
G1 F1980 X147.145 Y93.590 E0.07194
G1 F1980 X146.688 Y93.336 E0.07194
G1 F1980 X146.203 Y93.143 E0.07182
G1 F1980 X145.699 Y93.010 E0.07172
G1 F1980 X145.178 Y92.944 E0.07226
G1 F1980 X144.659 Y92.944 E0.07141
G1 F1980 X144.138 Y93.009 E0.07224
G1 F1980 X143.634 Y93.141 E0.07169
G1 F1980 X143.147 Y93.334 E0.07208
G1 F1980 X142.692 Y93.586 E0.07157
G1 F1980 X142.272 Y93.894 E0.07166
G1 F1980 X141.891 Y94.254 E0.07212
G1 F1980 X141.562 Y94.657 E0.07158
G1 F1980 X141.284 Y95.103 E0.07231
G1 F1980 X141.064 Y95.577 E0.07190
G1 F1980 X140.910 Y96.074 E0.07159
G1 F1980 X140.816 Y96.589 E0.07203
G1 F1980 X140.789 Y97.106 E0.07123
G1 F1980 X140.881 Y98.337 E0.16985
G1 F1980 X141.208 Y98.339 E0.04499
G1 F1980 X141.299 Y98.585 E0.03609
G1 F1980 X140.716 Y98.992 E0.09783
G1 F1980 X140.625 Y99.039 E0.01409
G1 F1980 X140.569 Y99.045 E0.00775
G1 F1980 X140.522 Y99.036 E0.00658
G1 F1980 X140.468 Y99.005 E0.00857
G1 F1980 X140.432 Y98.965 E0.00740
G1 F1980 X140.415 Y98.932 E0.00511
G1 F1980 X140.263 Y98.507 E0.06210
G1 F1980 X140.144 Y98.049 E0.06511
G1 F1980 X140.070 Y97.573 E0.06628
G1 F1980 X140.041 Y97.049 E0.07221
G1 F1980 X140.078 Y96.365 E0.09425
G1 F1980 X140.030 Y95.955 E0.05680
G1 F1980 X139.912 Y95.615 E0.04952
G1 F1980 X139.685 Y95.244 E0.05984
G1 F1980 X139.453 Y95.002 E0.04613
G1 F1980 X139.198 Y94.818 E0.04327
G1 F1980 X138.913 Y94.675 E0.04387
G1 F1980 X138.609 Y94.587 E0.04355
G1 F1980 X112.356 Y91.689 E3.63416
G1 F1980 X112.089 Y91.683 E0.03675
G1 F1980 X111.782 Y91.725 E0.04263
G1 F1980 X111.492 Y91.819 E0.04195
G1 F1980 X111.215 Y91.961 E0.04283
G1 F1980 X110.974 Y92.145 E0.04172
G1 F1980 X110.766 Y92.362 E0.04136
G1 F1980 X110.593 Y92.621 E0.04286
G1 F1980 X110.466 Y92.904 E0.04268
G1 F1980 X110.392 Y93.199 E0.04185
G1 F1980 X110.365 Y93.502 E0.04186
G1 F1980 X110.390 Y93.817 E0.04348
G1 F1980 X110.624 Y94.642 E0.11799
G1 F1980 X110.745 Y95.300 E0.09205
G1 F1980 X110.789 Y95.911 E0.08429
G1 F1980 X110.767 Y96.537 E0.08619
G1 F1980 X110.691 Y97.090 E0.07680
G1 F1980 X110.547 Y97.688 E0.08463
G1 F1980 X110.341 Y98.271 E0.08508
G1 F1980 X110.054 Y98.872 E0.09164
G1 F1980 X109.762 Y99.341 E0.07602
G1 F1980 X109.705 Y99.413 E0.01264
G1 F1980 X109.656 Y99.444 E0.00798
G1 F1980 X109.605 Y99.460 E0.00735
G1 F1980 X109.529 Y99.450 E0.01055
G1 F1980 X109.490 Y99.431 E0.00597
G1 F1980 X108.926 Y98.875 E0.10897
G1 F1980 X109.057 Y98.693 E0.03085
G1 F1980 X109.330 Y98.209 E0.07646
G1 F1980 X109.536 Y97.730 E0.07174
G1 F1980 X109.623 Y97.454 E0.03982
G1 F1980 X109.933 Y97.454 E0.04265
G1 F1980 X110.041 Y96.132 E0.18250
G1 F1980 X110.019 Y95.529 E0.08302
G1 F1980 X109.924 Y94.929 E0.08358
G1 F1980 X109.759 Y94.340 E0.08416
G1 F1980 X109.525 Y93.780 E0.08351
G1 F1980 X109.227 Y93.249 E0.08378
G1 F1980 X108.868 Y92.761 E0.08336
G1 F1980 X108.452 Y92.313 E0.08412
G1 F1980 X107.989 Y91.922 E0.08338
G1 F1980 X107.478 Y91.585 E0.08422
G1 F1980 X106.936 Y91.314 E0.08338
G1 F1980 X106.362 Y91.107 E0.08396
G1 F1980 X105.770 Y90.970 E0.08361
G1 F1980 X105.163 Y90.904 E0.08401
G1 F1980 X104.558 Y90.912 E0.08325
G1 F1980 X103.951 Y90.989 E0.08419
G1 F1980 X103.362 Y91.140 E0.08366
G1 F1980 X102.793 Y91.359 E0.08389
G1 F1980 X102.254 Y91.644 E0.08389
G1 F1980 X101.755 Y91.989 E0.08347
G1 F1980 X101.298 Y92.393 E0.08393
G1 F1980 X100.892 Y92.848 E0.08390
G1 F1980 X100.547 Y93.346 E0.08336
G1 F1980 X100.259 Y93.884 E0.08396
G1 F1980 X100.039 Y94.452 E0.08381
G1 F1980 X99.886 Y95.038 E0.08333
G1 F1980 X99.805 Y95.637 E0.08317
G1 F1980 X99.797 Y96.098 E0.06344
G1 F1980 X99.076 Y98.777 E0.38173
G1 F1980 X98.361 Y98.585 E0.10186
G1 F1980 X98.299 Y98.562 E0.00910
G1 F1980 X98.244 Y98.513 E0.01014
G1 F1980 X98.203 Y98.422 E0.01373
G1 F1980 X98.218 Y98.308 E0.01582
G1 F1980 X99.409 Y93.985 E0.61697
G1 F1980 X99.639 Y93.444 E0.08089
G1 F1980 X100.055 Y92.675 E0.12030
G1 F1980 X100.148 Y92.376 E0.04308
G1 F1980 X100.188 Y92.071 E0.04233
G1 F1980 X100.178 Y91.769 E0.04158
G1 F1980 X100.115 Y91.462 E0.04312
G1 F1980 X100.004 Y91.178 E0.04195
G1 F1980 X99.850 Y90.920 E0.04134
G1 F1980 X99.648 Y90.681 E0.04306
G1 F1980 X99.410 Y90.486 E0.04233
G1 F1980 X99.152 Y90.334 E0.04120
G1 F1980 X98.871 Y90.228 E0.04132
G1 F1980 X98.600 Y90.172 E0.03808
G1 F1980 X57.545 Y85.648 E5.68305
G1 F1980 X57.216 Y85.589 E0.04599
G1 F1980 X56.910 Y85.498 E0.04393
G1 F1980 X56.628 Y85.374 E0.04239
G1 F1980 X56.358 Y85.213 E0.04325
G1 F1980 X56.105 Y85.017 E0.04403
G1 F1980 X55.886 Y84.801 E0.04232
G1 F1980 X55.694 Y84.557 E0.04272
G1 F1980 X55.528 Y84.285 E0.04384
G1 F1980 X55.401 Y84.005 E0.04230
G1 F1980 X55.307 Y83.702 E0.04365
G1 F1980 X55.250 Y83.394 E0.04310
G1 F1980 X55.230 Y83.066 E0.04521
G1 F1980 X55.237 Y74.923 E1.12042
G1 F1980 X55.184 Y74.517 E0.05634
G1 F1980 X55.074 Y74.219 E0.04371
G1 F1980 X54.976 Y74.031 E0.02917
G1 F1980 X54.708 Y73.681 E0.06065
G1 F1980 X54.329 Y73.391 E0.06566
G1 F1980 X53.910 Y73.216 E0.06248
G1 F1980 X53.574 Y73.156 E0.04696
G1 F1980 X44.716 Y73.143 E1.21880
G1 F1980 X44.207 Y73.114 E0.07015
G1 F1980 X43.777 Y73.039 E0.06006
G1 F1980 X43.323 Y72.911 E0.06490
G1 F1980 X42.879 Y72.728 E0.06608
G1 F1980 X42.433 Y72.480 E0.07022
G1 F1980 X42.084 Y72.228 E0.05923
G1 F1980 X41.700 Y71.881 E0.07121
G1 F1980 X41.681 Y71.860 E0.00390
G1 F1980 X61.553 Y62.087 E3.04701
G1 F1980 X61.852 Y61.961 E0.04464
G1 F1980 X62.132 Y61.878 E0.04018
G1 F1980 X62.400 Y61.832 E0.03741
G1 F1980 X66.978 Y61.814 E0.62990
G1 F1980 X67.382 Y61.761 E0.05606
G1 F1980 X67.682 Y61.652 E0.04392
G1 F1980 X67.873 Y61.552 E0.02966
G1 F1980 X68.221 Y61.285 E0.06035
G1 F1980 X68.511 Y60.906 E0.06566
G1 F1980 X68.687 Y60.488 E0.06240
G1 F1980 X68.747 Y60.151 E0.04710
G1 F1980 X68.759 Y51.578 E1.17958
G1 F1980 X68.809 Y51.053 E0.07256
G1 F1980 X68.943 Y50.593 E0.06592
G1 F1980 X69.088 Y50.290 E0.04622
G1 F1980 X69.272 Y50.007 E0.04645
G1 F1980 X69.484 Y49.756 E0.04521
G1 F1980 X69.728 Y49.533 E0.04548
G1 F1980 X69.989 Y49.351 E0.04378
G1 F1980 X70.273 Y49.202 E0.04413
G1 F1980 X70.748 Y49.041 E0.06901
G1 F1980 X71.079 Y48.984 E0.04621
G1 F1980 X71.394 Y48.972 E0.04337
G1 F1980 X71.717 Y49.001 E0.04462
G1 F1980 X72.200 Y49.123 E0.06854
G1 F1980 X72.526 Y49.263 E0.04882
G1 F1980 X168.758 Y98.460 E14.87077
G1 F1980 X168.756 Y100.325 E0.25661
G1 F1980 X168.746 Y100.457 E0.01821
G1 F1980 X168.718 Y100.568 E0.01575
G1 F1980 X168.682 Y100.654 E0.01283
G1 F1980 X168.617 Y100.757 E0.01676
G1 F1980 X168.477 Y100.898 E0.02734
G1 F1980 X168.389 Y100.951 E0.01413
G1 F1980 X168.288 Y100.993 E0.01505
G1 F1980 X168.188 Y101.017 E0.01415
G1 F1980 X168.077 Y101.025 E0.01531
G1 F1980 X167.976 Y101.017 E0.01394
G1 F1980 X167.777 Y100.954 E0.02872
G1 F1980 X167.606 Y100.829 E0.02914
G1 F1980 X167.481 Y100.657 E0.02926
G1 F1980 X167.440 Y100.558 E0.01474
G1 F1980 X167.417 Y100.458 E0.01412
G1 F1980 X167.339 Y99.528 E0.12841
G1 F12000 X161.914 Y97.410 
G1 F1980 X161.965 Y97.098 E0.04350
G1 F1980 X161.967 Y96.802 E0.04073
G1 F1980 X161.896 Y96.434 E0.05157
G1 F1980 X161.791 Y96.156 E0.04089
G1 F1980 X161.645 Y95.908 E0.03960
G1 F1980 X161.440 Y95.659 E0.04438
G1 F1980 X161.223 Y95.474 E0.03924
G1 F1980 X161.004 Y95.338 E0.03547
G1 F1980 X125.556 Y77.216 E5.47778
G1 F1980 X102.083 Y67.700 E3.48502
G1 F1980 X102.083 Y67.659 E0.00564
G1 F1980 X101.105 Y67.335 E0.14176
G1 F1980 X100.644 Y67.241 E0.06474
G1 F1980 X100.172 Y67.206 E0.06512
G1 F1980 X99.701 Y67.227 E0.06487
G1 F1980 X99.233 Y67.310 E0.06540
G1 F1980 X98.782 Y67.445 E0.06477
G1 F1980 X98.349 Y67.639 E0.06528
G1 F1980 X97.946 Y67.882 E0.06475
G1 F1980 X97.573 Y68.175 E0.06526
G1 F1980 X97.241 Y68.510 E0.06489
G1 F1980 X96.954 Y68.881 E0.06454
G1 F1980 X96.724 Y69.266 E0.06171
G1 F1980 X90.728 Y80.996 E1.81259
G1 F1980 X90.541 Y81.429 E0.06490
G1 F1980 X90.407 Y81.899 E0.06725
G1 F1980 X90.334 Y82.386 E0.06776
G1 F1980 X90.323 Y82.880 E0.06799
G1 F1980 X90.377 Y83.370 E0.06783
G1 F1980 X90.493 Y83.847 E0.06754
G1 F1980 X90.667 Y84.304 E0.06728
G1 F1980 X90.901 Y84.741 E0.06821
G1 F1980 X91.188 Y85.140 E0.06763
G1 F1980 X91.527 Y85.503 E0.06834
G1 F1980 X91.904 Y85.814 E0.06724
G1 F1980 X92.325 Y86.079 E0.06845
G1 F1980 X92.770 Y86.284 E0.06741
G1 F1980 X93.262 Y86.438 E0.07093
G1 F1980 X145.422 Y92.214 E7.22069
G1 F1980 X146.003 Y92.311 E0.08105
G1 F1980 X146.516 Y92.458 E0.07343
G1 F1980 X147.000 Y92.657 E0.07200
G1 F1980 X147.501 Y92.931 E0.07857
G1 F1980 X147.921 Y93.226 E0.07062
G1 F1980 X148.330 Y93.586 E0.07497
G1 F1980 X148.698 Y93.989 E0.07509
G1 F1980 X149.012 Y94.422 E0.07359
G1 F1980 X149.280 Y94.893 E0.07456
G1 F1980 X149.491 Y95.383 E0.07341
G1 F1980 X149.646 Y95.899 E0.07413
G1 F1980 X149.748 Y96.434 E0.07494
G1 F1980 X149.817 Y97.280 E0.11679
G1 F1980 X149.904 Y97.587 E0.04390
G1 F1980 X150.044 Y97.873 E0.04381
G1 F1980 X150.225 Y98.128 E0.04303
G1 F1980 X150.452 Y98.351 E0.04378
G1 F1980 X150.706 Y98.526 E0.04244
G1 F1980 X150.994 Y98.660 E0.04371
G1 F1980 X151.329 Y98.749 E0.04769
G1 F1980 X160.177 Y98.772 E1.21742
G1 F1980 X160.464 Y98.747 E0.03964
G1 F1980 X160.755 Y98.673 E0.04131
G1 F1980 X161.050 Y98.533 E0.04493
G1 F1980 X161.288 Y98.373 E0.03946
G1 F1980 X161.504 Y98.168 E0.04097
G1 F1980 X161.722 Y97.875 E0.05025
G1 F1980 X161.914 Y97.410 E0.06922
G1 F12000 X161.386 Y95.713 
G1 F12000 X125.525 Y77.285 
G1 F12000 X100.633 Y67.316 
G1 F12000 X98.385 Y67.706 
G1 F12000 X95.409 Y68.876 
G1 F1980 X95.598 Y68.436 E0.06589
G1 F1980 X95.733 Y67.959 E0.06821
G1 F1980 X95.805 Y67.463 E0.06896
G1 F1980 X95.813 Y66.963 E0.06881
G1 F1980 X95.754 Y66.463 E0.06927
G1 F1980 X95.631 Y65.982 E0.06831
G1 F1980 X95.446 Y65.515 E0.06911
G1 F1980 X95.203 Y65.077 E0.06892
G1 F1980 X94.902 Y64.676 E0.06899
G1 F1980 X94.557 Y64.320 E0.06821
G1 F1980 X94.147 Y63.995 E0.07199
G1 F1980 X77.546 Y55.478 E2.56724
G1 F1980 X77.119 Y55.293 E0.06403
G1 F1980 X76.652 Y55.158 E0.06689
G1 F1980 X76.168 Y55.085 E0.06735
G1 F1980 X75.682 Y55.072 E0.06689
G1 F1980 X75.195 Y55.122 E0.06736
G1 F1980 X74.721 Y55.233 E0.06698
G1 F1980 X74.262 Y55.405 E0.06744
G1 F1980 X73.832 Y55.631 E0.06684
G1 F1980 X73.432 Y55.911 E0.06718
G1 F1980 X73.070 Y56.242 E0.06749
G1 F1980 X72.757 Y56.612 E0.06668
G1 F1980 X72.490 Y57.023 E0.06744
G1 F1980 X72.278 Y57.465 E0.06745
G1 F1980 X72.126 Y57.925 E0.06666
G1 F1980 X72.030 Y58.419 E0.06924
G1 F1980 X71.969 Y60.540 E0.29195
G1 F1980 X71.886 Y61.060 E0.07245
G1 F1980 X71.753 Y61.552 E0.07013
G1 F1980 X71.558 Y62.059 E0.07474
G1 F1980 X71.318 Y62.529 E0.07261
G1 F1980 X71.029 Y62.972 E0.07278
G1 F1980 X70.687 Y63.394 E0.07474
G1 F1980 X70.323 Y63.757 E0.07073
G1 F1980 X69.903 Y64.097 E0.07435
G1 F1980 X69.461 Y64.384 E0.07251
G1 F1980 X68.987 Y64.624 E0.07310
G1 F1980 X68.480 Y64.818 E0.07469
G1 F1980 X67.983 Y64.953 E0.07086
G1 F1980 X67.461 Y65.034 E0.07268
G1 F1980 X66.896 Y65.064 E0.07785
G1 F1980 X63.738 Y65.061 E0.43452
G1 F1980 X63.326 Y65.085 E0.05678
G1 F1980 X62.893 Y65.159 E0.06044
G1 F1980 X62.473 Y65.282 E0.06022
G1 F1980 X62.092 Y65.444 E0.05696
G1 F1980 X60.606 Y66.175 E0.22786
G1 F1980 X60.218 Y66.397 E0.06151
G1 F1980 X59.839 Y66.680 E0.06508
G1 F1980 X59.088 Y67.401 E0.14324
G1 F1980 X59.131 Y67.487 E0.01323
G1 F1980 X58.950 Y67.778 E0.04715
G1 F1980 X58.752 Y68.207 E0.06501
G1 F1980 X58.609 Y68.656 E0.06484
G1 F1980 X58.516 Y69.144 E0.06835
G1 F1980 X58.483 Y79.227 E1.38735
G1 F1980 X58.511 Y79.666 E0.06053
G1 F1980 X58.597 Y80.138 E0.06601
G1 F1980 X58.819 Y80.758 E0.09061
G1 F1980 X58.924 Y80.991 E0.03516
G1 F1980 X59.168 Y81.389 E0.06423
G1 F1980 X59.456 Y81.755 E0.06408
G1 F1980 X59.787 Y82.081 E0.06392
G1 F1980 X60.157 Y82.369 E0.06451
G1 F1980 X60.558 Y82.606 E0.06409
G1 F1980 X60.983 Y82.794 E0.06394
G1 F1980 X61.424 Y82.926 E0.06334
G1 F1980 X61.862 Y83.003 E0.06119
G1 F1980 X84.184 Y85.464 E3.08995
G1 F1980 X84.623 Y85.484 E0.06047
G1 F1980 X85.081 Y85.452 E0.06317
G1 F1980 X85.534 Y85.362 E0.06355
G1 F1980 X85.974 Y85.222 E0.06353
G1 F1980 X86.392 Y85.027 E0.06346
G1 F1980 X86.668 Y84.856 E0.04467
G1 F1980 X86.752 Y84.898 E0.01292
G1 F1980 X87.470 Y84.164 E0.14128
G1 F1980 X87.764 Y83.780 E0.06654
G1 F1980 X95.409 Y68.876 E2.30473
G1 F12000 X94.911 Y68.641 
;TYPE:WALL-OUTER
G1 F1500 X95.079 Y68.252 E0.05830
G1 F1500 X95.194 Y67.844 E0.05833
G1 F1500 X95.256 Y67.419 E0.05910
G1 F1500 X95.262 Y66.991 E0.05890
G1 F1500 X95.212 Y66.564 E0.05915
G1 F1500 X95.107 Y66.152 E0.05850
G1 F1500 X94.948 Y65.751 E0.05935
G1 F1500 X94.740 Y65.377 E0.05888
G1 F1500 X94.483 Y65.034 E0.05897
G1 F1500 X94.187 Y64.729 E0.05848
G1 F1500 X93.848 Y64.460 E0.05954
G1 F1500 X77.311 Y55.975 E2.55740
G1 F1500 X76.933 Y55.812 E0.05664
G1 F1500 X76.534 Y55.697 E0.05713
G1 F1500 X76.119 Y55.634 E0.05776
G1 F1500 X75.703 Y55.623 E0.05726
G1 F1500 X75.286 Y55.665 E0.05767
G1 F1500 X74.881 Y55.760 E0.05724
G1 F1500 X74.487 Y55.908 E0.05791
G1 F1500 X74.119 Y56.102 E0.05724
G1 F1500 X73.777 Y56.341 E0.05741
G1 F1500 X73.467 Y56.624 E0.05775
G1 F1500 X73.200 Y56.941 E0.05703
G1 F1500 X72.971 Y57.293 E0.05778
G1 F1500 X72.789 Y57.671 E0.05772
G1 F1500 X72.659 Y58.064 E0.05696
G1 F1500 X72.579 Y58.480 E0.05829
G1 F1500 X72.518 Y60.589 E0.29030
G1 F1500 X72.424 Y61.176 E0.08180
G1 F1500 X72.277 Y61.722 E0.07780
G1 F1500 X72.060 Y62.285 E0.08302
G1 F1500 X71.793 Y62.809 E0.08092
G1 F1500 X71.477 Y63.293 E0.07953
G1 F1500 X71.098 Y63.761 E0.08286
G1 F1500 X70.692 Y64.166 E0.07890
G1 F1500 X70.228 Y64.542 E0.08217
G1 F1500 X69.728 Y64.866 E0.08198
G1 F1500 X69.215 Y65.127 E0.07920
G1 F1500 X68.652 Y65.342 E0.08292
G1 F1500 X68.100 Y65.491 E0.07867
G1 F1500 X67.516 Y65.582 E0.08132
G1 F1500 X66.906 Y65.614 E0.08405
G1 F1500 X63.754 Y65.611 E0.43369
G1 F1500 X63.389 Y65.632 E0.05030
G1 F1500 X63.017 Y65.696 E0.05194
G1 F1500 X62.658 Y65.801 E0.05147
G1 F1500 X62.321 Y65.944 E0.05037
G1 F1500 X60.864 Y66.661 E0.22343
G1 F1500 X60.520 Y66.858 E0.05454
G1 F1500 X60.196 Y67.100 E0.05564
G1 F1500 X59.761 Y67.517 E0.08291
G1 F1500 X59.774 Y67.542 E0.00388
G1 F1500 X59.650 Y67.695 E0.02710
G1 F1500 X59.435 Y68.040 E0.05593
G1 F1500 X59.265 Y68.406 E0.05553
G1 F1500 X59.143 Y68.791 E0.05557
G1 F1500 X59.066 Y69.197 E0.05686
G1 F1500 X59.033 Y79.210 E1.37772
G1 F1500 X59.058 Y79.599 E0.05363
G1 F1500 X59.130 Y79.995 E0.05538
G1 F1500 X59.330 Y80.552 E0.08143
G1 F1500 X59.411 Y80.734 E0.02741
G1 F1500 X59.620 Y81.074 E0.05491
G1 F1500 X59.867 Y81.388 E0.05497
G1 F1500 X60.150 Y81.667 E0.05468
G1 F1500 X60.467 Y81.914 E0.05529
G1 F1500 X60.809 Y82.116 E0.05465
G1 F1500 X61.174 Y82.277 E0.05489
G1 F1500 X61.551 Y82.390 E0.05415
G1 F1500 X84.227 Y84.915 E3.13933
G1 F1500 X84.616 Y84.933 E0.05358
G1 F1500 X85.008 Y84.906 E0.05406
G1 F1500 X85.397 Y84.829 E0.05456
G1 F1500 X85.773 Y84.709 E0.05431
G1 F1500 X86.130 Y84.542 E0.05423
G1 F1500 X86.466 Y84.334 E0.05437
G1 F1500 X86.615 Y84.215 E0.02624
G1 F1500 X86.639 Y84.227 E0.00369
G1 F1500 X87.053 Y83.803 E0.08154
G1 F1500 X87.297 Y83.485 E0.05515
G1 F1500 X94.911 Y68.641 E2.29543
G1 F12000 X95.255 Y68.789 
G1 F12000 X96.885 Y69.340 
G1 F12000 X97.205 Y69.533 
G1 F1500 X91.226 Y81.231 E1.80761
G1 F1500 X91.060 Y81.614 E0.05743
G1 F1500 X90.946 Y82.016 E0.05749
G1 F1500 X90.883 Y82.433 E0.05803
G1 F1500 X90.874 Y82.856 E0.05821
G1 F1500 X90.920 Y83.275 E0.05800
G1 F1500 X91.019 Y83.684 E0.05790
G1 F1500 X91.168 Y84.075 E0.05757
G1 F1500 X91.368 Y84.449 E0.05836
G1 F1500 X91.614 Y84.790 E0.05785
G1 F1500 X91.905 Y85.102 E0.05870
G1 F1500 X92.227 Y85.367 E0.05738
G1 F1500 X92.588 Y85.594 E0.05867
G1 F1500 X92.968 Y85.770 E0.05762
G1 F1500 X93.375 Y85.897 E0.05866
G1 F1500 X145.501 Y91.669 E7.21598
G1 F1500 X146.120 Y91.772 E0.08634
G1 F1500 X146.698 Y91.938 E0.08274
G1 F1500 X147.238 Y92.159 E0.08028
G1 F1500 X147.787 Y92.460 E0.08615
G1 F1500 X148.267 Y92.797 E0.08070
G1 F1500 X148.715 Y93.192 E0.08218
G1 F1500 X149.125 Y93.640 E0.08356
G1 F1500 X149.476 Y94.125 E0.08237
G1 F1500 X149.772 Y94.645 E0.08233
G1 F1500 X150.010 Y95.200 E0.08309
G1 F1500 X150.182 Y95.771 E0.08205
G1 F1500 X150.294 Y96.361 E0.08263
G1 F1500 X150.361 Y97.182 E0.11334
G1 F1500 X150.420 Y97.390 E0.02975
G1 F1500 X150.518 Y97.591 E0.03077
G1 F1500 X150.645 Y97.769 E0.03009
G1 F1500 X150.803 Y97.925 E0.03055
G1 F1500 X150.980 Y98.047 E0.02958
G1 F1500 X151.182 Y98.141 E0.03066
G1 F1500 X151.402 Y98.199 E0.03130
G1 F1500 X160.154 Y98.222 E1.20421
G1 F1500 X160.371 Y98.203 E0.02997
G1 F1500 X160.568 Y98.153 E0.02797
G1 F1500 X160.777 Y98.054 E0.03182
G1 F1500 X160.943 Y97.942 E0.02755
G1 F1500 X161.091 Y97.801 E0.02813
G1 F1500 X161.240 Y97.602 E0.03421
G1 F1500 X161.381 Y97.259 E0.05103
G1 F1500 X161.415 Y97.052 E0.02886
G1 F1500 X161.416 Y96.853 E0.02738
G1 F1500 X161.365 Y96.584 E0.03767
G1 F1500 X161.293 Y96.394 E0.02796
G1 F1500 X161.193 Y96.224 E0.02714
G1 F1500 X161.047 Y96.046 E0.03168
G1 F1500 X160.898 Y95.919 E0.02694
G1 F1500 X125.327 Y77.717 E5.49786
G1 F1500 X101.533 Y68.071 E3.53267
G1 F1500 X101.533 Y68.056 E0.00206
G1 F1500 X100.963 Y67.868 E0.08258
G1 F1500 X100.568 Y67.787 E0.05548
G1 F1500 X100.164 Y67.757 E0.05574
G1 F1500 X99.762 Y67.775 E0.05537
G1 F1500 X99.360 Y67.846 E0.05617
G1 F1500 X98.974 Y67.962 E0.05546
G1 F1500 X98.604 Y68.127 E0.05574
G1 F1500 X98.259 Y68.335 E0.05543
G1 F1500 X97.940 Y68.586 E0.05585
G1 F1500 X97.655 Y68.873 E0.05565
G1 F1500 X97.409 Y69.191 E0.05532
G1 F1500 X97.205 Y69.533 E0.05479
G1 F12000 X96.885 Y69.340 
G1 F12000 X90.481 Y81.915 
G1 F12000 X90.736 Y84.272 
G1 F12000 X92.361 Y86.011 
G1 F12000 X93.278 Y86.363 
G1 F12000 X98.590 Y90.350 
G1 F12000 X98.514 Y90.716 
G1 F1500 X57.480 Y86.194 E5.68015
G1 F1500 X57.086 Y86.124 E0.05506
G1 F1500 X56.721 Y86.015 E0.05241
G1 F1500 X56.373 Y85.862 E0.05231
G1 F1500 X56.048 Y85.669 E0.05201
G1 F1500 X55.747 Y85.435 E0.05246
G1 F1500 X55.474 Y85.167 E0.05264
G1 F1500 X55.241 Y84.871 E0.05183
G1 F1500 X55.040 Y84.542 E0.05305
G1 F1500 X54.887 Y84.203 E0.05117
G1 F1500 X54.771 Y83.830 E0.05375
G1 F1500 X54.703 Y83.462 E0.05149
G1 F1500 X54.680 Y83.083 E0.05224
G1 F1500 X54.687 Y74.958 E1.11794
G1 F1500 X54.647 Y74.650 E0.04273
G1 F1500 X54.510 Y74.327 E0.04827
G1 F1500 X54.316 Y74.074 E0.04387
G1 F1500 X54.051 Y73.871 E0.04593
G1 F1500 X53.754 Y73.747 E0.04428
G1 F1500 X53.525 Y73.706 E0.03201
G1 F1500 X44.700 Y73.693 E1.21425
G1 F1500 X44.143 Y73.661 E0.07677
G1 F1500 X43.660 Y73.577 E0.06745
G1 F1500 X43.135 Y73.429 E0.07505
G1 F1500 X42.643 Y73.226 E0.07323
G1 F1500 X42.142 Y72.947 E0.07890
G1 F1500 X41.734 Y72.653 E0.06919
G1 F1500 X41.308 Y72.268 E0.07901
G1 F1500 X40.953 Y71.863 E0.07410
G1 F1500 X40.821 Y71.670 E0.03217
G1 F1500 X61.336 Y61.581 E3.14558
G1 F1500 X61.660 Y61.444 E0.04840
G1 F1500 X62.010 Y61.341 E0.05020
G1 F1500 X62.353 Y61.282 E0.04789
G1 F1500 X66.941 Y61.264 E0.63128
G1 F1500 X67.251 Y61.224 E0.04301
G1 F1500 X67.576 Y61.087 E0.04853
G1 F1500 X67.828 Y60.893 E0.04376
G1 F1500 X68.032 Y60.627 E0.04612
G1 F1500 X68.156 Y60.331 E0.04416
G1 F1500 X68.197 Y60.102 E0.03201
G1 F1500 X68.209 Y51.558 E1.17559
G1 F1500 X68.266 Y50.954 E0.08348
G1 F1500 X68.370 Y50.557 E0.05647
G1 F1500 X68.435 Y50.380 E0.02594
G1 F1500 X68.608 Y50.018 E0.05520
G1 F1500 X68.829 Y49.679 E0.05568
G1 F1500 X69.085 Y49.378 E0.05437
G1 F1500 X69.389 Y49.099 E0.05677
G1 F1500 X69.701 Y48.881 E0.05237
G1 F1500 X70.059 Y48.694 E0.05557
G1 F1500 X70.610 Y48.507 E0.08006
G1 F1500 X71.018 Y48.436 E0.05698
G1 F1500 X71.414 Y48.422 E0.05452
G1 F1500 X71.807 Y48.457 E0.05429
G1 F1500 X72.378 Y48.602 E0.08106
G1 F1500 X72.765 Y48.767 E0.05789
G1 F1500 X169.308 Y98.123 E14.91883
G1 F1500 X169.306 Y100.344 E0.30559
G1 F1500 X169.290 Y100.545 E0.02774
G1 F1500 X169.240 Y100.744 E0.02823
G1 F1500 X169.172 Y100.908 E0.02443
G1 F1500 X169.062 Y101.085 E0.02867
G1 F1500 X168.937 Y101.227 E0.02603
G1 F1500 X168.799 Y101.345 E0.02498
G1 F1500 X168.636 Y101.445 E0.02631
G1 F1500 X168.458 Y101.518 E0.02647
G1 F1500 X168.273 Y101.563 E0.02620
G1 F1500 X168.081 Y101.577 E0.02649
G1 F1500 X167.890 Y101.562 E0.02636
G1 F1500 X167.701 Y101.517 E0.02673
G1 F1500 X167.521 Y101.442 E0.02683
G1 F1500 X167.359 Y101.342 E0.02619
G1 F1500 X167.218 Y101.221 E0.02556
G1 F1500 X167.091 Y101.073 E0.02683
G1 F1500 X166.987 Y100.903 E0.02742
G1 F1500 X166.917 Y100.732 E0.02542
G1 F1500 X166.872 Y100.544 E0.02660
G1 F1500 X166.833 Y100.077 E0.06448
G1 F1500 X150.654 Y100.062 E2.22611
G1 F1500 X150.275 Y100.038 E0.05225
G1 F1500 X149.895 Y99.967 E0.05319
G1 F1500 X149.534 Y99.854 E0.05205
G1 F1500 X149.196 Y99.699 E0.05116
G1 F1500 X147.825 Y98.764 E0.22833
G1 F1500 X148.051 Y98.313 E0.06941
G1 F1500 X148.172 Y97.947 E0.05304
G1 F1500 X148.204 Y97.798 E0.02097
G1 F1500 X148.438 Y97.799 E0.03220
G1 F1500 X148.491 Y97.103 E0.09604
G1 F1500 X148.468 Y96.659 E0.06117
G1 F1500 X148.387 Y96.212 E0.06251
G1 F1500 X148.253 Y95.780 E0.06223
G1 F1500 X148.066 Y95.371 E0.06188
G1 F1500 X147.824 Y94.983 E0.06292
G1 F1500 X147.540 Y94.634 E0.06191
G1 F1500 X147.212 Y94.323 E0.06219
G1 F1500 X146.847 Y94.053 E0.06247
G1 F1500 X146.452 Y93.834 E0.06214
G1 F1500 X146.031 Y93.666 E0.06237
G1 F1500 X145.594 Y93.551 E0.06218
G1 F1500 X145.143 Y93.494 E0.06255
G1 F1500 X144.693 Y93.494 E0.06192
G1 F1500 X144.242 Y93.550 E0.06253
G1 F1500 X143.805 Y93.664 E0.06214
G1 F1500 X143.383 Y93.832 E0.06250
G1 F1500 X142.989 Y94.050 E0.06196
G1 F1500 X142.625 Y94.317 E0.06211
G1 F1500 X142.294 Y94.630 E0.06268
G1 F1500 X142.010 Y94.978 E0.06180
G1 F1500 X141.769 Y95.365 E0.06273
G1 F1500 X141.579 Y95.775 E0.06218
G1 F1500 X141.445 Y96.205 E0.06197
G1 F1500 X141.363 Y96.653 E0.06267
G1 F1500 X141.340 Y97.100 E0.06159
G1 F1500 X141.392 Y97.790 E0.09521
G1 F1500 X141.625 Y97.791 E0.03206
G1 F1500 X141.657 Y97.942 E0.02124
G1 F1500 X141.777 Y98.307 E0.05287
G1 F1500 X141.942 Y98.662 E0.05386
G1 F1500 X142.004 Y98.763 E0.01631
G1 F1500 X141.014 Y99.455 E0.16619
G1 F1500 X140.891 Y99.526 E0.01954
G1 F1500 X140.781 Y99.568 E0.01620
G1 F1500 X140.670 Y99.591 E0.01560
G1 F1500 X140.546 Y99.596 E0.01708
G1 F1500 X140.434 Y99.583 E0.01551
G1 F1500 X140.325 Y99.551 E0.01563
G1 F1500 X140.210 Y99.496 E0.01754
G1 F1500 X140.120 Y99.434 E0.01504
G1 F1500 X140.033 Y99.349 E0.01674
G1 F1500 X139.964 Y99.258 E0.01571
G1 F1500 X139.908 Y99.147 E0.01711
G1 F1500 X139.739 Y98.676 E0.06885
G1 F1500 X139.605 Y98.164 E0.07282
G1 F1500 X139.522 Y97.626 E0.07490
G1 F1500 X139.491 Y97.050 E0.07937
G1 F1500 X139.526 Y96.382 E0.09204
G1 F1500 X139.491 Y96.078 E0.04210
G1 F1500 X139.412 Y95.852 E0.03294
G1 F1500 X139.247 Y95.582 E0.04354
G1 F1500 X139.090 Y95.419 E0.03114
G1 F1500 X138.911 Y95.289 E0.03044
G1 F1500 X138.712 Y95.189 E0.03064
G1 F1500 X138.502 Y95.128 E0.03009
G1 F1500 X112.319 Y92.238 E3.62446
G1 F1500 X112.120 Y92.234 E0.02739
G1 F1500 X111.905 Y92.263 E0.02985
G1 F1500 X111.704 Y92.328 E0.02907
G1 F1500 X111.510 Y92.428 E0.03003
G1 F1500 X111.342 Y92.556 E0.02906
G1 F1500 X111.197 Y92.708 E0.02890
G1 F1500 X111.076 Y92.889 E0.02996
G1 F1500 X110.987 Y93.085 E0.02962
G1 F1500 X110.936 Y93.290 E0.02907
G1 F1500 X110.917 Y93.505 E0.02970
G1 F1500 X110.934 Y93.720 E0.02967
G1 F1500 X111.161 Y94.521 E0.11455
G1 F1500 X111.292 Y95.234 E0.09975
G1 F1500 X111.340 Y95.899 E0.09174
G1 F1500 X111.316 Y96.582 E0.09403
G1 F1500 X111.232 Y97.194 E0.08500
G1 F1500 X111.075 Y97.845 E0.09214
G1 F1500 X110.849 Y98.485 E0.09339
G1 F1500 X110.539 Y99.134 E0.09896
G1 F1500 X110.212 Y99.659 E0.08510
G1 F1500 X110.094 Y99.808 E0.02615
G1 F1500 X110.060 Y99.839 E0.00633
G1 F1500 X109.894 Y99.944 E0.02703
G1 F1500 X109.709 Y100.004 E0.02676
G1 F1500 X109.596 Y100.013 E0.01560
G1 F1500 X109.394 Y99.987 E0.02802
G1 F1500 X109.174 Y99.884 E0.03342
G1 F1500 X109.067 Y99.795 E0.01915
G1 F1500 X108.191 Y98.916 E0.17075
G1 F1500 X108.339 Y98.749 E0.03070
G1 F1500 X108.593 Y98.396 E0.05984
G1 F1500 X108.837 Y97.964 E0.06827
G1 F1500 X109.020 Y97.538 E0.06379
G1 F1500 X109.196 Y96.904 E0.09053
G1 F1500 X109.426 Y96.904 E0.03165
G1 F1500 X109.490 Y96.120 E0.10823
G1 F1500 X109.470 Y95.582 E0.07408
G1 F1500 X109.386 Y95.046 E0.07465
G1 F1500 X109.238 Y94.521 E0.07505
G1 F1500 X109.030 Y94.021 E0.07451
G1 F1500 X108.764 Y93.548 E0.07467
G1 F1500 X108.443 Y93.112 E0.07450
G1 F1500 X108.072 Y92.712 E0.07507
G1 F1500 X107.659 Y92.363 E0.07440
G1 F1500 X107.203 Y92.062 E0.07518
G1 F1500 X106.719 Y91.821 E0.07439
G1 F1500 X106.206 Y91.636 E0.07503
G1 F1500 X105.678 Y91.513 E0.07459
G1 F1500 X105.136 Y91.455 E0.07500
G1 F1500 X104.596 Y91.461 E0.07430
G1 F1500 X104.054 Y91.530 E0.07518
G1 F1500 X103.529 Y91.665 E0.07459
G1 F1500 X103.021 Y91.860 E0.07487
G1 F1500 X102.540 Y92.115 E0.07491
G1 F1500 X102.095 Y92.422 E0.07439
G1 F1500 X101.687 Y92.784 E0.07505
G1 F1500 X101.325 Y93.189 E0.07474
G1 F1500 X101.017 Y93.633 E0.07435
G1 F1500 X100.760 Y94.114 E0.07504
G1 F1500 X100.563 Y94.621 E0.07484
G1 F1500 X100.427 Y95.145 E0.07449
G1 F1500 X100.354 Y95.679 E0.07416
G1 F1500 X100.346 Y96.175 E0.06825
G1 F1500 X99.464 Y99.451 E0.46680
G1 F1500 X98.191 Y99.108 E0.18140
G1 F1500 X98.064 Y99.062 E0.01859
G1 F1500 X97.966 Y99.005 E0.01560
G1 F1500 X97.819 Y98.869 E0.02755
G1 F1500 X97.715 Y98.705 E0.02672
G1 F1500 X97.660 Y98.528 E0.02550
G1 F1500 X97.650 Y98.416 E0.01547
G1 F1500 X97.678 Y98.198 E0.03024
G1 F1500 X98.889 Y93.803 E0.62725
G1 F1500 X99.144 Y93.203 E0.08970
G1 F1500 X99.546 Y92.461 E0.11611
G1 F1500 X99.609 Y92.258 E0.02925
G1 F1500 X99.637 Y92.044 E0.02970
G1 F1500 X99.630 Y91.834 E0.02891
G1 F1500 X99.586 Y91.619 E0.03020
G1 F1500 X99.508 Y91.421 E0.02928
G1 F1500 X99.401 Y91.241 E0.02881
G1 F1500 X99.260 Y91.074 E0.03007
G1 F1500 X99.094 Y90.938 E0.02953
G1 F1500 X98.914 Y90.832 E0.02874
G1 F1500 X98.718 Y90.758 E0.02883
G1 F1500 X98.514 Y90.716 E0.02866
G1 F12000 X98.823 Y89.974 
;TYPE:SKIN
G1 F1980 X101.235 Y87.561 E0.51211
G1 F12000 X100.472 Y87.476 
G1 F1980 X98.075 Y89.873 E0.50882
G1 F12000 X97.311 Y89.789 
G1 F1980 X99.707 Y87.392 E0.50872
G1 F12000 X98.944 Y87.307 
G1 F1980 X96.547 Y89.704 E0.50882
G1 F12000 X95.783 Y89.620 
G1 F1980 X98.180 Y87.223 E0.50882
G1 F12000 X97.415 Y87.138 
G1 F1980 X95.018 Y89.535 E0.50882
G1 F12000 X94.254 Y89.451 
G1 F1980 X96.652 Y87.054 E0.50893
G1 F12000 X95.888 Y86.969 
G1 F1980 X93.490 Y89.367 E0.50903
G1 F12000 X92.725 Y89.283 
G1 F1980 X95.124 Y86.885 E0.50914
G1 F12000 X94.360 Y86.800 
G1 F1980 X91.961 Y89.199 E0.50925
G1 F12000 X91.196 Y89.115 
G1 F1980 X93.596 Y86.715 E0.50946
G1 F12000 X92.890 Y86.573 
G1 F1980 X90.433 Y89.030 E0.52156
G1 F12000 X89.668 Y88.946 
G1 F1980 X92.288 Y86.326 E0.55616
G1 F12000 X91.759 Y86.007 
G1 F1980 X88.904 Y88.862 E0.60604
G1 F12000 X88.140 Y88.777 
G1 F1980 X91.303 Y85.615 E0.67132
G1 F12000 X90.907 Y85.162 
G1 F1980 X87.375 Y88.693 E0.74965
G1 F12000 X86.611 Y88.609 
G1 F1980 X90.576 Y84.644 E0.84167
G1 F12000 X90.315 Y84.057 
G1 F1980 X85.847 Y88.525 E0.94844
G1 F12000 X85.082 Y88.441 
G1 F1980 X90.137 Y83.386 E1.07305
G1 F12000 X90.088 Y82.586 
G1 F1980 X84.318 Y88.356 E1.22482
G1 F12000 X83.554 Y88.272 
G1 F1980 X86.691 Y85.134 E0.66601
G1 F12000 X85.332 Y85.645 
G1 F1980 X82.790 Y88.188 E0.53971
G1 F12000 X82.025 Y88.104 
G1 F1980 X84.416 Y85.713 E0.50755
G1 F12000 X83.638 Y85.643 
G1 F1980 X81.261 Y88.019 E0.50447
G1 F12000 X80.497 Y87.935 
G1 F1980 X82.873 Y85.559 E0.50436
G1 F12000 X82.109 Y85.475 
G1 F1980 X79.732 Y87.851 E0.50447
G1 F12000 X78.968 Y87.767 
G1 F1980 X81.345 Y85.390 E0.50458
G1 F12000 X80.581 Y85.306 
G1 F1980 X78.204 Y87.682 E0.50447
G1 F12000 X77.440 Y87.598 
G1 F1980 X79.816 Y85.221 E0.50447
G1 F12000 X79.052 Y85.137 
G1 F1980 X76.675 Y87.514 E0.50458
G1 F12000 X75.911 Y87.430 
G1 F1980 X78.288 Y85.053 E0.50458
G1 F12000 X77.523 Y84.969 
G1 F1980 X75.147 Y87.346 E0.50447
G1 F12000 X74.382 Y87.261 
G1 F1980 X76.759 Y84.885 E0.50447
G1 F12000 X75.995 Y84.800 
G1 F1980 X73.618 Y87.177 E0.50458
G1 F12000 X72.853 Y87.093 
G1 F1980 X75.231 Y84.716 E0.50468
G1 F12000 X74.466 Y84.632 
G1 F1980 X72.090 Y87.008 E0.50436
G1 F12000 X71.325 Y86.924 
G1 F1980 X73.702 Y84.548 E0.50447
G1 F12000 X72.938 Y84.463 
G1 F1980 X70.561 Y86.840 E0.50458
G1 F12000 X69.797 Y86.756 
G1 F1980 X72.173 Y84.379 E0.50447
G1 F12000 X71.410 Y84.294 
G1 F1980 X69.032 Y86.672 E0.50479
G1 F12000 X68.268 Y86.588 
G1 F1980 X70.645 Y84.210 E0.50468
G1 F12000 X69.881 Y84.126 
G1 F1980 X67.503 Y86.503 E0.50468
G1 F12000 X66.739 Y86.419 
G1 F1980 X69.116 Y84.042 E0.50458
G1 F12000 X68.352 Y83.958 
G1 F1980 X65.975 Y86.334 E0.50447
G1 F12000 X65.211 Y86.250 
G1 F1980 X67.588 Y83.874 E0.50447
G1 F12000 X66.823 Y83.790 
G1 F1980 X64.447 Y86.166 E0.50436
G1 F12000 X63.682 Y86.082 
G1 F1980 X66.060 Y83.705 E0.50468
G1 F12000 X65.295 Y83.621 
G1 F1980 X62.918 Y85.998 E0.50458
G1 F12000 X62.153 Y85.914 
G1 F1980 X64.531 Y83.536 E0.50479
G1 F12000 X63.766 Y83.452 
G1 F1980 X61.389 Y85.830 E0.50468
G1 F12000 X60.625 Y85.745 
G1 F1980 X63.002 Y83.368 E0.50458
G1 F12000 X62.238 Y83.284 
G1 F1980 X59.861 Y85.661 E0.50458
G1 F12000 X59.097 Y85.576 
G1 F1980 X61.493 Y83.180 E0.50861
G1 F12000 X60.835 Y82.990 
G1 F1980 X58.332 Y85.492 E0.53122
G1 F12000 X57.569 Y85.407 
G1 F1980 X60.266 Y82.710 E0.57250
G1 F12000 X59.763 Y82.365 
G1 F1980 X56.898 Y85.230 E0.60817
G1 F12000 X56.364 Y84.915 
G1 F1980 X59.322 Y81.957 E0.62791
G1 F12000 X58.945 Y81.486 
G1 F1980 X55.945 Y84.485 E0.63672
G1 F12000 X55.637 Y83.944 
G1 F1980 X58.639 Y80.943 E0.63714
G1 F12000 X58.408 Y80.325 
G1 F1980 X55.481 Y83.252 E0.62133
G1 F12000 X55.471 Y82.414 
G1 F1980 X58.267 Y79.618 E0.59352
G1 F12000 X58.244 Y78.792 
G1 F1980 X55.471 Y81.565 E0.58864
G1 F12000 X55.472 Y80.716 
G1 F1980 X58.247 Y77.941 E0.58906
G1 F12000 X58.249 Y77.090 
G1 F1980 X55.473 Y79.867 E0.58938
G1 F12000 X55.473 Y79.017 
G1 F1980 X58.252 Y76.239 E0.58981
G1 F12000 X58.254 Y75.388 
G1 F1980 X55.475 Y78.167 E0.58991
G1 F12000 X55.476 Y77.318 
G1 F1980 X58.257 Y74.536 E0.59044
G1 F12000 X58.260 Y73.685 
G1 F1980 X55.476 Y76.469 E0.59097
G1 F12000 X55.477 Y75.620 
G1 F1980 X58.263 Y72.834 E0.59140
G1 F12000 X58.266 Y71.982 
G1 F1980 X55.462 Y74.786 E0.59522
G1 F12000 X55.289 Y74.111 
G1 F1980 X58.269 Y71.131 E0.63258
G1 F12000 X58.271 Y70.280 
G1 F1980 X54.949 Y73.602 E0.70518
G1 F12000 X54.491 Y73.212 
G1 F1980 X58.274 Y69.428 E0.80314
G1 F12000 X58.430 Y68.424 
G1 F1980 X53.887 Y72.967 E0.96436
G1 F12000 X53.091 Y72.914 
G1 F1980 X63.940 Y62.065 E2.30297
G1 F12000 X64.792 Y62.062 
G1 F1980 X61.279 Y65.574 E0.74561
G1 F12000 X62.753 Y64.949 
G1 F1980 X65.644 Y62.059 E0.61358
G1 F12000 X66.496 Y62.055 
G1 F1980 X63.731 Y64.820 E0.58694
G1 F12000 X64.578 Y64.821 
G1 F1980 X67.399 Y62.001 E0.59872
G1 F12000 X68.934 Y60.466 
G1 F1980 X72.079 Y57.320 E0.66771
G1 F12000 X71.787 Y58.461 
G1 F1980 X65.426 Y64.822 E1.35028
G1 F12000 X66.273 Y64.824 
G1 F1980 X71.762 Y59.335 E1.16518
G1 F12000 X68.987 Y59.564 
G1 F1980 X76.822 Y51.729 E1.66317
G1 F12000 X76.261 Y51.442 
G1 F1980 X68.988 Y58.715 E1.54387
G1 F12000 X68.989 Y57.865 
G1 F1980 X75.699 Y51.155 E1.42436
G1 F12000 X75.137 Y50.868 
G1 F1980 X68.990 Y57.015 E1.30485
G1 F12000 X68.991 Y56.166 
G1 F1980 X74.576 Y50.581 E1.18555
G1 F12000 X74.014 Y50.294 
G1 F1980 X68.993 Y55.316 E1.06594
G1 F12000 X68.994 Y54.466 
G1 F1980 X73.453 Y50.007 E0.94653
G1 F12000 X72.892 Y49.720 
G1 F1980 X68.995 Y53.617 E0.82723
G1 F12000 X68.996 Y52.767 
G1 F1980 X72.325 Y49.438 E0.70666
G1 F12000 X71.676 Y49.238 
G1 F1980 X68.998 Y51.917 E0.56858
G1 F12000 X69.075 Y50.990 
G1 F1980 X70.784 Y49.282 E0.36267
G1 F12000 X74.245 Y55.155 
G1 F1980 X77.384 Y52.016 E0.66633
G1 F12000 X77.945 Y52.303 
G1 F1980 X75.386 Y54.862 E0.54321
G1 F12000 X76.243 Y54.854 
G1 F1980 X78.507 Y52.590 E0.48059
G1 F12000 X79.068 Y52.877 
G1 F1980 X76.950 Y54.995 E0.44960
G1 F12000 X77.567 Y55.227 
G1 F1980 X79.630 Y53.164 E0.43792
G1 F12000 X80.191 Y53.451 
G1 F1980 X78.132 Y55.510 E0.43707
G1 F12000 X78.693 Y55.798 
G1 F1980 X80.753 Y53.738 E0.43729
G1 F12000 X81.314 Y54.025 
G1 F1980 X79.254 Y56.085 E0.43729
G1 F12000 X79.815 Y56.373 
G1 F1980 X81.875 Y54.312 E0.43739
G1 F12000 X82.437 Y54.599 
G1 F1980 X80.376 Y56.661 E0.43760
G1 F12000 X80.936 Y56.948 
G1 F1980 X82.998 Y54.887 E0.43760
G1 F12000 X83.560 Y55.174 
G1 F1980 X81.497 Y57.236 E0.43782
G1 F12000 X82.058 Y57.524 
G1 F1980 X84.121 Y55.461 E0.43792
G1 F12000 X84.683 Y55.748 
G1 F1980 X82.619 Y57.812 E0.43813
G1 F12000 X83.180 Y58.099 
G1 F1980 X85.244 Y56.035 E0.43813
G1 F12000 X85.805 Y56.322 
G1 F1980 X83.741 Y58.387 E0.43824
G1 F12000 X84.301 Y58.675 
G1 F1980 X86.368 Y56.608 E0.43877
G1 F12000 X86.929 Y56.895 
G1 F1980 X84.862 Y58.962 E0.43877
G1 F12000 X85.423 Y59.250 
G1 F1980 X87.491 Y57.183 E0.43888
G1 F12000 X88.052 Y57.470 
G1 F1980 X85.984 Y59.538 E0.43898
G1 F12000 X86.544 Y59.826 
G1 F1980 X88.613 Y57.757 E0.43920
G1 F12000 X89.175 Y58.044 
G1 F1980 X87.106 Y60.113 E0.43920
G1 F12000 X87.667 Y60.401 
G1 F1980 X89.736 Y58.331 E0.43930
G1 F12000 X90.298 Y58.618 
G1 F1980 X88.227 Y60.688 E0.43951
G1 F12000 X88.788 Y60.976 
G1 F1980 X90.859 Y58.905 E0.43962
G1 F12000 X91.421 Y59.192 
G1 F1980 X89.349 Y61.264 E0.43983
G1 F12000 X89.910 Y61.552 
G1 F1980 X91.982 Y59.479 E0.43994
G1 F12000 X92.544 Y59.766 
G1 F1980 X90.470 Y61.840 E0.44026
G1 F12000 X91.031 Y62.127 
G1 F1980 X93.105 Y60.053 E0.44026
G1 F12000 X93.666 Y60.340 
G1 F1980 X91.592 Y62.414 E0.44026
G1 F12000 X92.153 Y62.702 
G1 F1980 X94.228 Y60.628 E0.44036
G1 F12000 X94.789 Y60.915 
G1 F1980 X92.714 Y62.990 E0.44047
G1 F12000 X93.275 Y63.278 
G1 F1980 X95.351 Y61.202 E0.44068
G1 F12000 X95.912 Y61.489 
G1 F1980 X93.835 Y63.566 E0.44089
G1 F12000 X94.378 Y63.872 
G1 F1980 X96.474 Y61.775 E0.44503
G1 F12000 X97.036 Y62.062 
G1 F1980 X94.836 Y64.262 E0.46700
G1 F12000 X95.231 Y64.715 
G1 F1980 X97.597 Y62.349 E0.50224
G1 F12000 X98.159 Y62.636 
G1 F1980 X95.564 Y65.232 E0.55096
G1 F12000 X95.824 Y65.820 
G1 F1980 X98.720 Y62.924 E0.61475
G1 F12000 X99.282 Y63.211 
G1 F1980 X95.998 Y66.494 E0.69700
G1 F12000 X96.047 Y67.293 
G1 F1980 X99.843 Y63.498 E0.80569
G1 F12000 X100.404 Y63.785 
G1 F1980 X95.882 Y68.307 E0.95991
G1 F12000 X96.277 Y69.609 
G1 F1980 X94.276 Y71.610 E0.42476
G1 F12000 X95.390 Y71.345 
G1 F1980 X93.382 Y73.353 E0.42625
G1 F12000 X94.502 Y73.081 
G1 F1980 X92.488 Y75.095 E0.42752
G1 F12000 X93.615 Y74.817 
G1 F1980 X91.594 Y76.838 E0.42901
G1 F12000 X92.728 Y76.552 
G1 F1980 X90.700 Y78.580 E0.43049
G1 F12000 X91.841 Y78.288 
G1 F1980 X89.806 Y80.323 E0.43198
G1 F12000 X90.953 Y80.024 
G1 F1980 X88.913 Y82.065 E0.43315
G1 F12000 X90.247 Y81.579 
G1 F1980 X88.019 Y83.807 E0.47295
G1 F12000 X99.426 Y90.219 
G1 F1980 X101.999 Y87.646 E0.54618
G1 F12000 X102.763 Y87.730 
G1 F1980 X99.893 Y90.600 E0.60923
G1 F12000 X99.999 Y93.889 
G1 F1980 X99.597 Y94.714 E0.09252
G1 F1980 X99.398 Y95.762 E0.08326
G1 F1980 X99.086 Y96.922 E0.13553
G1 F1980 X98.769 Y98.088 E0.13996
G1 F1980 X98.821 Y98.461 E0.05653
G1 F12000 X100.280 Y92.759 
G1 F1980 X105.055 Y87.984 E1.01361
G1 F12000 X104.291 Y87.900 
G1 F1980 X100.417 Y91.773 E0.82225
G1 F12000 X100.234 Y91.108 
G1 F1980 X103.527 Y87.815 E0.69902
G1 F12000 X105.819 Y88.069 
G1 F1980 X102.783 Y91.105 E0.64447
G1 F12000 X103.994 Y90.743 
G1 F1980 X106.582 Y88.154 E0.54947
G1 F12000 X107.347 Y88.238 
G1 F1980 X104.918 Y90.667 E0.51562
G1 F12000 X105.711 Y90.723 
G1 F1980 X108.110 Y88.323 E0.50935
G1 F12000 X108.874 Y88.408 
G1 F1980 X106.410 Y90.872 E0.52304
G1 F12000 X107.034 Y91.096 
G1 F1980 X109.639 Y88.492 E0.55287
G1 F12000 X110.402 Y88.577 
G1 F1980 X107.600 Y91.379 E0.59479
G1 F12000 X108.111 Y91.716 
G1 F1980 X111.166 Y88.661 E0.64850
G1 F12000 X111.930 Y88.746 
G1 F1980 X108.573 Y92.103 E0.71261
G1 F12000 X108.987 Y92.537 
G1 F1980 X112.694 Y88.830 E0.78690
G1 F12000 X113.458 Y88.915 
G1 F1980 X109.355 Y93.018 E0.87096
G1 F12000 X109.672 Y93.550 
G1 F1980 X110.173 Y93.472 E0.10845
G1 F1980 X110.143 Y94.351 E0.04863
G1 F1980 X110.313 Y95.029 E0.04651
G1 F1980 X110.399 Y95.792 E0.05033
G1 F1980 X110.360 Y96.679 E0.05886
G1 F1980 X110.187 Y97.278 E0.09359
G1 F12000 X110.660 Y92.658 
G1 F12000 X111.733 Y91.489 
G1 F1980 X114.222 Y88.999 E0.52846
G1 F12000 X114.986 Y89.084 
G1 F1980 X112.596 Y91.474 E0.50734
G1 F12000 X113.360 Y91.559 
G1 F1980 X115.750 Y89.168 E0.50744
G1 F12000 X116.514 Y89.253 
G1 F1980 X114.124 Y91.643 E0.50734
G1 F12000 X114.888 Y91.728 
G1 F1980 X117.277 Y89.338 E0.50723
G1 F12000 X118.042 Y89.422 
G1 F1980 X115.652 Y91.812 E0.50734
G1 F12000 X116.417 Y91.896 
G1 F1980 X118.805 Y89.507 E0.50702
G1 F12000 X119.569 Y89.592 
G1 F1980 X117.181 Y91.981 E0.50702
G1 F12000 X117.945 Y92.065 
G1 F1980 X120.334 Y89.676 E0.50712
G1 F12000 X121.097 Y89.761 
G1 F1980 X118.709 Y92.149 E0.50691
G1 F12000 X119.473 Y92.234 
G1 F1980 X121.861 Y89.846 E0.50691
G1 F12000 X122.625 Y89.930 
G1 F1980 X120.237 Y92.318 E0.50691
G1 F12000 X121.002 Y92.402 
G1 F1980 X123.389 Y90.015 E0.50670
G1 F12000 X124.153 Y90.100 
G1 F1980 X121.766 Y92.486 E0.50659
G1 F12000 X122.530 Y92.571 
G1 F1980 X124.917 Y90.184 E0.50670
G1 F12000 X125.681 Y90.269 
G1 F1980 X123.294 Y92.655 E0.50659
G1 F12000 X124.059 Y92.739 
G1 F1980 X126.444 Y90.354 E0.50628
G1 F12000 X127.209 Y90.438 
G1 F1980 X124.822 Y92.824 E0.50659
G1 F12000 X125.587 Y92.908 
G1 F1980 X127.972 Y90.523 E0.50628
G1 F12000 X128.736 Y90.607 
G1 F1980 X126.351 Y92.993 E0.50638
G1 F12000 X127.115 Y93.077 
G1 F1980 X129.500 Y90.692 E0.50628
G1 F12000 X130.264 Y90.776 
G1 F1980 X127.879 Y93.162 E0.50638
G1 F12000 X128.643 Y93.246 
G1 F1980 X131.028 Y90.861 E0.50628
G1 F12000 X131.792 Y90.945 
G1 F1980 X129.408 Y93.330 E0.50617
G1 F12000 X130.171 Y93.415 
G1 F1980 X132.556 Y91.030 E0.50628
G1 F12000 X133.320 Y91.115 
G1 F1980 X130.936 Y93.499 E0.50606
G1 F12000 X131.700 Y93.583 
G1 F1980 X134.084 Y91.199 E0.50606
G1 F12000 X134.848 Y91.284 
G1 F1980 X132.465 Y93.667 E0.50585
G1 F12000 X133.228 Y93.752 
G1 F1980 X135.611 Y91.369 E0.50585
G1 F12000 X136.376 Y91.453 
G1 F1980 X133.993 Y93.836 E0.50585
G1 F12000 X134.757 Y93.920 
G1 F1980 X137.139 Y91.538 E0.50564
G1 F12000 X137.903 Y91.623 
G1 F1980 X135.521 Y94.004 E0.50553
G1 F12000 X136.285 Y94.089 
G1 F1980 X138.667 Y91.707 E0.50564
G1 F12000 X139.431 Y91.792 
G1 F1980 X137.050 Y94.173 E0.50543
G1 F12000 X137.814 Y94.258 
G1 F1980 X140.195 Y91.877 E0.50543
G1 F12000 X140.959 Y91.961 
G1 F1980 X138.578 Y94.342 E0.50543
G1 F12000 X139.211 Y94.557 
G1 F1980 X141.723 Y92.046 E0.53313
G1 F12000 X142.486 Y92.131 
G1 F1980 X139.703 Y94.914 E0.59076
G1 F12000 X92.361 Y86.011 
G1 F12000 X90.736 Y84.272 
G1 F12000 X90.481 Y81.915 
G1 F12000 X97.298 Y68.561 
G1 F12000 X99.251 Y67.384 
G1 F12000 X101.085 Y67.409 
G1 F12000 X125.525 Y77.285 
G1 F12000 X139.507 Y84.079 
G1 F1980 X139.427 Y83.734 E0.04262
G1 F1980 X138.765 Y83.548 E0.04266
G1 F1980 X138.204 Y83.261 E0.04256
G1 F1980 X137.642 Y82.974 E0.04262
G1 F1980 X137.081 Y82.686 E0.04259
G1 F1980 X136.519 Y82.400 E0.04259
G1 F1980 X135.957 Y82.113 E0.04262
G1 F1980 X135.396 Y81.826 E0.04241
G1 F1980 X134.835 Y81.539 E0.04256
G1 F1980 X134.273 Y81.252 E0.04262
G1 F1980 X133.712 Y80.965 E0.04256
G1 F1980 X133.150 Y80.678 E0.04262
G1 F1980 X132.589 Y80.390 E0.04244
G1 F1980 X132.027 Y80.103 E0.04247
G1 F1980 X131.466 Y79.816 E0.04241
G1 F1980 X130.904 Y79.529 E0.04262
G1 F1980 X130.343 Y79.242 E0.04241
G1 F1980 X129.782 Y78.955 E0.04256
G1 F1980 X129.220 Y78.668 E0.04262
G1 F1980 X128.659 Y78.381 E0.04256
G1 F1980 X128.097 Y78.094 E0.04262
G1 F1980 X127.536 Y77.807 E0.04256
G1 F1980 X126.974 Y77.520 E0.04262
G1 F1980 X126.412 Y77.233 E0.04262
G1 F1980 X125.851 Y76.946 E0.04256
G1 F1980 X125.282 Y76.666 E0.04553
G1 F1980 X124.700 Y76.400 E0.05459
G1 F1980 X124.117 Y76.134 E0.06364
G1 F1980 X123.342 Y76.060 E0.07245
G1 F1980 X123.144 Y75.410 E0.08142
G1 F1980 X122.135 Y75.571 E0.09049
G1 F1980 X122.021 Y74.836 E0.09955
G1 F1980 X120.927 Y75.081 E0.10826
G1 F1980 X120.898 Y74.262 E0.11727
G1 F1980 X119.720 Y74.592 E0.12640
G1 F1980 X119.775 Y73.687 E0.13518
G1 F1980 X118.513 Y74.102 E0.14424
G1 F1980 X118.652 Y73.113 E0.15316
G1 F1980 X117.305 Y73.613 E0.16211
G1 F1980 X117.811 Y72.683 E0.15892
G1 F12000 X117.249 Y72.396 
G1 F1980 X116.399 Y73.246 E0.18043
G1 F12000 X115.796 Y73.000 
G1 F1980 X116.688 Y72.109 E0.18924
G1 F12000 X116.126 Y71.822 
G1 F1980 X115.192 Y72.756 E0.19826
G1 F12000 X114.588 Y72.511 
G1 F1980 X115.564 Y71.535 E0.20718
G1 F12000 X115.003 Y71.248 
G1 F1980 X113.984 Y72.267 E0.21631
G1 F12000 X113.381 Y72.022 
G1 F1980 X114.441 Y70.961 E0.22512
G1 F12000 X113.880 Y70.674 
G1 F1980 X112.777 Y71.777 E0.23414
G1 F12000 X112.174 Y71.532 
G1 F1980 X113.318 Y70.387 E0.24295
G1 F12000 X112.757 Y70.100 
G1 F1980 X111.570 Y71.287 E0.25197
G1 F12000 X110.966 Y71.043 
G1 F1980 X112.195 Y69.813 E0.26099
G1 F12000 X111.634 Y69.526 
G1 F1980 X110.362 Y70.798 E0.27001
G1 F12000 X109.758 Y70.553 
G1 F1980 X111.073 Y69.239 E0.27904
G1 F12000 X110.511 Y68.952 
G1 F1980 X109.154 Y70.309 E0.28806
G1 F12000 X108.551 Y70.063 
G1 F1980 X109.950 Y68.665 E0.29687
G1 F12000 X109.388 Y68.377 
G1 F1980 X107.947 Y69.819 E0.30599
G1 F12000 X107.343 Y69.574 
G1 F1980 X108.827 Y68.090 E0.31502
G1 F12000 X108.265 Y67.803 
G1 F1980 X106.739 Y69.329 E0.32393
G1 F12000 X106.136 Y69.085 
G1 F1980 X107.704 Y67.516 E0.33295
G1 F12000 X107.142 Y67.229 
G1 F1980 X105.532 Y68.840 E0.34187
G1 F12000 X104.928 Y68.595 
G1 F1980 X106.581 Y66.942 E0.35089
G1 F12000 X106.019 Y66.656 
G1 F1980 X104.325 Y68.350 E0.35959
G1 F12000 X103.721 Y68.105 
G1 F1980 X105.457 Y66.369 E0.36851
G1 F12000 X104.896 Y66.081 
G1 F1980 X103.117 Y67.861 E0.37774
G1 F12000 X102.513 Y67.616 
G1 F1980 X104.335 Y65.794 E0.38676
G1 F12000 X103.773 Y65.507 
G1 F1980 X101.926 Y67.354 E0.39207
G1 F12000 X101.288 Y67.144 
G1 F1980 X103.212 Y65.220 E0.40842
G1 F12000 X102.650 Y64.933 
G1 F1980 X100.588 Y66.996 E0.43782
G1 F12000 X99.750 Y66.984 
G1 F1980 X102.089 Y64.646 E0.49640
G1 F12000 X101.527 Y64.359 
G1 F1980 X98.642 Y67.244 E0.61241
G1 F12000 X100.966 Y64.072 
G1 F1980 X95.170 Y69.868 E1.23034
G1 F12000 X95.679 Y66.478 
G1 F12000 X94.506 Y64.376 
G1 F12000 X76.635 Y55.233 
G1 F12000 X74.294 Y55.474 
G1 F12000 X72.557 Y57.061 
G1 F12000 X72.107 Y58.428 
G1 F12000 X71.600 Y61.194 
G1 F1980 X68.131 Y64.663 E0.73638
G1 F12000 X67.134 Y64.811 
G1 F1980 X71.736 Y60.209 E0.97689
G1 F12000 X70.874 Y62.768 
G1 F1980 X69.704 Y63.938 E0.24836
G1 F12000 X63.088 Y62.069 
G1 F1980 X52.243 Y72.914 E2.30212
G1 F12000 X51.396 Y72.912 
G1 F1980 X62.200 Y62.108 E2.29342
G1 F12000 X60.676 Y62.784 
G1 F1980 X50.549 Y72.911 E2.14971
G1 F12000 X49.702 Y72.909 
G1 F1980 X59.007 Y63.604 E1.97522
G1 F12000 X57.337 Y64.425 
G1 F1980 X48.855 Y72.908 E1.80062
G1 F12000 X48.007 Y72.907 
G1 F1980 X55.668 Y65.246 E1.62624
G1 F12000 X53.998 Y66.068 
G1 F1980 X47.160 Y72.906 E1.45153
G1 F12000 X46.313 Y72.904 
G1 F1980 X52.328 Y66.889 E1.27683
G1 F12000 X50.659 Y67.710 
G1 F1980 X45.466 Y72.903 E1.10234
G1 F12000 X44.624 Y72.896 
G1 F1980 X48.989 Y68.531 E0.92658
G1 F12000 X47.319 Y69.353 
G1 F1980 X43.863 Y72.809 E0.73362
G1 F12000 X43.216 Y72.607 
G1 F1980 X45.650 Y70.173 E0.51668
G1 F12000 X43.980 Y70.994 
G1 F1980 X42.649 Y72.325 E0.28254
G1 F12000 X42.156 Y71.970 
G1 F1980 X42.311 Y71.815 E0.03290
G1 F12000 X58.576 Y73.902 
G1 F12000 X58.670 Y80.117 
G1 F12000 X59.838 Y82.024 
G1 F12000 X61.873 Y82.928 
G1 F12000 X85.070 Y85.377 
G1 F12000 X86.728 Y84.759 
G1 F12000 X87.700 Y83.738 
G1 F12000 X97.624 Y68.231 
G1 F12000 X99.709 Y67.303 
G1 F12000 X101.973 Y67.774 
G1 F12000 X125.525 Y77.285 
G1 F12000 X140.068 Y84.367 
G1 F1980 X140.450 Y84.409 E0.04278
G1 F1980 X141.011 Y84.696 E0.04256
G1 F1980 X141.573 Y84.983 E0.04262
G1 F1980 X142.134 Y85.270 E0.04256
G1 F1980 X142.695 Y85.557 E0.04241
G1 F1980 X143.257 Y85.844 E0.04262
G1 F1980 X143.818 Y86.131 E0.04225
G1 F1980 X144.380 Y86.419 E0.04250
G1 F1980 X144.941 Y86.706 E0.04256
G1 F1980 X145.503 Y86.993 E0.04262
G1 F1980 X146.064 Y87.280 E0.04256
G1 F1980 X146.626 Y87.567 E0.04262
G1 F1980 X147.188 Y87.853 E0.04275
G1 F1980 X147.749 Y88.140 E0.04256
G1 F1980 X148.311 Y88.427 E0.04262
G1 F1980 X148.872 Y88.715 E0.04259
G1 F1980 X149.433 Y89.002 E0.04256
G1 F1980 X149.995 Y89.289 E0.04262
G1 F1980 X150.556 Y89.576 E0.04256
G1 F1980 X151.118 Y89.863 E0.04262
G1 F1980 X151.679 Y90.150 E0.04256
G1 F1980 X152.241 Y90.437 E0.04262
G1 F1980 X152.802 Y90.724 E0.04256
G1 F1980 X153.364 Y91.011 E0.04262
G1 F1980 X153.925 Y91.298 E0.04256
G1 F1980 X154.486 Y91.585 E0.04241
G1 F1980 X155.048 Y91.872 E0.04247
G1 F1980 X155.609 Y92.160 E0.04228
G1 F1980 X156.171 Y92.447 E0.04262
G1 F1980 X156.732 Y92.734 E0.04256
G1 F1980 X157.294 Y93.020 E0.04259
G1 F1980 X157.856 Y93.307 E0.04262
G1 F1980 X158.417 Y93.594 E0.04256
G1 F1980 X158.979 Y93.881 E0.04262
G1 F1980 X159.540 Y94.168 E0.04256
G1 F1980 X159.922 Y94.212 E0.05772
G1 F12000 X161.822 Y96.455 
G1 F12000 X161.655 Y97.836 
G1 F12000 X160.451 Y98.672 
G1 F12000 X160.216 Y99.009 
G1 F1980 X159.655 Y99.145 E0.05762
G1 F1980 X158.808 Y99.143 E0.05742
G1 F1980 X157.961 Y99.141 E0.05785
G1 F1980 X157.114 Y99.140 E0.05806
G1 F1980 X156.267 Y99.139 E0.05848
G1 F1980 X155.420 Y99.137 E0.05848
G1 F1980 X154.573 Y99.136 E0.05891
G1 F1980 X153.726 Y99.134 E0.05912
G1 F1980 X152.879 Y99.132 E0.05954
G1 F1980 X152.032 Y99.131 E0.05997
G1 F1980 X151.225 Y99.089 E0.06004
G1 F1980 X150.521 Y98.945 E0.07712
G1 F1980 X149.624 Y98.993 E0.11034
G1 F1980 X149.831 Y97.937 E0.13514
G1 F1980 X149.238 Y97.682 E0.10060
G1 F1980 X149.387 Y96.684 E0.05806
G1 F1980 X149.260 Y95.962 E0.04860
G1 F1980 X149.051 Y95.324 E0.04535
G1 F1980 X148.767 Y94.759 E0.04224
G1 F1980 X148.511 Y94.167 E0.04002
G1 F1980 X147.919 Y93.910 E0.03891
G1 F1980 X147.646 Y93.335 E0.03965
G1 F1980 X147.030 Y93.102 E0.04152
G1 F1980 X146.439 Y92.844 E0.04388
G1 F1980 X145.774 Y92.660 E0.04643
G1 F1980 X145.036 Y92.550 E0.05096
G1 F1980 X144.223 Y92.515 E0.07329
G1 F1980 X143.300 Y93.014 E0.15749
G1 F12000 X143.251 Y92.215 
G1 F1980 X140.064 Y95.402 E0.67652
G1 F12000 X140.280 Y96.034 
G1 F1980 X140.711 Y96.027 E0.12045
G1 F1980 X140.431 Y97.156 E0.05995
G1 F1980 X140.479 Y97.955 E0.05126
G1 F1980 X140.478 Y98.381 E0.06394
G1 F12000 X141.624 Y94.701 
G1 F12000 X143.657 Y93.212 
G1 F12000 X146.179 Y93.215 
G1 F12000 X148.211 Y94.707 
G1 F12000 X150.744 Y98.459 
G1 F12000 X160.173 Y98.696 
G1 F12000 X161.447 Y98.117 
G1 F12000 X161.890 Y96.810 
G1 F12000 X161.177 Y95.535 
G1 F12000 X160.282 Y94.700 
G1 F1980 X160.663 Y94.743 E0.04259
G1 F1980 X161.213 Y95.041 E0.04257
G1 F1980 X161.886 Y95.216 E0.04714
G1 F1980 X161.949 Y96.002 E0.07713
G1 F1980 X162.729 Y95.647 E0.12863
G1 F12000 X163.290 Y95.934 
G1 F1980 X162.204 Y97.020 E0.23053
G1 F12000 X163.852 Y96.221 
G1 F1980 X160.791 Y99.282 E0.64977
G1 F12000 X161.639 Y99.282 
G1 F1980 X164.413 Y96.508 E0.58885
G1 F12000 X164.975 Y96.795 
G1 F1980 X162.486 Y99.284 E0.52835
G1 F12000 X163.334 Y99.284 
G1 F1980 X165.536 Y97.082 E0.46743
G1 F12000 X166.097 Y97.370 
G1 F1980 X164.182 Y99.285 E0.40651
G1 F12000 X165.030 Y99.286 
G1 F1980 X166.659 Y97.657 E0.34580
G1 F12000 X167.221 Y97.943 
G1 F1980 X165.878 Y99.286 E0.28508
G1 F12000 X166.725 Y99.287 
G1 F1980 X167.783 Y98.230 E0.22448
G1 F12000 X168.344 Y98.517 
G1 F1980 X167.560 Y99.301 E0.16642
G1 F12000 X167.626 Y100.084 
G1 F1980 X168.515 Y99.195 E0.18871
G1 F12000 X168.514 Y100.044 
G1 F1980 X167.848 Y100.710 E0.14137
;LAYER:2 height:0.800
M106 S255
G1 F12000 X168.077 Y101.025 Z0.800 

;TYPE:WALL-INNER
G1 F3000 X167.976 Y101.017 E0.01394
G1 F3000 X167.777 Y100.954 E0.02872
G1 F3000 X167.606 Y100.829 E0.02914
G1 F3000 X167.481 Y100.657 E0.02926
G1 F3000 X167.440 Y100.558 E0.01474
G1 F3000 X167.417 Y100.458 E0.01412
G1 F3000 X167.339 Y99.528 E0.12841
G1 F3000 X150.673 Y99.512 E2.29312
G1 F3000 X150.347 Y99.492 E0.04494
G1 F3000 X150.027 Y99.431 E0.04482
G1 F3000 X149.729 Y99.338 E0.04295
G1 F3000 X149.471 Y99.220 E0.03904
G1 F3000 X148.533 Y98.581 E0.15616
G1 F3000 X148.618 Y98.350 E0.03387
G1 F3000 X148.948 Y98.352 E0.04541
G1 F3000 X149.042 Y97.110 E0.17138
G1 F3000 X149.015 Y96.596 E0.07082
G1 F3000 X148.922 Y96.081 E0.07201
G1 F3000 X148.768 Y95.583 E0.07172
G1 F3000 X148.551 Y95.110 E0.07160
G1 F3000 X148.273 Y94.663 E0.07243
G1 F3000 X147.944 Y94.259 E0.07169
G1 F3000 X147.566 Y93.900 E0.07173
G1 F3000 X147.145 Y93.590 E0.07194
G1 F3000 X146.688 Y93.336 E0.07194
G1 F3000 X146.203 Y93.143 E0.07182
G1 F3000 X145.699 Y93.010 E0.07172
G1 F3000 X145.178 Y92.944 E0.07226
G1 F3000 X144.659 Y92.944 E0.07141
G1 F3000 X144.138 Y93.009 E0.07224
G1 F3000 X143.634 Y93.141 E0.07169
G1 F3000 X143.147 Y93.334 E0.07208
G1 F3000 X142.692 Y93.586 E0.07157
G1 F3000 X142.272 Y93.894 E0.07166
G1 F3000 X141.891 Y94.254 E0.07212
G1 F3000 X141.562 Y94.657 E0.07158
G1 F3000 X141.284 Y95.103 E0.07231
G1 F3000 X141.064 Y95.577 E0.07190
G1 F3000 X140.910 Y96.074 E0.07159
G1 F3000 X140.816 Y96.589 E0.07203
G1 F3000 X140.789 Y97.106 E0.07123
G1 F3000 X140.881 Y98.337 E0.16985
G1 F3000 X141.208 Y98.339 E0.04499
G1 F3000 X141.299 Y98.585 E0.03609
G1 F3000 X140.713 Y98.994 E0.09833
G1 F3000 X140.625 Y99.039 E0.01360
G1 F3000 X140.569 Y99.045 E0.00775
G1 F3000 X140.522 Y99.036 E0.00658
G1 F3000 X140.468 Y99.005 E0.00857
G1 F3000 X140.432 Y98.965 E0.00740
G1 F3000 X140.275 Y98.545 E0.06169
G1 F3000 X140.134 Y98.007 E0.07652
G1 F3000 X140.074 Y97.602 E0.05633
G1 F3000 X140.042 Y97.045 E0.07677
G1 F3000 X140.078 Y96.364 E0.09383
G1 F3000 X140.025 Y95.915 E0.06221
G1 F3000 X139.783 Y95.371 E0.08192
G1 F3000 X139.468 Y95.012 E0.06571
G1 F3000 X139.197 Y94.817 E0.04594
G1 F3000 X138.898 Y94.667 E0.04603
G1 F3000 X138.505 Y94.571 E0.05566
G1 F3000 X112.356 Y91.689 E3.61969
G1 F3000 X112.089 Y91.683 E0.03675
G1 F3000 X111.782 Y91.725 E0.04263
G1 F3000 X111.492 Y91.819 E0.04195
G1 F3000 X111.215 Y91.961 E0.04283
G1 F3000 X110.974 Y92.145 E0.04172
G1 F3000 X110.766 Y92.362 E0.04136
G1 F3000 X110.593 Y92.621 E0.04286
G1 F3000 X110.466 Y92.904 E0.04268
G1 F3000 X110.392 Y93.199 E0.04185
G1 F3000 X110.365 Y93.502 E0.04186
G1 F3000 X110.390 Y93.817 E0.04348
G1 F3000 X110.639 Y94.699 E0.12610
G1 F3000 X110.745 Y95.295 E0.08329
G1 F3000 X110.789 Y95.911 E0.08497
G1 F3000 X110.767 Y96.537 E0.08619
G1 F3000 X110.693 Y97.075 E0.07472
G1 F3000 X110.535 Y97.737 E0.09364
G1 F3000 X110.350 Y98.245 E0.07439
G1 F3000 X110.059 Y98.864 E0.09411
G1 F3000 X109.757 Y99.347 E0.07838
G1 F3000 X109.731 Y99.384 E0.00622
G1 F3000 X109.670 Y99.439 E0.01130
G1 F3000 X109.605 Y99.460 E0.00940
G1 F3000 X109.542 Y99.451 E0.00876
G1 F3000 X109.487 Y99.428 E0.00820
G1 F3000 X108.926 Y98.871 E0.10877
G1 F3000 X109.337 Y98.194 E0.10897
G1 F3000 X109.526 Y97.762 E0.06488
G1 F3000 X109.623 Y97.454 E0.04443
G1 F3000 X109.933 Y97.454 E0.04265
G1 F3000 X110.041 Y96.132 E0.18250
G1 F3000 X110.019 Y95.529 E0.08302
G1 F3000 X109.924 Y94.929 E0.08358
G1 F3000 X109.759 Y94.340 E0.08416
G1 F3000 X109.525 Y93.780 E0.08351
G1 F3000 X109.227 Y93.249 E0.08378
G1 F3000 X108.868 Y92.761 E0.08336
G1 F3000 X108.452 Y92.313 E0.08412
G1 F3000 X107.989 Y91.922 E0.08338
G1 F3000 X107.478 Y91.585 E0.08422
G1 F3000 X106.936 Y91.314 E0.08338
G1 F3000 X106.362 Y91.107 E0.08396
G1 F3000 X105.770 Y90.970 E0.08361
G1 F3000 X105.163 Y90.904 E0.08401
G1 F3000 X104.558 Y90.912 E0.08325
G1 F3000 X103.951 Y90.989 E0.08419
G1 F3000 X103.362 Y91.140 E0.08366
G1 F3000 X102.793 Y91.359 E0.08389
G1 F3000 X102.254 Y91.644 E0.08389
G1 F3000 X101.755 Y91.989 E0.08347
G1 F3000 X101.298 Y92.393 E0.08393
G1 F3000 X100.892 Y92.848 E0.08390
G1 F3000 X100.547 Y93.346 E0.08336
G1 F3000 X100.259 Y93.884 E0.08396
G1 F3000 X100.039 Y94.452 E0.08381
G1 F3000 X99.886 Y95.038 E0.08333
G1 F3000 X99.805 Y95.637 E0.08317
G1 F3000 X99.797 Y96.098 E0.06344
G1 F3000 X99.076 Y98.776 E0.38159
G1 F3000 X98.335 Y98.575 E0.10564
G1 F3000 X98.261 Y98.537 E0.01145
G1 F3000 X98.219 Y98.474 E0.01042
G1 F3000 X98.203 Y98.422 E0.00749
G1 F3000 X98.218 Y98.308 E0.01582
G1 F3000 X99.402 Y94.008 E0.61367
G1 F3000 X99.639 Y93.445 E0.08405
G1 F3000 X100.055 Y92.675 E0.12042
G1 F3000 X100.148 Y92.376 E0.04308
G1 F3000 X100.188 Y92.071 E0.04233
G1 F3000 X100.178 Y91.769 E0.04158
G1 F3000 X100.115 Y91.462 E0.04312
G1 F3000 X100.004 Y91.178 E0.04195
G1 F3000 X99.850 Y90.920 E0.04134
G1 F3000 X99.648 Y90.681 E0.04306
G1 F3000 X99.410 Y90.486 E0.04233
G1 F3000 X99.152 Y90.334 E0.04120
G1 F3000 X98.871 Y90.228 E0.04132
G1 F3000 X98.600 Y90.172 E0.03808
G1 F3000 X57.545 Y85.648 E5.68305
G1 F3000 X57.216 Y85.589 E0.04599
G1 F3000 X56.910 Y85.498 E0.04393
G1 F3000 X56.628 Y85.374 E0.04239
G1 F3000 X56.358 Y85.213 E0.04325
G1 F3000 X56.105 Y85.017 E0.04403
G1 F3000 X55.886 Y84.801 E0.04232
G1 F3000 X55.694 Y84.557 E0.04272
G1 F3000 X55.528 Y84.285 E0.04384
G1 F3000 X55.401 Y84.005 E0.04230
G1 F3000 X55.307 Y83.702 E0.04365
G1 F3000 X55.250 Y83.394 E0.04310
G1 F3000 X55.230 Y83.066 E0.04521
G1 F3000 X55.237 Y74.921 E1.12069
G1 F3000 X55.180 Y74.500 E0.05845
G1 F3000 X55.013 Y74.096 E0.06015
G1 F3000 X54.809 Y73.801 E0.04935
G1 F3000 X54.593 Y73.581 E0.04242
G1 F3000 X54.314 Y73.383 E0.04707
G1 F3000 X53.909 Y73.215 E0.06033
G1 F3000 X53.574 Y73.156 E0.04680
G1 F3000 X44.716 Y73.143 E1.21880
G1 F3000 X44.207 Y73.114 E0.07015
G1 F3000 X43.804 Y73.044 E0.05628
G1 F3000 X43.344 Y72.916 E0.06570
G1 F3000 X42.841 Y72.711 E0.07474
G1 F3000 X42.489 Y72.512 E0.05564
G1 F3000 X42.097 Y72.236 E0.06596
G1 F3000 X41.697 Y71.878 E0.07386
G1 F3000 X41.681 Y71.860 E0.00331
G1 F3000 X61.553 Y62.087 E3.04701
G1 F3000 X61.852 Y61.961 E0.04464
G1 F3000 X62.132 Y61.878 E0.04018
G1 F3000 X62.400 Y61.832 E0.03741
G1 F3000 X66.979 Y61.814 E0.63004
G1 F3000 X67.402 Y61.758 E0.05871
G1 F3000 X67.807 Y61.590 E0.06033
G1 F3000 X68.101 Y61.387 E0.04916
G1 F3000 X68.337 Y61.156 E0.04544
G1 F3000 X68.576 Y60.779 E0.06142
G1 F3000 X68.692 Y60.463 E0.04632
G1 F3000 X68.747 Y60.151 E0.04359
G1 F3000 X68.759 Y51.567 E1.18109
G1 F3000 X68.782 Y51.216 E0.04840
G1 F3000 X68.847 Y50.887 E0.04614
G1 F3000 X68.946 Y50.586 E0.04360
G1 F3000 X69.091 Y50.284 E0.04609
G1 F3000 X69.277 Y49.998 E0.04694
G1 F3000 X69.353 Y49.902 E0.01685
G1 F3000 X69.709 Y49.552 E0.06869
G1 F3000 X70.130 Y49.271 E0.06964
G1 F3000 X70.422 Y49.139 E0.04409
G1 F3000 X70.904 Y49.009 E0.06869
G1 F3000 X71.249 Y48.972 E0.04774
G1 F3000 X71.382 Y48.971 E0.01830
G1 F3000 X71.729 Y49.002 E0.04793
G1 F3000 X72.049 Y49.073 E0.04510
G1 F3000 X72.354 Y49.183 E0.04461
G1 F3000 X168.758 Y98.460 E14.89686
G1 F3000 X168.756 Y100.326 E0.25675
G1 F3000 X168.745 Y100.459 E0.01836
G1 F3000 X168.723 Y100.553 E0.01328
G1 F3000 X168.669 Y100.678 E0.01874
G1 F3000 X168.626 Y100.748 E0.01130
G1 F3000 X168.563 Y100.822 E0.01337
G1 F3000 X168.393 Y100.948 E0.02912
G1 F3000 X168.272 Y100.996 E0.01791
G1 F3000 X168.186 Y101.017 E0.01218
G1 F3000 X168.077 Y101.025 E0.01504
G1 F12000 X167.221 Y99.655 
G1 F12000 X161.730 Y97.861 
G1 F3000 X161.923 Y97.388 E0.07029
G1 F3000 X161.969 Y97.010 E0.05239
G1 F3000 X161.959 Y96.727 E0.03896
G1 F3000 X161.884 Y96.396 E0.04670
G1 F3000 X161.782 Y96.140 E0.03792
G1 F3000 X161.643 Y95.902 E0.03792
G1 F3000 X161.408 Y95.623 E0.05019
G1 F3000 X161.031 Y95.352 E0.06388
G1 F3000 X125.556 Y77.216 E5.48197
G1 F3000 X102.083 Y67.700 E3.48502
G1 F3000 X102.083 Y67.642 E0.00798
G1 F3000 X101.005 Y67.316 E0.15496
G1 F3000 X100.645 Y67.241 E0.05060
G1 F3000 X100.172 Y67.206 E0.06526
G1 F3000 X99.693 Y67.228 E0.06598
G1 F3000 X99.125 Y67.341 E0.07968
G1 F3000 X98.676 Y67.490 E0.06509
G1 F3000 X98.247 Y67.699 E0.06566
G1 F3000 X97.838 Y67.964 E0.06706
G1 F3000 X97.248 Y68.497 E0.10940
G1 F3000 X96.886 Y68.991 E0.08427
G1 F3000 X90.728 Y80.996 E1.85643
G1 F3000 X90.541 Y81.429 E0.06490
G1 F3000 X90.407 Y81.899 E0.06725
G1 F3000 X90.334 Y82.386 E0.06776
G1 F3000 X90.323 Y82.880 E0.06799
G1 F3000 X90.377 Y83.370 E0.06783
G1 F3000 X90.493 Y83.847 E0.06754
G1 F3000 X90.667 Y84.304 E0.06728
G1 F3000 X90.905 Y84.749 E0.06944
G1 F3000 X91.269 Y85.229 E0.08289
G1 F3000 X91.611 Y85.572 E0.06665
G1 F3000 X91.912 Y85.822 E0.05384
G1 F3000 X92.419 Y86.122 E0.08106
G1 F3000 X92.769 Y86.284 E0.05307
G1 F3000 X93.262 Y86.438 E0.07107
G1 F3000 X145.422 Y92.214 E7.22069
G1 F3000 X146.008 Y92.312 E0.08175
G1 F3000 X146.518 Y92.459 E0.07303
G1 F3000 X147.016 Y92.665 E0.07415
G1 F3000 X147.499 Y92.930 E0.07580
G1 F3000 X147.935 Y93.237 E0.07337
G1 F3000 X148.331 Y93.586 E0.07263
G1 F3000 X148.700 Y93.991 E0.07539
G1 F3000 X149.015 Y94.427 E0.07401
G1 F3000 X149.279 Y94.893 E0.07369
G1 F3000 X149.493 Y95.388 E0.07420
G1 F3000 X149.648 Y95.904 E0.07413
G1 F3000 X149.749 Y96.441 E0.07518
G1 F3000 X149.817 Y97.280 E0.11582
G1 F3000 X149.904 Y97.587 E0.04390
G1 F3000 X150.044 Y97.873 E0.04381
G1 F3000 X150.225 Y98.128 E0.04303
G1 F3000 X150.452 Y98.351 E0.04378
G1 F3000 X150.709 Y98.527 E0.04286
G1 F3000 X150.925 Y98.626 E0.03269
