; generated by Slic3r 1.1.5 on 2014-07-07 at 12:11:28

; perimeters extrusion width = 0.80mm
; infill extrusion width = 0.80mm
; solid infill extrusion width = 0.80mm
; top infill extrusion width = 0.50mm

G21 ; set units to millimeters
M104 S200 T1 ; set temperature

M109 S200 T1 ; wait for temperature to be reached
G90 ; use absolute coordinates
M83 ; use relative distances for extrusion
T1 ; change extruder
M106 S153 ; enable fan
G1 Z0.200 F12000.000 ; move to next layer (0)
G1 F1200.000 E-0.05000 ; retract
G1 X17.407 Y49.049 F12000.000 ; move to first skirt point
G1 E0.85000 F1200.000 ; compensate retraction
G1 X51.107 Y22.661 E6.46235 F1080.000 ; skirt
G1 X52.806 Y21.833 E0.28532 ; skirt
G1 X53.890 Y21.701 E0.16492 ; skirt
G1 X102.613 Y21.713 E7.35626 ; skirt
G1 X161.082 Y25.909 E8.85050 ; skirt
G1 X162.941 Y26.460 E0.29273 ; skirt
G1 X180.533 Y36.174 E3.03418 ; skirt
G1 X181.960 Y37.414 E0.28532 ; skirt
G1 X182.754 Y39.129 E0.28532 ; skirt
G1 X182.865 Y40.130 E0.15206 ; skirt
G1 X182.857 Y50.730 E1.60041 ; skirt
G1 X182.476 Y52.539 E0.27913 ; skirt
G1 X156.751 Y111.201 E9.67112 ; skirt
G1 X155.646 Y112.734 E0.28532 ; skirt
G1 X153.249 Y113.858 E0.39974 ; skirt
G1 X81.851 Y123.911 E10.88607 ; skirt
G1 X46.351 Y123.972 E5.35986 ; skirt
G1 X44.502 Y123.580 E0.28532 ; skirt
G1 X42.976 Y122.465 E0.28532 ; skirt
G1 X42.250 Y121.361 E0.19954 ; skirt
G1 X16.096 Y65.106 E9.36653 ; skirt
G1 X15.675 Y63.203 E0.29428 ; skirt
G1 X15.676 Y52.603 E1.60041 ; skirt
G1 X16.071 Y50.755 E0.28532 ; skirt
G1 X17.333 Y49.143 E0.30902 ; skirt
G1 X17.873 Y49.645 F12000.000 ; move to first skirt point
G1 X51.573 Y23.257 E6.46235 F1080.000 ; skirt
G1 X53.890 Y22.458 E0.36995 ; skirt
G1 X102.558 Y22.468 E7.34808 ; skirt
G1 X161.028 Y26.664 E8.85050 ; skirt
G1 X162.575 Y27.123 E0.24364 ; skirt
G1 X180.167 Y36.837 E3.03418 ; skirt
G1 X181.444 Y37.993 E0.26001 ; skirt
G1 X182.108 Y40.129 E0.33777 ; skirt
G1 X182.099 Y50.729 E1.60041 ; skirt
G1 X181.783 Y52.235 E0.23232 ; skirt
G1 X156.057 Y110.897 E9.67112 ; skirt
G1 X155.023 Y112.274 E0.26001 ; skirt
G1 X153.143 Y113.108 E0.31055 ; skirt
G1 X81.850 Y123.154 E10.87026 ; skirt
G1 X46.350 Y123.215 E5.35986 ; skirt
G1 X44.673 Y122.823 E0.26001 ; skirt
G1 X42.936 Y121.042 E0.37559 ; skirt
G1 X16.783 Y64.787 E9.36653 ; skirt
G1 X16.432 Y63.203 E0.24492 ; skirt
G1 X16.433 Y52.603 E1.60041 ; skirt
G1 X16.827 Y50.927 E0.26001 ; skirt
G1 X17.798 Y49.738 E0.23168 ; skirt
G1 F1200.000 E-0.05000 ; retract
G1 X59.809 Y105.635 F12000.000 ; move to first perimeter point
G1 E0.85000 F1200.000 ; compensate retraction
G1 X80.619 Y105.599 E3.32006 F1080.000 ; perimeter
G1 X80.641 Y118.199 E2.01022 ; perimeter
G1 X59.831 Y118.235 E3.32006 ; perimeter
G1 X59.810 Y105.755 E1.99108 ; perimeter
G1 X59.010 Y106.036 F12000.000 ; move to first perimeter point
G1 X46.720 Y106.057 E1.96076 F1080.000 ; perimeter
G1 X46.718 Y104.857 E0.19145 ; perimeter
G1 X81.418 Y104.797 E5.53608 ; perimeter
G1 X81.443 Y118.997 E2.26549 ; perimeter
G1 X46.743 Y119.057 E5.53608 ; perimeter
G1 X46.740 Y117.857 E0.19145 ; perimeter
G1 X59.030 Y117.836 E1.96076 ; perimeter
G1 X59.010 Y106.156 E1.86344 ; perimeter
G1 X59.009 Y105.236 F12000.000 ; move inwards before travel
G1 X60.390 Y117.634 F12000.000 ; move to first fill point
G1 X60.430 Y117.674 E0.00903 F1080.000 ; fill
G1 X61.580 Y117.672 E0.18348 ; fill
G1 X60.388 Y116.480 E0.26895 ; fill
G1 X60.386 Y115.326 E0.18411 ; fill
G1 X62.730 Y117.670 E0.52887 ; fill
G1 X63.880 Y117.668 E0.18348 ; fill
G1 X60.384 Y114.172 E0.78880 ; fill
G1 X60.382 Y113.018 E0.18411 ; fill
G1 X65.030 Y117.666 E1.04872 ; fill
G1 X66.180 Y117.664 E0.18348 ; fill
G1 X60.380 Y111.864 E1.30864 ; fill
G1 X60.378 Y110.710 E0.18411 ; fill
G1 X67.330 Y117.662 E1.56857 ; fill
G1 X68.480 Y117.660 E0.18348 ; fill
G1 X60.376 Y109.556 E1.82849 ; fill
G1 X60.374 Y108.402 E0.18411 ; fill
G1 X69.630 Y117.658 E2.08842 ; fill
G1 X70.780 Y117.656 E0.18348 ; fill
G1 X60.372 Y107.248 E2.34834 ; fill
G1 X60.470 Y106.194 E0.16889 ; fill
G1 X71.930 Y117.654 E2.58572 ; fill
G1 X73.080 Y117.652 E0.18348 ; fill
G1 X61.620 Y106.192 E2.58572 ; fill
G1 X62.770 Y106.190 E0.18348 ; fill
G1 X74.230 Y117.650 E2.58572 ; fill
G1 X75.380 Y117.648 E0.18348 ; fill
G1 X63.920 Y106.188 E2.58572 ; fill
G1 X65.070 Y106.186 E0.18348 ; fill
G1 X76.530 Y117.646 E2.58572 ; fill
G1 X77.680 Y117.644 E0.18348 ; fill
G1 X66.220 Y106.184 E2.58572 ; fill
G1 X67.370 Y106.182 E0.18348 ; fill
G1 X78.830 Y117.642 E2.58572 ; fill
G1 X79.980 Y117.640 E0.18348 ; fill
G1 X68.520 Y106.180 E2.58572 ; fill
G1 X69.670 Y106.178 E0.18348 ; fill
G1 X80.078 Y116.586 E2.34834 ; fill
G1 X80.076 Y115.432 E0.18411 ; fill
G1 X70.820 Y106.176 E2.08842 ; fill
G1 X71.970 Y106.174 E0.18348 ; fill
G1 X80.074 Y114.278 E1.82849 ; fill
G1 X80.072 Y113.124 E0.18411 ; fill
G1 X73.120 Y106.172 E1.56857 ; fill
G1 X74.270 Y106.170 E0.18348 ; fill
G1 X80.070 Y111.970 E1.30865 ; fill
G1 X80.068 Y110.816 E0.18411 ; fill
G1 X75.420 Y106.168 E1.04872 ; fill
G1 X76.570 Y106.166 E0.18348 ; fill
G1 X80.066 Y109.662 E0.78880 ; fill
G1 X80.064 Y108.508 E0.18411 ; fill
G1 X77.720 Y106.164 E0.52887 ; fill
G1 X78.870 Y106.162 E0.18348 ; fill
G1 X80.062 Y107.354 E0.26895 ; fill
G1 X80.060 Y106.200 E0.18411 ; fill
G1 X80.020 Y106.160 E0.00903 ; fill
G1 X48.570 Y105.454 F12000.000 ; move to first fill point
G1 X47.119 Y105.457 E0.14061 F1080.000 ; fill
G1 X57.705 Y105.438 F12000.000 ; move to first fill point
G1 X59.409 Y105.435 E0.16514 F1080.000 ; fill
G1 F1200.000 E-0.05000 ; retract
G1 X50.644 Y118.451 F12000.000 ; move to first fill point
G1 E0.85000 F1200.000 ; compensate retraction
G1 X47.142 Y118.457 E0.33936 F1080.000 ; fill
G1 F1200.000 E-0.05000 ; retract
G1 X59.214 Y98.974 F12000.000 ; move to first perimeter point
G1 E0.85000 F1200.000 ; compensate retraction
G1 X59.192 Y86.374 E2.01022 F1080.000 ; perimeter
G1 X80.002 Y86.338 E3.32005 ; perimeter
G1 X80.024 Y98.938 E2.01022 ; perimeter
G1 X59.334 Y98.974 E3.30091 ; perimeter
G1 X58.414 Y98.575 F12000.000 ; move to first perimeter point
G1 X58.393 Y86.775 E1.88259 F1080.000 ; perimeter
G1 X46.103 Y86.797 E1.96076 ; perimeter
G1 X46.101 Y85.597 E0.19145 ; perimeter
G1 X80.801 Y85.537 E5.53608 ; perimeter
G1 X80.826 Y99.737 E2.26549 ; perimeter
G1 X46.126 Y99.797 E5.53608 ; perimeter
G1 X46.124 Y98.597 E0.19145 ; perimeter
G1 X58.294 Y98.575 E1.94162 ; perimeter
G1 X59.214 Y98.574 F12000.000 ; move inwards before travel
G1 X59.773 Y98.373 F12000.000 ; move to first fill point
G1 X59.813 Y98.413 E0.00903 F1080.000 ; fill
G1 X60.963 Y98.411 E0.18348 ; fill
G1 X59.771 Y97.219 E0.26895 ; fill
G1 X59.769 Y96.065 E0.18411 ; fill
G1 X62.113 Y98.409 E0.52887 ; fill
G1 X63.263 Y98.407 E0.18348 ; fill
G1 X59.767 Y94.911 E0.78880 ; fill
G1 X59.765 Y93.757 E0.18411 ; fill
G1 X64.413 Y98.405 E1.04872 ; fill
G1 X65.563 Y98.403 E0.18348 ; fill
G1 X59.763 Y92.603 E1.30865 ; fill
G1 X59.761 Y91.449 E0.18411 ; fill
G1 X66.713 Y98.401 E1.56857 ; fill
G1 X67.863 Y98.399 E0.18348 ; fill
G1 X59.759 Y90.295 E1.82849 ; fill
G1 X59.757 Y89.141 E0.18411 ; fill
G1 X69.013 Y98.397 E2.08842 ; fill
G1 X70.163 Y98.395 E0.18348 ; fill
G1 X59.755 Y87.987 E2.34834 ; fill
G1 X59.853 Y86.933 E0.16889 ; fill
G1 X71.313 Y98.393 E2.58572 ; fill
G1 X72.463 Y98.391 E0.18348 ; fill
G1 X61.003 Y86.931 E2.58572 ; fill
G1 X62.153 Y86.929 E0.18348 ; fill
G1 X73.613 Y98.389 E2.58572 ; fill
G1 X74.763 Y98.387 E0.18348 ; fill
G1 X63.303 Y86.927 E2.58572 ; fill
G1 X64.453 Y86.925 E0.18348 ; fill
G1 X75.913 Y98.385 E2.58572 ; fill
G1 X77.063 Y98.383 E0.18348 ; fill
G1 X65.603 Y86.923 E2.58572 ; fill
G1 X66.753 Y86.921 E0.18348 ; fill
G1 X78.214 Y98.381 E2.58572 ; fill
G1 X79.364 Y98.379 E0.18348 ; fill
G1 X67.903 Y86.919 E2.58572 ; fill
G1 X69.053 Y86.917 E0.18348 ; fill
G1 X79.461 Y97.325 E2.34834 ; fill
G1 X79.459 Y96.171 E0.18411 ; fill
G1 X70.203 Y86.915 E2.08842 ; fill
G1 X71.353 Y86.913 E0.18348 ; fill
G1 X79.457 Y95.017 E1.82849 ; fill
G1 X79.455 Y93.863 E0.18411 ; fill
G1 X72.503 Y86.911 E1.56857 ; fill
G1 X73.653 Y86.909 E0.18348 ; fill
G1 X79.453 Y92.709 E1.30865 ; fill
G1 X79.451 Y91.555 E0.18411 ; fill
G1 X74.803 Y86.907 E1.04872 ; fill
G1 X75.953 Y86.905 E0.18348 ; fill
G1 X79.449 Y90.401 E0.78880 ; fill
G1 X79.447 Y89.247 E0.18411 ; fill
G1 X77.103 Y86.903 E0.52887 ; fill
G1 X78.253 Y86.901 E0.18348 ; fill
G1 X79.445 Y88.093 E0.26895 ; fill
G1 X79.443 Y86.939 E0.18411 ; fill
G1 X79.403 Y86.899 E0.00903 ; fill
G1 X53.188 Y86.184 F12000.000 ; move to first fill point
G1 X49.212 Y86.191 E0.38525 F1080.000 ; fill
G1 F1200.000 E-0.05000 ; retract
G1 X46.525 Y99.196 F12000.000 ; move to first fill point
G1 E0.85000 F1200.000 ; compensate retraction
G1 X58.179 Y99.176 E1.12922 F1080.000 ; fill
G1 F1200.000 E-0.05000 ; retract
G1 X104.572 Y68.058 F12000.000 ; move to first perimeter point
G1 E0.85000 F1200.000 ; compensate retraction
G1 X93.079 Y68.049 E1.83358 F1080.000 ; perimeter
G1 X93.086 Y59.849 E1.30824 ; perimeter
G1 X104.579 Y59.858 E1.83358 ; perimeter
G1 X110.187 Y50.163 E1.78696 ; perimeter
G1 X111.457 Y50.164 E0.20264 ; perimeter
G1 X106.187 Y59.276 E1.67942 ; perimeter
G1 X106.183 Y63.757 E0.71501 ; perimeter
G1 X106.179 Y68.643 E0.77948 ; perimeter
G1 X111.435 Y77.764 E1.67942 ; perimeter
G1 X110.165 Y77.763 E0.20264 ; perimeter
G1 X104.632 Y68.162 E1.76781 ; perimeter
G1 X104.110 Y68.858 F12000.000 ; move to first perimeter point
G1 X92.279 Y68.848 E1.88752 F1080.000 ; perimeter
G1 X92.287 Y59.048 E1.56351 ; perimeter
G1 X104.118 Y59.058 E1.88752 ; perimeter
G1 X109.726 Y49.362 E1.78696 ; perimeter
G1 X157.495 Y49.401 E7.62109 ; perimeter
G1 X157.493 Y51.601 E0.35099 ; perimeter
G1 X111.572 Y51.564 E7.32634 ; perimeter
G1 X106.986 Y59.491 E1.46100 ; perimeter
G1 X106.979 Y68.429 E1.42609 ; perimeter
G1 X111.551 Y76.364 E1.46100 ; perimeter
G1 X157.473 Y76.401 E7.32634 ; perimeter
G1 X157.471 Y78.601 E0.35099 ; perimeter
G1 X109.702 Y78.562 E7.62109 ; perimeter
G1 X104.170 Y68.962 E1.76781 ; perimeter
G1 X103.971 Y68.070 F12000.000 ; move inwards before travel
G1 X105.578 Y59.627 F12000.000 ; move to first fill point
G1 X105.626 Y59.675 E0.01090 F1080.000 ; fill
G1 X105.014 Y60.225 E0.13132 ; fill
G1 X105.625 Y60.836 E0.13798 ; fill
G1 X105.624 Y61.998 E0.18530 ; fill
G1 X104.044 Y60.418 E0.35651 ; fill
G1 X102.881 Y60.417 E0.18560 ; fill
G1 X105.623 Y63.159 E0.61877 ; fill
G1 X105.623 Y64.321 E0.18530 ; fill
G1 X101.718 Y60.416 E0.88104 ; fill
G1 X100.554 Y60.415 E0.18560 ; fill
G1 X105.622 Y65.482 E1.14331 ; fill
G1 X105.621 Y66.644 E0.18530 ; fill
G1 X99.391 Y60.414 E1.40558 ; fill
G1 X98.228 Y60.413 E0.18560 ; fill
G1 X105.620 Y67.805 E1.66784 ; fill
G1 X104.150 Y67.498 E0.23953 ; fill
G1 X97.064 Y60.412 E1.59874 ; fill
G1 X95.901 Y60.411 E0.18560 ; fill
G1 X102.987 Y67.497 E1.59874 ; fill
G1 X101.823 Y67.496 E0.18560 ; fill
G1 X94.738 Y60.410 E1.59874 ; fill
G1 X93.646 Y60.481 E0.17457 ; fill
G1 X100.660 Y67.495 E1.58263 ; fill
G1 X99.497 Y67.494 E0.18560 ; fill
G1 X93.645 Y61.642 E1.32036 ; fill
G1 X93.644 Y62.803 E0.18530 ; fill
G1 X98.333 Y67.493 E1.05810 ; fill
G1 X97.170 Y67.492 E0.18560 ; fill
G1 X93.643 Y63.965 E0.79583 ; fill
G1 X93.642 Y65.126 E0.18530 ; fill
G1 X96.007 Y67.491 E0.53356 ; fill
G1 X94.843 Y67.490 E0.18560 ; fill
G1 X93.641 Y66.288 E0.27129 ; fill
G1 X93.640 Y67.449 E0.18530 ; fill
G1 X93.680 Y67.489 E0.00902 ; fill
G1 F1200.000 E-0.05000 ; retract
G1 X111.341 Y51.164 F12000.000 ; move to first fill point
G1 E0.85000 F1200.000 ; compensate retraction
G1 X112.554 Y50.465 E0.32305 F1080.000 ; fill
G1 X155.262 Y50.499 E9.85498 ; fill
G1 F1200.000 E-0.05000 ; retract
G1 X157.072 Y77.501 F12000.000 ; move to first fill point
G1 E0.85000 F1200.000 ; compensate retraction
G1 X111.724 Y77.464 E10.46417 F1080.000 ; fill
G1 F1200.000 E-0.05000 ; retract
G1 X158.772 Y59.210 F12000.000 ; move to first perimeter point
G1 E0.85000 F1200.000 ; compensate retraction
G1 X164.043 Y50.098 E1.67942 F1080.000 ; perimeter
G1 X164.047 Y45.617 E0.71501 ; perimeter
G1 X164.051 Y40.731 E0.77948 ; perimeter
G1 X158.795 Y31.610 E1.67942 ; perimeter
G1 X160.065 Y31.611 E0.20264 ; perimeter
G1 X165.657 Y41.316 E1.78696 ; perimeter
G1 X177.150 Y41.325 E1.83358 ; perimeter
G1 X177.143 Y49.525 E1.30824 ; perimeter
G1 X165.651 Y49.516 E1.83358 ; perimeter
G1 X160.042 Y59.211 E1.78696 ; perimeter
G1 X158.892 Y59.210 E0.18350 ; perimeter
G1 X158.658 Y57.810 F12000.000 ; move to first perimeter point
G1 X163.243 Y49.883 E1.46100 F1080.000 ; perimeter
G1 X163.247 Y45.616 E0.68081 ; perimeter
G1 X163.250 Y40.945 E0.74528 ; perimeter
G1 X158.678 Y33.010 E1.46100 ; perimeter
G1 X112.757 Y32.973 E7.32634 ; perimeter
G1 X112.759 Y30.773 E0.35099 ; perimeter
G1 X160.527 Y30.812 E7.62109 ; perimeter
G1 X166.120 Y40.516 E1.78696 ; perimeter
G1 X177.951 Y40.526 E1.88752 ; perimeter
G1 X177.943 Y50.326 E1.56351 ; perimeter
G1 X166.112 Y50.316 E1.88752 ; perimeter
G1 X160.504 Y60.012 E1.78696 ; perimeter
G1 X112.735 Y59.973 E7.62109 ; perimeter
G1 X112.737 Y57.773 E0.35099 ; perimeter
G1 X158.538 Y57.810 E7.30719 ; perimeter
G1 X159.409 Y58.084 F12000.000 ; move inwards before travel
G1 X158.888 Y58.210 F12000.000 ; move to first fill point
G1 X157.675 Y58.909 E0.32305 F1080.000 ; fill
G1 X114.967 Y58.874 E9.85498 ; fill
G1 F1200.000 E-0.05000 ; retract
G1 X164.603 Y49.699 F12000.000 ; move to first fill point
G1 E0.85000 F1200.000 ; compensate retraction
G1 X164.652 Y49.747 E0.01090 F1080.000 ; fill
G1 X165.216 Y49.149 E0.13119 ; fill
G1 X164.604 Y48.538 E0.13798 ; fill
G1 X164.605 Y47.376 E0.18530 ; fill
G1 X166.185 Y48.956 E0.35651 ; fill
G1 X167.349 Y48.957 E0.18560 ; fill
G1 X164.606 Y46.215 E0.61878 ; fill
G1 X164.607 Y45.053 E0.18530 ; fill
G1 X168.512 Y48.958 E0.88105 ; fill
G1 X169.675 Y48.959 E0.18560 ; fill
G1 X164.608 Y43.892 E1.14331 ; fill
G1 X164.609 Y42.730 E0.18530 ; fill
G1 X170.839 Y48.960 E1.40558 ; fill
G1 X172.002 Y48.961 E0.18560 ; fill
G1 X164.610 Y41.569 E1.66785 ; fill
G1 X166.079 Y41.876 E0.23953 ; fill
G1 X173.165 Y48.962 E1.59874 ; fill
G1 X174.329 Y48.963 E0.18560 ; fill
G1 X167.243 Y41.877 E1.59874 ; fill
G1 X168.406 Y41.878 E0.18560 ; fill
G1 X175.492 Y48.964 E1.59874 ; fill
G1 X176.584 Y48.893 E0.17457 ; fill
G1 X169.569 Y41.879 E1.58263 ; fill
G1 X170.733 Y41.880 E0.18560 ; fill
G1 X176.585 Y47.732 E1.32036 ; fill
G1 X176.586 Y46.571 E0.18530 ; fill
G1 X171.896 Y41.881 E1.05810 ; fill
G1 X173.060 Y41.882 E0.18560 ; fill
G1 X176.587 Y45.409 E0.79583 ; fill
G1 X176.588 Y44.248 E0.18530 ; fill
G1 X174.223 Y41.883 E0.53356 ; fill
G1 X175.386 Y41.884 E0.18560 ; fill
G1 X176.589 Y43.086 E0.27129 ; fill
G1 X176.590 Y41.925 E0.18530 ; fill
G1 X176.550 Y41.885 E0.00903 ; fill
G1 F1200.000 E-0.05000 ; retract
G1 X158.506 Y31.910 F12000.000 ; move to first fill point
G1 E0.85000 F1200.000 ; compensate retraction
G1 X113.158 Y31.873 E10.46417 F1080.000 ; fill
G1 F1200.000 E-0.05000 ; retract
G1 X118.689 Y45.316 F12000.000 ; move to first perimeter point
G1 E0.85000 F1200.000 ; compensate retraction
G1 X107.197 Y45.316 E1.83358 F1080.000 ; perimeter
G1 X101.596 Y55.016 E1.78696 ; perimeter
G1 X91.589 Y55.015 E1.59651 ; perimeter
G1 X91.590 Y31.912 E3.68589 ; perimeter
G1 X91.590 Y27.415 E0.71745 ; perimeter
G1 X101.597 Y27.416 E1.59651 ; perimeter
G1 X107.197 Y37.116 E1.78696 ; perimeter
G1 X118.690 Y37.116 E1.83358 ; perimeter
G1 X118.689 Y45.196 E1.28909 ; perimeter
G1 F1200.000 E-0.05000 ; retract
G1 X90.789 Y53.615 F12000.000 ; move to first perimeter point
G1 E0.85000 F1200.000 ; compensate retraction
G1 X90.790 Y28.815 E3.95663 F1080.000 ; perimeter
G1 X54.290 Y28.815 E5.82326 ; perimeter
G1 X54.290 Y26.615 E0.35099 ; perimeter
G1 X102.058 Y26.616 E7.62109 ; perimeter
G1 X107.659 Y36.316 E1.78696 ; perimeter
G1 X119.490 Y36.316 E1.88752 ; perimeter
G1 X119.489 Y46.116 E1.56351 ; perimeter
G1 X107.658 Y46.116 E1.88752 ; perimeter
G1 X102.058 Y55.816 E1.78696 ; perimeter
G1 X54.289 Y55.815 E7.62109 ; perimeter
G1 X54.289 Y53.615 E0.35099 ; perimeter
G1 X90.669 Y53.615 E5.80411 ; perimeter
G1 X91.589 Y53.615 F12000.000 ; move inwards before travel
