; File post-processed by roboxiser
;
; Pre print gcode
G90 			;Absolute positioning
G0 B0			;Close Nozzle
G91				;Use X, Y relative Mode
G0 Z5			;Move up 5mm
G90 			;Absolute positioning
G28 X Y			;Home X, then Y
M109			;Wait for Nozzle to get to temp.
T0				;Select Nozzle 0 (T0)
G0 X30 Y75		;Level Gantry Position 1
G28 Z			;Home Z
G0 Z5 			;Move up 5mm
G0 X190 Y75		;Level Gantry Position 2
G28 Z			;Home Z
G0 Z5 			;Move up 5mm
G38 			;Level gantry
G0 X113 Y20		;Bed levelling Y Position 1
G28 Z			;Home Z
G0 Z5 			;Move up 5mm
G0 X113 Y130	;Bed levelling Y Position 2
G28 Z			;Home Z
G0 Z5 			;Move up 5mm
G39 			;level bed
M109			;Wait for Nozzle to get to temp.
M190

G36 E1000 F1200
;G1 E1 F100
M129			;Head LED on
; End of Pre print gcode
M139 ; take 1st layer bed temperature from reel
M190 ; wait for bed temperature to be reached
M103 ; take 1st layer nozzle temperature from loaded reel
M109 ; wait for nozzle temperature to be reached
M170 ; take ambient temperature from loaded reel
 ;  generated by Slic3r 1.1.5 on 2014-07-07 at 12:11:28
 ;  perimeters extrusion width = 0.80mm
 ;  infill extrusion width = 0.80mm
 ;  solid infill extrusion width = 0.80mm
 ;  top infill extrusion width = 0.50mm
G21 ;  set units to millimeters
G90 ;  use absolute coordinates
M83 ;  use relative distances for extrusion
T1 ;  change extruder - force to nozzle 1 on first layer
M106 S153 ;  enable fan
G1 Z0.200 F12000.000 ;  move to next layer (0)
G1 E-0.05000 D0.00000 F1200.000 ;  retract
G1 X17.407 Y49.049 F12000.000 ; ->52.0462107170157  ;  move to first skirt point
G1 B1.0 ; unretract trigger
G1 E0.05000 D0.00000 F1200.000 ;  compensate retraction
G1 X51.107 Y22.661 E6.46235 D0.00000 F1080.000 ; ->L42.80206238021715 ->E6.46235 ->D0.0 ;  skirt
G1 X52.806 Y21.833 E0.28532 D0.00000 ; ->L1.8900224866387167 ->E0.28532 ->D0.0 ;  skirt
G1 X53.890 Y21.701 E0.16492 D0.00000 ; ->L1.0920073259827547 ->E0.16492 ->D0.0 ;  skirt
G1 X102.613 Y21.713 E7.35626 D0.00000 ; ->L48.72300147774149 ->E7.35626 ->D0.0 ;  skirt
G1 X161.082 Y25.909 E8.85050 D0.00000 ; ->L58.61936861652469 ->E8.8505 ->D0.0 ;  skirt
G1 X162.941 Y26.460 E0.29273 D0.00000 ; ->L1.9389383693145161 ->E0.29273 ->D0.0 ;  skirt
G1 X180.533 Y36.174 E3.03418 D0.00000 ; ->L20.095777168350555 ->E3.03418 ->D0.0 ;  skirt
G1 X181.960 Y37.414 E0.28532 D0.00000 ; ->L1.890483800512468 ->E0.28532 ->D0.0 ;  skirt
G1 X182.754 Y39.129 E0.28532 D0.00000 ; ->L1.889883858865396 ->E0.28532 ->D0.0 ;  skirt
G1 X182.865 Y40.130 E0.15206 D0.00000 ; ->L1.0071355420200467 ->E0.15206 ->D0.0 ;  skirt
G1 X182.857 Y50.730 E1.60041 D0.00000 ; ->L10.60000301886749 ->E1.60041 ->D0.0 ;  skirt
G1 X182.476 Y52.539 E0.27913 D0.00000 ; ->L1.8486865607776828 ->E0.27913 ->D0.0 ;  skirt
G1 X156.751 Y111.201 E9.67112 D0.00000 ; ->L64.05470996733963 ->E9.67112 ->D0.0 ;  skirt
G1 X155.646 Y112.734 E0.28532 D0.00000 ; ->L1.8897391354364348 ->E0.28532 ->D0.0 ;  skirt
G1 X153.249 Y113.858 E0.39974 D0.00000 ; ->L2.6474487719311925 ->E0.39974 ->D0.0 ;  skirt
G1 X81.851 Y123.911 E10.88607 D0.00000 ; ->L72.1022691251808 ->E10.88607 ->D0.0 ;  skirt
G1 X46.351 Y123.972 E5.35986 D0.00000 ; ->L35.50005240841202 ->E5.35986 ->D0.0 ;  skirt
G1 X44.502 Y123.580 E0.28532 D0.00000 ; ->L1.890096558380017 ->E0.28532 ->D0.0 ;  skirt
G1 X42.976 Y122.465 E0.28532 D0.00000 ; ->L1.8899473537641198 ->E0.28532 ->D0.0 ;  skirt
G1 X42.250 Y121.361 E0.19954 D0.00000 ; ->L1.3213220652059046 ->E0.19954 ->D0.0 ;  skirt
G1 X16.096 Y65.106 E9.36653 D0.00000 ; ->L62.03754299615678 ->E9.36653 ->D0.0 ;  skirt
G1 X15.675 Y63.203 E0.29428 D0.00000 ; ->L1.949012570508453 ->E0.29428 ->D0.0 ;  skirt
G1 X15.676 Y52.603 E1.60041 D0.00000 ; ->L10.600000047169813 ->E1.60041 ->D0.0 ;  skirt
G1 X16.071 Y50.755 E0.28532 D0.00000 ; ->L1.8897431042340114 ->E0.28532 ->D0.0 ;  skirt
G1 X17.333 Y49.143 E0.30902 D0.00000 ; ->L2.0472391164688113 ->E0.30902 ->D0.0 ;  skirt
G1 X17.873 Y49.645 F12000.000 ; ->0.7372950562698799  ;  move to first skirt point
G1 X51.573 Y23.257 E6.46235 D0.00000 F1080.000 ; ->L42.80206238021715 ->E6.46235 ->D0.0 ;  skirt
G1 X53.890 Y22.458 E0.36995 D0.00000 ; ->L2.450895754617076 ->E0.36995 ->D0.0 ;  skirt
G1 X102.558 Y22.468 E7.34808 D0.00000 ; ->L48.66800102736911 ->E7.34808 ->D0.0 ;  skirt
G1 X161.028 Y26.664 E8.85050 D0.00000 ; ->L58.62036605139888 ->E8.8505 ->D0.0 ;  skirt
G1 X162.575 Y27.123 E0.24364 D0.00000 ; ->L1.61365733661146 ->E0.24364 ->D0.0 ;  skirt
G1 X180.167 Y36.837 E3.03418 D0.00000 ; ->L20.09577716835058 ->E3.03418 ->D0.0 ;  skirt
G1 X181.444 Y37.993 E0.26001 D0.00000 ; ->L1.7225170536165857 ->E0.26001 ->D0.0 ;  skirt
G1 X182.108 Y40.129 E0.33777 D0.00000 ; ->L2.236826323164139 ->E0.33777 ->D0.0 ;  skirt
G1 X182.099 Y50.729 E1.60041 D0.00000 ; ->L10.60000382075403 ->E1.60041 ->D0.0 ;  skirt
G1 X181.783 Y52.235 E0.23232 D0.00000 ; ->L1.5387956329545527 ->E0.23232 ->D0.0 ;  skirt
G1 X156.057 Y110.897 E9.67112 D0.00000 ; ->L64.055111583698 ->E9.67112 ->D0.0 ;  skirt
G1 X155.023 Y112.274 E0.26001 D0.00000 ; ->L1.7220002903600133 ->E0.26001 ->D0.0 ;  skirt
G1 X153.143 Y113.108 E0.31055 D0.00000 ; ->L2.0566856833264504 ->E0.31055 ->D0.0 ;  skirt
G1 X81.850 Y123.154 E10.87026 D0.00000 ; ->L71.99731915147953 ->E10.87026 ->D0.0 ;  skirt
G1 X46.350 Y123.215 E5.35986 D0.00000 ; ->L35.50005240841201 ->E5.35986 ->D0.0 ;  skirt
G1 X44.673 Y122.823 E0.26001 D0.00000 ; ->L1.7222058529688042 ->E0.26001 ->D0.0 ;  skirt
G1 X42.936 Y121.042 E0.37559 D0.00000 ; ->L2.4877962135191014 ->E0.37559 ->D0.0 ;  skirt
G1 X16.783 Y64.787 E9.36653 D0.00000 ; ->L62.037121419356644 ->E9.36653 ->D0.0 ;  skirt
G1 X16.432 Y63.203 E0.24492 D0.00000 ; ->L1.6224231877041242 ->E0.24492 ->D0.0 ;  skirt
G1 X16.433 Y54.645 E1.29210 D0.00000 ; ->L8.55796938074241 ->E1.2920999731779101 ->D0.0 ; retract trigger split segment - before start of nozzle close
G1 X16.433 Y52.603 B0.486 ; ->L2.042030666427403  ; ->E0.0  ; Ejection volume
G1 X16.827 Y50.927 B0.053 ; ->L1.7216887058931438  ; ->E0.0  ; Ejection volume
G1 X16.960 Y50.764 B0.000 ; ->L0.20991139881399776  ; ->E0.0  ; Ejection volume
G1 X17.798 Y49.738 ; ->1.325198369248206  ; Wipe
G1 E-0.05000 D0.00000 F1200.000 ;  retract
G1 X59.809 Y105.635 F12000.000 ; ->69.92423564115664  ;  move to first perimeter point
G1 B1.0 ; unretract trigger
G1 E0.85000 D0.00000 F1200.000 ;  compensate retraction
G1 X80.619 Y105.599 E3.32006 D0.00000 F1080.000 ; ->L20.810031138852246 ->E3.32006 ->D0.0 ;  perimeter
G1 X80.641 Y118.199 E2.01022 D0.00000 ; ->L12.600019206334562 ->E2.01022 ->D0.0 ;  perimeter
G1 X59.831 Y118.235 E3.32006 D0.00000 ; ->L20.810031138852246 ->E3.32006 ->D0.0 ;  perimeter
G1 X59.810 Y105.755 E1.99108 D0.00000 ; ->L12.480017668256728 ->E1.99108 ->D0.0 ;  perimeter
G1 X59.010 Y106.036 F12000.000 ; ->0.8479156797701114  ;  move to first perimeter point
G1 X46.720 Y106.057 E1.96076 D0.00000 F1080.000 ; ->L12.290017941402688 ->E1.96076 ->D0.0 ;  perimeter
G1 X46.718 Y104.857 E0.19145 D0.00000 ; ->L1.200001666665512 ->E0.19145 ->D0.0 ;  perimeter
G1 X81.418 Y104.797 E5.53608 D0.00000 ; ->L34.70005187316008 ->E5.53608 ->D0.0 ;  perimeter
G1 X81.443 Y118.997 E2.26549 D0.00000 ; ->L14.200022007025204 ->E2.26549 ->D0.0 ;  perimeter
G1 X46.743 Y119.057 E5.53608 D0.00000 ; ->L34.70005187316007 ->E5.53608 ->D0.0 ;  perimeter
G1 X46.740 Y117.857 E0.19145 D0.00000 ; ->L1.2000037499941434 ->E0.19145 ->D0.0 ;  perimeter
G1 X59.030 Y117.836 E1.96076 D0.00000 ; ->L12.290017941402688 ->E1.96076 ->D0.0 ;  perimeter
G1 X59.010 Y106.156 E1.86344 D0.00000 ; ->L11.680017123275114 ->E1.86344 ->D0.0 ;  perimeter
G1 X59.009 Y105.236 F12000.000 ; ->0.9200005434781021  ;  move inwards before travel
G1 X60.390 Y117.634 F12000.000 ; ->12.474676949724987  ;  move to first fill point
G1 X60.430 Y117.674 E0.00903 D0.00000 F1080.000 ; ->L0.05656854249492762 ->E0.00903 ->D0.0 ;  fill
G1 X61.580 Y117.672 E0.18348 D0.00000 ; ->L1.1500017391291184 ->E0.18348 ->D0.0 ;  fill
G1 X60.388 Y116.480 E0.26895 D0.00000 ; ->L1.6857425663487244 ->E0.26895 ->D0.0 ;  fill
G1 X60.386 Y115.326 E0.18411 D0.00000 ; ->L1.1540017331009622 ->E0.18411 ->D0.0 ;  fill
G1 X62.730 Y117.670 E0.52887 D0.00000 ; ->L3.3149165902025364 ->E0.52887 ->D0.0 ;  fill
G1 X63.880 Y117.668 E0.18348 D0.00000 ; ->L1.1500017391291255 ->E0.18348 ->D0.0 ;  fill
G1 X60.384 Y114.172 E0.78880 D0.00000 ; ->L4.944090614056349 ->E0.7888 ->D0.0 ;  fill
G1 X60.382 Y113.018 E0.18411 D0.00000 ; ->L1.154001733100948 ->E0.18411 ->D0.0 ;  fill
G1 X65.030 Y117.666 E1.04872 D0.00000 ; ->L6.573264637910145 ->E1.04872 ->D0.0 ;  fill
G1 X66.180 Y117.664 E0.18348 D0.00000 ; ->L1.1500017391291255 ->E0.18348 ->D0.0 ;  fill
G1 X60.380 Y111.864 E1.30864 D0.00000 ; ->L8.202438661763953 ->E1.30864 ->D0.0 ;  fill
G1 X60.378 Y110.710 E0.18411 D0.00000 ; ->L1.1540017331009622 ->E0.18411 ->D0.0 ;  fill
G1 X67.330 Y117.662 E1.56857 D0.00000 ; ->L9.831612685617765 ->E1.56857 ->D0.0 ;  fill
G1 X68.480 Y117.660 E0.18348 D0.00000 ; ->L1.1500017391291255 ->E0.18348 ->D0.0 ;  fill
G1 X60.376 Y109.556 E1.82849 D0.00000 ; ->L11.460786709471567 ->E1.82849 ->D0.0 ;  fill
G1 X60.374 Y108.402 E0.18411 D0.00000 ; ->L1.154001733100948 ->E0.18411 ->D0.0 ;  fill
G1 X69.630 Y117.658 E2.08842 D0.00000 ; ->L13.089960733325363 ->E2.08842 ->D0.0 ;  fill
G1 X70.780 Y117.656 E0.18348 D0.00000 ; ->L1.1500017391291255 ->E0.18348 ->D0.0 ;  fill
G1 X60.372 Y107.248 E2.34834 D0.00000 ; ->L14.719134757179175 ->E2.34834 ->D0.0 ;  fill
G1 X60.470 Y106.194 E0.16889 D0.00000 ; ->L1.0585461728238423 ->E0.16889 ->D0.0 ;  fill
G1 X71.930 Y117.654 E2.58572 D0.00000 ; ->L16.20688742479567 ->E2.58572 ->D0.0 ;  fill
G1 X73.080 Y117.652 E0.18348 D0.00000 ; ->L1.1500017391291113 ->E0.18348 ->D0.0 ;  fill
G1 X61.620 Y106.192 E2.58572 D0.00000 ; ->L16.206887424795674 ->E2.58572 ->D0.0 ;  fill
G1 X62.770 Y106.190 E0.18348 D0.00000 ; ->L1.1500017391291255 ->E0.18348 ->D0.0 ;  fill
G1 X74.230 Y117.650 E2.58572 D0.00000 ; ->L16.206887424795674 ->E2.58572 ->D0.0 ;  fill
G1 X75.380 Y117.648 E0.18348 D0.00000 ; ->L1.1500017391291113 ->E0.18348 ->D0.0 ;  fill
G1 X63.920 Y106.188 E2.58572 D0.00000 ; ->L16.20688742479566 ->E2.58572 ->D0.0 ;  fill
G1 X65.070 Y106.186 E0.18348 D0.00000 ; ->L1.1500017391291113 ->E0.18348 ->D0.0 ;  fill
G1 X76.530 Y117.646 E2.58572 D0.00000 ; ->L16.20688742479567 ->E2.58572 ->D0.0 ;  fill
G1 X77.680 Y117.644 E0.18348 D0.00000 ; ->L1.1500017391291255 ->E0.18348 ->D0.0 ;  fill
G1 X66.220 Y106.184 E2.58572 D0.00000 ; ->L16.20688742479568 ->E2.58572 ->D0.0 ;  fill
G1 X67.370 Y106.182 E0.18348 D0.00000 ; ->L1.1500017391291255 ->E0.18348 ->D0.0 ;  fill
G1 X78.830 Y117.642 E2.58572 D0.00000 ; ->L16.20688742479566 ->E2.58572 ->D0.0 ;  fill
G1 X79.980 Y117.640 E0.18348 D0.00000 ; ->L1.1500017391291255 ->E0.18348 ->D0.0 ;  fill
G1 X68.520 Y106.180 E2.58572 D0.00000 ; ->L16.20688742479567 ->E2.58572 ->D0.0 ;  fill
G1 X69.670 Y106.178 E0.18348 D0.00000 ; ->L1.1500017391291255 ->E0.18348 ->D0.0 ;  fill
G1 X80.078 Y116.586 E2.34834 D0.00000 ; ->L14.719134757179175 ->E2.34834 ->D0.0 ;  fill
G1 X80.076 Y115.432 E0.18411 D0.00000 ; ->L1.154001733100948 ->E0.18411 ->D0.0 ;  fill
G1 X70.820 Y106.176 E2.08842 D0.00000 ; ->L13.089960733325368 ->E2.08842 ->D0.0 ;  fill
G1 X71.970 Y106.174 E0.18348 D0.00000 ; ->L1.1500017391291255 ->E0.18348 ->D0.0 ;  fill
G1 X80.074 Y114.278 E1.82849 D0.00000 ; ->L11.460786709471561 ->E1.82849 ->D0.0 ;  fill
G1 X80.072 Y113.124 E0.18411 D0.00000 ; ->L1.1540017331009622 ->E0.18411 ->D0.0 ;  fill
G1 X73.120 Y106.172 E1.56857 D0.00000 ; ->L9.831612685617754 ->E1.56857 ->D0.0 ;  fill
G1 X74.270 Y106.170 E0.18348 D0.00000 ; ->L1.1500017391291113 ->E0.18348 ->D0.0 ;  fill
G1 X80.070 Y111.970 E1.30865 D0.00000 ; ->L8.202438661763948 ->E1.30865 ->D0.0 ;  fill
G1 X80.068 Y110.816 E0.18411 D0.00000 ; ->L1.154001733100948 ->E0.18411 ->D0.0 ;  fill
G1 X75.420 Y106.168 E1.04872 D0.00000 ; ->L6.573264637910141 ->E1.04872 ->D0.0 ;  fill
G1 X76.570 Y106.166 E0.18348 D0.00000 ; ->L1.1500017391291113 ->E0.18348 ->D0.0 ;  fill
G1 X80.066 Y109.662 E0.78880 D0.00000 ; ->L4.944090614056353 ->E0.7888 ->D0.0 ;  fill
G1 X80.064 Y108.508 E0.18411 D0.00000 ; ->L1.1540017331009622 ->E0.18411 ->D0.0 ;  fill
G1 X77.720 Y106.164 E0.52887 D0.00000 ; ->L3.3149165902025266 ->E0.52887 ->D0.0 ;  fill
G1 X78.668 Y106.162 E0.15132 D0.00000 ; ->L0.9484316128164869 ->E0.1513199731779099 ->D0.0 ; retract trigger split segment - before start of nozzle close
G1 X78.870 Y106.162 B0.946 ; ->L0.20157012631263865  ; ->E0.0  ; Ejection volume
G1 X80.062 Y107.354 B0.498 ; ->L1.6857425663487196  ; ->E0.0  ; Ejection volume
G1 X80.060 Y106.200 B0.191 ; ->L1.154001733100948  ; ->E0.0  ; Ejection volume
G1 X80.020 Y106.160 B0.176 ; ->L0.05656854249493265  ; ->E0.0  ; Ejection volume
G1 X48.570 Y105.454 F12000.000 ; ->31.45792326266945  ;  move to first fill point
G1 X55.276 Y105.631 B0.000 F1080.000 ; ->L1.0912707036398324  ; ->E0.0  ; Ejection volume
G1 X47.119 Y105.457 F1080.000 ; ->0.3597323976662956  ; Wipe
G1 X57.705 Y105.438 F12000.000 ; ->10.586017050808106  ;  move to first fill point
G1 X59.409 Y105.435 F1080.000 ; ->1.7040026408430247  ; Wipe
G1 E-0.05000 D0.00000 F1200.000 ;  retract
G1 X50.644 Y118.451 F12000.000 ; ->15.692083386217389  ;  move to first fill point
G0 B0.232 ; Partial open
G1 E0.85000 D0.00000 F1200.000 ;  compensate retraction
G1 X47.142 Y118.457 B0.000 F1080.000 ; ->L1.4381171200552294  ; ->E0.0  ; Ejection volume
G1 X47.142 Y118.457 F1080.000 ; ->2.06388801986104  ; Wipe
G1 E-0.05000 D0.00000 F1200.000 ;  retract
G1 X59.214 Y98.974 F12000.000 ; ->22.91987070207857  ;  move to first perimeter point
G1 B1.0 ; unretract trigger
G1 E0.38936 D0.00000 F1200.000 ;  compensate retraction
G1 X59.192 Y86.374 E2.01022 D0.00000 F1080.000 ; ->L12.600019206334578 ->E2.01022 ->D0.0 ;  perimeter
G1 X80.002 Y86.338 E3.32005 D0.00000 ; ->L20.81003113885224 ->E3.32005 ->D0.0 ;  perimeter
G1 X80.024 Y98.938 E2.01022 D0.00000 ; ->L12.600019206334578 ->E2.01022 ->D0.0 ;  perimeter
G1 X59.334 Y98.974 E3.30091 D0.00000 ; ->L20.690031319454302 ->E3.30091 ->D0.0 ;  perimeter
G1 X58.414 Y98.575 F12000.000 ; ->1.0027965895434647  ;  move to first perimeter point
G1 X58.393 Y86.775 E1.88259 D0.00000 F1080.000 ; ->L11.80001868642588 ->E1.88259 ->D0.0 ;  perimeter
G1 X46.103 Y86.797 E1.96076 D0.00000 ; ->L12.290019690789759 ->E1.96076 ->D0.0 ;  perimeter
G1 X46.101 Y85.597 E0.19145 D0.00000 ; ->L1.2000016666655122 ->E0.19145 ->D0.0 ;  perimeter
G1 X80.801 Y85.537 E5.53608 D0.00000 ; ->L34.70005187316008 ->E5.53608 ->D0.0 ;  perimeter
G1 X80.826 Y99.737 E2.26549 D0.00000 ; ->L14.20002200702519 ->E2.26549 ->D0.0 ;  perimeter
G1 X46.126 Y99.797 E5.53608 D0.00000 ; ->L34.70005187316007 ->E5.53608 ->D0.0 ;  perimeter
G1 X46.124 Y98.597 E0.19145 D0.00000 ; ->L1.200001666665512 ->E0.19145 ->D0.0 ;  perimeter
G1 X58.294 Y98.575 E1.94162 D0.00000 ; ->L12.170019884946774 ->E1.94162 ->D0.0 ;  perimeter
G1 X59.214 Y98.574 F12000.000 ; ->0.9200005434781021  ;  move inwards before travel
G1 X59.773 Y98.373 F12000.000 ; ->0.5940387192767846  ;  move to first fill point
G1 X59.813 Y98.413 E0.00903 D0.00000 F1080.000 ; ->L0.05656854249491757 ->E0.00903 ->D0.0 ;  fill
G1 X60.963 Y98.411 E0.18348 D0.00000 ; ->L1.1500017391291182 ->E0.18348 ->D0.0 ;  fill
G1 X59.771 Y97.219 E0.26895 D0.00000 ; ->L1.6857425663487344 ->E0.26895 ->D0.0 ;  fill
G1 X59.769 Y96.065 E0.18411 D0.00000 ; ->L1.154001733100948 ->E0.18411 ->D0.0 ;  fill
G1 X62.113 Y98.409 E0.52887 D0.00000 ; ->L3.3149165902025413 ->E0.52887 ->D0.0 ;  fill
G1 X63.263 Y98.407 E0.18348 D0.00000 ; ->L1.1500017391291184 ->E0.18348 ->D0.0 ;  fill
G1 X59.767 Y94.911 E0.78880 D0.00000 ; ->L4.944090614056334 ->E0.7888 ->D0.0 ;  fill
G1 X59.765 Y93.757 E0.18411 D0.00000 ; ->L1.154001733100948 ->E0.18411 ->D0.0 ;  fill
G1 X64.413 Y98.405 E1.04872 D0.00000 ; ->L6.573264637910141 ->E1.04872 ->D0.0 ;  fill
G1 X65.563 Y98.403 E0.18348 D0.00000 ; ->L1.1500017391291255 ->E0.18348 ->D0.0 ;  fill
G1 X59.763 Y92.603 E1.30865 D0.00000 ; ->L8.202438661763962 ->E1.30865 ->D0.0 ;  fill
G1 X59.761 Y91.449 E0.18411 D0.00000 ; ->L1.154001733100948 ->E0.18411 ->D0.0 ;  fill
G1 X66.713 Y98.401 E1.56857 D0.00000 ; ->L9.831612685617749 ->E1.56857 ->D0.0 ;  fill
G1 X67.863 Y98.399 E0.18348 D0.00000 ; ->L1.1500017391291255 ->E0.18348 ->D0.0 ;  fill
G1 X59.759 Y90.295 E1.82849 D0.00000 ; ->L11.460786709471561 ->E1.82849 ->D0.0 ;  fill
G1 X59.757 Y89.141 E0.18411 D0.00000 ; ->L1.154001733100948 ->E0.18411 ->D0.0 ;  fill
G1 X69.013 Y98.397 E2.08842 D0.00000 ; ->L13.089960733325373 ->E2.08842 ->D0.0 ;  fill
G1 X70.163 Y98.395 E0.18348 D0.00000 ; ->L1.1500017391291113 ->E0.18348 ->D0.0 ;  fill
G1 X59.755 Y87.987 E2.34834 D0.00000 ; ->L14.719134757179171 ->E2.34834 ->D0.0 ;  fill
G1 X59.853 Y86.933 E0.16889 D0.00000 ; ->L1.0585461728238281 ->E0.16889 ->D0.0 ;  fill
G1 X71.313 Y98.393 E2.58572 D0.00000 ; ->L16.206887424795664 ->E2.58572 ->D0.0 ;  fill
G1 X72.463 Y98.391 E0.18348 D0.00000 ; ->L1.1500017391291113 ->E0.18348 ->D0.0 ;  fill
G1 X61.003 Y86.931 E2.58572 D0.00000 ; ->L16.20688742479567 ->E2.58572 ->D0.0 ;  fill
G1 X62.153 Y86.929 E0.18348 D0.00000 ; ->L1.1500017391291182 ->E0.18348 ->D0.0 ;  fill
G1 X73.613 Y98.389 E2.58572 D0.00000 ; ->L16.206887424795664 ->E2.58572 ->D0.0 ;  fill
G1 X74.763 Y98.387 E0.18348 D0.00000 ; ->L1.1500017391291255 ->E0.18348 ->D0.0 ;  fill
G1 X63.303 Y86.927 E2.58572 D0.00000 ; ->L16.20688742479567 ->E2.58572 ->D0.0 ;  fill
G1 X64.453 Y86.925 E0.18348 D0.00000 ; ->L1.1500017391291255 ->E0.18348 ->D0.0 ;  fill
G1 X75.913 Y98.385 E2.58572 D0.00000 ; ->L16.20688742479567 ->E2.58572 ->D0.0 ;  fill
G1 X77.063 Y98.383 E0.18348 D0.00000 ; ->L1.1500017391291255 ->E0.18348 ->D0.0 ;  fill
G1 X65.603 Y86.923 E2.58572 D0.00000 ; ->L16.20688742479567 ->E2.58572 ->D0.0 ;  fill
G1 X66.753 Y86.921 E0.18348 D0.00000 ; ->L1.1500017391291255 ->E0.18348 ->D0.0 ;  fill
G1 X78.214 Y98.381 E2.58572 D0.00000 ; ->L16.20759454700172 ->E2.58572 ->D0.0 ;  fill
G1 X79.364 Y98.379 E0.18348 D0.00000 ; ->L1.1500017391291255 ->E0.18348 ->D0.0 ;  fill
G1 X67.903 Y86.919 E2.58572 D0.00000 ; ->L16.20759454700173 ->E2.58572 ->D0.0 ;  fill
G1 X69.053 Y86.917 E0.18348 D0.00000 ; ->L1.1500017391291113 ->E0.18348 ->D0.0 ;  fill
G1 X79.461 Y97.325 E2.34834 D0.00000 ; ->L14.719134757179175 ->E2.34834 ->D0.0 ;  fill
G1 X79.459 Y96.171 E0.18411 D0.00000 ; ->L1.154001733100948 ->E0.18411 ->D0.0 ;  fill
G1 X70.203 Y86.915 E2.08842 D0.00000 ; ->L13.089960733325368 ->E2.08842 ->D0.0 ;  fill
G1 X71.353 Y86.913 E0.18348 D0.00000 ; ->L1.1500017391291113 ->E0.18348 ->D0.0 ;  fill
G1 X79.457 Y95.017 E1.82849 D0.00000 ; ->L11.460786709471561 ->E1.82849 ->D0.0 ;  fill
G1 X79.455 Y93.863 E0.18411 D0.00000 ; ->L1.154001733100948 ->E0.18411 ->D0.0 ;  fill
G1 X72.503 Y86.911 E1.56857 D0.00000 ; ->L9.831612685617754 ->E1.56857 ->D0.0 ;  fill
G1 X73.653 Y86.909 E0.18348 D0.00000 ; ->L1.1500017391291255 ->E0.18348 ->D0.0 ;  fill
G1 X79.453 Y92.709 E1.30865 D0.00000 ; ->L8.202438661763948 ->E1.30865 ->D0.0 ;  fill
G1 X79.451 Y91.555 E0.18411 D0.00000 ; ->L1.154001733100948 ->E0.18411 ->D0.0 ;  fill
G1 X74.803 Y86.907 E1.04872 D0.00000 ; ->L6.5732646379101505 ->E1.04872 ->D0.0 ;  fill
G1 X75.953 Y86.905 E0.18348 D0.00000 ; ->L1.1500017391291255 ->E0.18348 ->D0.0 ;  fill
G1 X79.449 Y90.401 E0.78880 D0.00000 ; ->L4.944090614056334 ->E0.7888 ->D0.0 ;  fill
G1 X79.447 Y89.247 E0.18411 D0.00000 ; ->L1.154001733100948 ->E0.18411 ->D0.0 ;  fill
G1 X77.103 Y86.903 E0.52887 D0.00000 ; ->L3.3149165902025364 ->E0.52887 ->D0.0 ;  fill
G1 X78.253 Y86.901 E0.18348 D0.00000 ; ->L1.1500017391291255 ->E0.18348 ->D0.0 ;  fill
G1 X78.463 Y87.111 E0.04734 D0.00000 ; ->L0.29672060931700966 ->E0.04733997317790983 ->D0.0 ; retract trigger split segment - before start of nozzle close
G1 X79.445 Y88.093 B0.631 ; ->L1.38902195703172  ; ->E0.0  ; Ejection volume
G1 X79.443 Y86.939 B0.324 ; ->L1.1540017331009622  ; ->E0.0  ; Ejection volume
G1 X79.403 Y86.899 B0.309 ; ->L0.05656854249491255  ; ->E0.0  ; Ejection volume
G1 X53.188 Y86.184 F12000.000 ; ->26.224748807185936  ;  move to first fill point
G1 X64.885 Y86.559 B0.000 F1080.000 ; ->L1.9118887207137578  ; ->E0.0  ; Ejection volume
G1 X49.212 Y86.191 F1080.000 ; ->2.0641174412532974  ; Wipe
G1 E-0.05000 D0.00000 F1200.000 ;  retract
G1 X46.525 Y99.196 F12000.000 ; ->13.279683505264721  ;  move to first fill point
G1 B1.0 ; unretract trigger
G1 E0.85000 D0.00000 F1200.000 ;  compensate retraction
G1 X58.179 Y99.176 E0.32922 D0.00000 F1080.000 ; ->L3.397686205802548 ->E0.32921997317790974 ->D0.0 ; retract trigger split segment - before start of nozzle close
G1 X58.179 Y99.176 B0.000 F1080.000 ; ->L6.192248255202363  ; ->E0.0  ; Ejection volume
G1 X58.179 Y99.176 F1080.000 ; ->2.064082700472074  ; Wipe
G1 E-0.05000 D0.00000 F1200.000 ;  retract
G1 X104.572 Y68.058 F12000.000 ; ->55.86269213885059  ;  move to first perimeter point
G1 B1.0 ; unretract trigger
G1 E0.85000 D0.00000 F1200.000 ;  compensate retraction
G1 X93.079 Y68.049 E1.83358 D0.00000 F1080.000 ; ->L11.493003523883573 ->E1.83358 ->D0.0 ;  perimeter
G1 X93.086 Y59.849 E1.30824 D0.00000 ; ->L8.200002987804345 ->E1.30824 ->D0.0 ;  perimeter
G1 X104.579 Y59.858 E1.83358 D0.00000 ; ->L11.493003523883557 ->E1.83358 ->D0.0 ;  perimeter
G1 X110.187 Y50.163 E1.78696 D0.00000 ; ->L11.200120043999531 ->E1.78696 ->D0.0 ;  perimeter
G1 X111.457 Y50.164 E0.20264 D0.00000 ; ->L1.2700003937007223 ->E0.20264 ->D0.0 ;  perimeter
G1 X106.187 Y59.276 E1.67942 D0.00000 ; ->L10.526226484358011 ->E1.67942 ->D0.0 ;  perimeter
G1 X106.183 Y63.757 E0.71501 D0.00000 ; ->L4.481001785315416 ->E0.71501 ->D0.0 ;  perimeter
G1 X106.179 Y68.643 E0.77948 D0.00000 ; ->L4.886001637330879 ->E0.77948 ->D0.0 ;  perimeter
G1 X111.435 Y77.764 E1.67942 D0.00000 ; ->L10.52702127859538 ->E1.67942 ->D0.0 ;  perimeter
G1 X110.165 Y77.763 E0.20264 D0.00000 ; ->L1.2700003937007223 ->E0.20264 ->D0.0 ;  perimeter
G1 X104.632 Y68.162 E1.76781 D0.00000 ; ->L11.08121338121417 ->E1.76781 ->D0.0 ;  perimeter
G1 X104.110 Y68.858 F12000.000 ; ->0.8700000000000018  ;  move to first perimeter point
G1 X92.279 Y68.848 E1.88752 D0.00000 F1080.000 ; ->L11.831004226184694 ->E1.88752 ->D0.0 ;  perimeter
G1 X92.287 Y59.048 E1.56351 D0.00000 ; ->L9.800003265305575 ->E1.56351 ->D0.0 ;  perimeter
G1 X104.118 Y59.058 E1.88752 D0.00000 ; ->L11.831004226184678 ->E1.88752 ->D0.0 ;  perimeter
G1 X109.726 Y49.362 E1.78696 D0.00000 ; ->L11.200985670913074 ->E1.78696 ->D0.0 ;  perimeter
G1 X157.495 Y49.401 E7.62109 D0.00000 ; ->L47.76901592036412 ->E7.62109 ->D0.0 ;  perimeter
G1 X157.493 Y51.601 E0.35099 D0.00000 ; ->L2.200000909090717 ->E0.35099 ->D0.0 ;  perimeter
G1 X111.572 Y51.564 E7.32634 D0.00000 ; ->L45.92101490603185 ->E7.32634 ->D0.0 ;  perimeter
G1 X106.986 Y59.491 E1.46100 D0.00000 ; ->L9.157986951290113 ->E1.461 ->D0.0 ;  perimeter
G1 X106.979 Y68.429 E1.42609 D0.00000 ; ->L8.938002741104976 ->E1.42609 ->D0.0 ;  perimeter
G1 X111.551 Y76.364 E1.46100 D0.00000 ; ->L9.157915101157036 ->E1.461 ->D0.0 ;  perimeter
G1 X157.473 Y76.401 E7.32634 D0.00000 ; ->L45.92201490570727 ->E7.32634 ->D0.0 ;  perimeter
G1 X157.471 Y78.601 E0.35099 D0.00000 ; ->L2.2000009090907238 ->E0.35099 ->D0.0 ;  perimeter
G1 X109.702 Y78.562 E7.62109 D0.00000 ; ->L47.76901592036412 ->E7.62109 ->D0.0 ;  perimeter
G1 X104.170 Y68.962 E1.76781 D0.00000 ; ->L11.079847652382224 ->E1.76781 ->D0.0 ;  perimeter
G1 X103.971 Y68.070 F12000.000 ; ->0.9139283341706926  ;  move inwards before travel
G1 X105.578 Y59.627 F12000.000 ; ->8.594573753246861  ;  move to first fill point
G1 X105.626 Y59.675 E0.01090 D0.00000 F1080.000 ; ->L0.06788225099390612 ->E0.0109 ->D0.0 ;  fill
G1 X105.014 Y60.225 E0.13132 D0.00000 ; ->L0.8228268347593045 ->E0.13132 ->D0.0 ;  fill
G1 X105.625 Y60.836 E0.13798 D0.00000 ; ->L0.864084486609962 ->E0.13798 ->D0.0 ;  fill
G1 X105.624 Y61.998 E0.18530 D0.00000 ; ->L1.1620004302925182 ->E0.1853 ->D0.0 ;  fill
G1 X104.044 Y60.418 E0.35651 D0.00000 ; ->L2.234457428549488 ->E0.35651 ->D0.0 ;  fill
G1 X102.881 Y60.417 E0.18560 D0.00000 ; ->L1.1630004299225312 ->E0.1856 ->D0.0 ;  fill
G1 X105.623 Y63.159 E0.61877 D0.00000 ; ->L3.877773588027028 ->E0.61877 ->D0.0 ;  fill
G1 X105.623 Y64.321 E0.18530 D0.00000 ; ->L1.161999999999999 ->E0.1853 ->D0.0 ;  fill
G1 X101.718 Y60.416 E0.88104 D0.00000 ; ->L5.5225039610669375 ->E0.88104 ->D0.0 ;  fill
G1 X100.554 Y60.415 E0.18560 D0.00000 ; ->L1.1640004295531867 ->E0.1856 ->D0.0 ;  fill
G1 X105.622 Y65.482 E1.14331 D0.00000 ; ->L7.1665272622100575 ->E1.14331 ->D0.0 ;  fill
G1 X105.621 Y66.644 E0.18530 D0.00000 ; ->L1.1620004302925253 ->E0.1853 ->D0.0 ;  fill
G1 X99.391 Y60.414 E1.40558 D0.00000 ; ->L8.810550493584378 ->E1.40558 ->D0.0 ;  fill
G1 X98.228 Y60.413 E0.18560 D0.00000 ; ->L1.1630004299225454 ->E0.1856 ->D0.0 ;  fill
G1 X105.620 Y67.805 E1.66784 D0.00000 ; ->L10.453866653061933 ->E1.66784 ->D0.0 ;  fill
G1 X104.150 Y67.498 E0.23953 D0.00000 ; ->L1.5017153525219078 ->E0.23953 ->D0.0 ;  fill
G1 X97.064 Y60.412 E1.59874 D0.00000 ; ->L10.021117302975764 ->E1.59874 ->D0.0 ;  fill
G1 X95.901 Y60.411 E0.18560 D0.00000 ; ->L1.1630004299225312 ->E0.1856 ->D0.0 ;  fill
G1 X102.987 Y67.497 E1.59874 D0.00000 ; ->L10.02111730297575 ->E1.59874 ->D0.0 ;  fill
G1 X101.823 Y67.496 E0.18560 D0.00000 ; ->L1.1640004295531867 ->E0.1856 ->D0.0 ;  fill
G1 X94.738 Y60.410 E1.59874 D0.00000 ; ->L10.020410221143639 ->E1.59874 ->D0.0 ;  fill
G1 X93.646 Y60.481 E0.17457 D0.00000 ; ->L1.0943057159678908 ->E0.17457 ->D0.0 ;  fill
G1 X100.660 Y67.495 E1.58263 D0.00000 ; ->L9.919293926484889 ->E1.58263 ->D0.0 ;  fill
G1 X99.497 Y67.494 E0.18560 D0.00000 ; ->L1.1630004299225312 ->E0.1856 ->D0.0 ;  fill
G1 X93.645 Y61.642 E1.32036 D0.00000 ; ->L8.275977767007353 ->E1.32036 ->D0.0 ;  fill
G1 X93.644 Y62.803 E0.18530 D0.00000 ; ->L1.1610004306631356 ->E0.1853 ->D0.0 ;  fill
G1 X98.333 Y67.493 E1.05810 D0.00000 ; ->L6.631954538444901 ->E1.0581 ->D0.0 ;  fill
G1 X97.170 Y67.492 E0.18560 D0.00000 ; ->L1.1630004299225312 ->E0.1856 ->D0.0 ;  fill
G1 X93.643 Y63.965 E0.79583 D0.00000 ; ->L4.987931234489908 ->E0.79583 ->D0.0 ;  fill
G1 X93.642 Y65.126 E0.18530 D0.00000 ; ->L1.161000430663143 ->E0.1853 ->D0.0 ;  fill
G1 X95.347 Y66.831 E0.38477 D0.00000 ; ->L2.411926405095852 ->E0.38476997317790973 ->D0.0 ; retract trigger split segment - before start of nozzle close
G1 X96.007 Y67.491 B0.752 ; ->L0.9326886699165202  ; ->E0.0  ; Ejection volume
G1 X94.843 Y67.490 B0.443 ; ->L1.1640004295531867  ; ->E0.0  ; Ejection volume
G1 X93.666 Y66.313 B0.000 ; ->L1.664294189335594  ; ->E0.0  ; Ejection volume
G1 X93.641 Y66.288 ; ->0.03559051263686372  ; Wipe
G1 X93.640 Y67.449 ; ->1.161000430663143  ; Wipe
G1 X93.680 Y67.489 ; ->0.05656854249493265  ; Wipe
G1 E-0.05000 D0.00000 F1200.000 ;  retract
G1 X111.341 Y51.164 F12000.000 ; ->24.05029201485919  ;  move to first fill point
G1 B1.0 ; unretract trigger
G1 E0.85000 D0.00000 F1200.000 ;  compensate retraction
G1 X112.554 Y50.465 E0.32305 D0.00000 F1080.000 ; ->L1.399989285673293 ->E0.32305 ->D0.0 ;  fill
G1 X151.795 Y50.496 E9.05498 D0.00000 ; ->L39.24109508516773 ->E9.05497997317791 ->D0.0 ; retract trigger split segment - before start of nozzle close
G1 X154.395 Y50.498 B0.000 ; ->L2.6001888525898194  ; ->E0.0  ; Ejection volume
G1 X155.262 Y50.499 ; ->0.8667295960044757  ; Wipe
G1 E-0.05000 D0.00000 F1200.000 ;  retract
G1 X157.072 Y77.501 F12000.000 ; ->27.06259603216218  ;  move to first fill point
G1 B1.0 ; unretract trigger
G1 E0.85000 D0.00000 F1200.000 ;  compensate retraction
G1 X111.724 Y77.464 E9.66417 D0.00000 F1080.000 ; ->L41.881097671226044 ->E9.66416997317791 ->D0.0 ; retract trigger split segment - before start of nozzle close
G1 X111.724 Y77.464 B0.000 F1080.000 ; ->L2.6001880835085966  ; ->E0.0  ; Ejection volume
G1 X111.724 Y77.464 F1080.000 ; ->0.8667293396440761  ; Wipe
G1 E-0.05000 D0.00000 F1200.000 ;  retract
G1 X158.772 Y59.210 F12000.000 ; ->50.465065342274144  ;  move to first perimeter point
G1 B1.0 ; unretract trigger
G1 E0.85000 D0.00000 F1200.000 ;  compensate retraction
G1 X164.043 Y50.098 E1.67942 D0.00000 F1080.000 ; ->L10.526727174198076 ->E1.67942 ->D0.0 ;  perimeter
G1 X164.047 Y45.617 E0.71501 D0.00000 ; ->L4.481001785315423 ->E0.71501 ->D0.0 ;  perimeter
G1 X164.051 Y40.731 E0.77948 D0.00000 ; ->L4.886001637330871 ->E0.77948 ->D0.0 ;  perimeter
G1 X158.795 Y31.610 E1.67942 D0.00000 ; ->L10.527021278595386 ->E1.67942 ->D0.0 ;  perimeter
G1 X160.065 Y31.611 E0.20264 D0.00000 ; ->L1.2700003937007365 ->E0.20264 ->D0.0 ;  perimeter
G1 X165.657 Y41.316 E1.78696 D0.00000 ; ->L11.200780731716883 ->E1.78696 ->D0.0 ;  perimeter
G1 X177.150 Y41.325 E1.83358 D0.00000 ; ->L11.493003523883557 ->E1.83358 ->D0.0 ;  perimeter
G1 X177.143 Y49.525 E1.30824 D0.00000 ; ->L8.200002987804329 ->E1.30824 ->D0.0 ;  perimeter
G1 X165.651 Y49.516 E1.83358 D0.00000 ; ->L11.492003524190192 ->E1.83358 ->D0.0 ;  perimeter
G1 X160.042 Y59.211 E1.78696 D0.00000 ; ->L11.20062078636716 ->E1.78696 ->D0.0 ;  perimeter
G1 X158.892 Y59.210 E0.18350 D0.00000 ; ->L1.150000434782532 ->E0.1835 ->D0.0 ;  perimeter
G1 X158.658 Y57.810 F12000.000 ; ->1.419421008721514  ;  move to first perimeter point
G1 X163.243 Y49.883 E1.46100 D0.00000 F1080.000 ; ->L9.157486227125874 ->E1.461 ->D0.0 ;  perimeter
G1 X163.247 Y45.616 E0.68081 D0.00000 ; ->L4.2670018748531175 ->E0.68081 ->D0.0 ;  perimeter
G1 X163.250 Y40.945 E0.74528 D0.00000 ; ->L4.6710009633910365 ->E0.74528 ->D0.0 ;  perimeter
G1 X158.678 Y33.010 E1.46100 D0.00000 ; ->L9.157915101157036 ->E1.461 ->D0.0 ;  perimeter
G1 X112.757 Y32.973 E7.32634 D0.00000 ; ->L45.92101490603185 ->E7.32634 ->D0.0 ;  perimeter
G1 X112.759 Y30.773 E0.35099 D0.00000 ; ->L2.2000009090907207 ->E0.35099 ->D0.0 ;  perimeter
G1 X160.527 Y30.812 E7.62109 D0.00000 ; ->L47.76801592069739 ->E7.62109 ->D0.0 ;  perimeter
G1 X166.120 Y40.516 E1.78696 D0.00000 ; ->L11.200413608434294 ->E1.78696 ->D0.0 ;  perimeter
G1 X177.951 Y40.526 E1.88752 D0.00000 ; ->L11.831004226184678 ->E1.88752 ->D0.0 ;  perimeter
G1 X177.943 Y50.326 E1.56351 D0.00000 ; ->L9.800003265305575 ->E1.56351 ->D0.0 ;  perimeter
G1 X166.112 Y50.316 E1.88752 D0.00000 ; ->L11.831004226184708 ->E1.88752 ->D0.0 ;  perimeter
G1 X160.504 Y60.012 E1.78696 D0.00000 ; ->L11.200985670913074 ->E1.78696 ->D0.0 ;  perimeter
G1 X112.735 Y59.973 E7.62109 D0.00000 ; ->L47.769015920364104 ->E7.62109 ->D0.0 ;  perimeter
G1 X112.737 Y57.773 E0.35099 D0.00000 ; ->L2.200000909090717 ->E0.35099 ->D0.0 ;  perimeter
G1 X158.538 Y57.810 E7.30719 D0.00000 ; ->L45.80101494508611 ->E7.30719 ->D0.0 ;  perimeter
G1 X159.409 Y58.084 F12000.000 ; ->0.913081047881275  ;  move inwards before travel
G1 X158.888 Y58.210 F12000.000 ; ->0.536019589194262  ;  move to first fill point
G1 X157.675 Y58.909 E0.32305 D0.00000 F1080.000 ; ->L1.3999892856732805 ->E0.32305 ->D0.0 ;  fill
G1 X118.434 Y58.877 E9.05498 D0.00000 ; ->L39.2410958274028 ->E9.05497997317791 ->D0.0 ; retract trigger split segment - before start of nozzle close
G1 X115.834 Y58.875 B0.000 ; ->L2.6001889017717135  ; ->E0.0  ; Ejection volume
G1 X114.967 Y58.874 ; ->0.8667296123984399  ; Wipe
G1 E-0.05000 D0.00000 F1200.000 ;  retract
G1 X164.603 Y49.699 F12000.000 ; ->50.476857281332414  ;  move to first fill point
G1 B1.0 ; unretract trigger
G1 E0.85000 D0.00000 F1200.000 ;  compensate retraction
G1 X164.652 Y49.747 E0.01090 D0.00000 F1080.000 ; ->L0.06859300255855574 ->E0.0109 ->D0.0 ;  fill
G1 X165.216 Y49.149 E0.13119 D0.00000 ; ->L0.8220097323024971 ->E0.13119 ->D0.0 ;  fill
G1 X164.604 Y48.538 E0.13798 D0.00000 ; ->L0.86479188247809 ->E0.13798 ->D0.0 ;  fill
G1 X164.605 Y47.376 E0.18530 D0.00000 ; ->L1.1620004302925182 ->E0.1853 ->D0.0 ;  fill
G1 X166.185 Y48.956 E0.35651 D0.00000 ; ->L2.234457428549503 ->E0.35651 ->D0.0 ;  fill
G1 X167.349 Y48.957 E0.18560 D0.00000 ; ->L1.1640004295531725 ->E0.1856 ->D0.0 ;  fill
G1 X164.606 Y46.215 E0.61878 D0.00000 ; ->L3.878480759266437 ->E0.61878 ->D0.0 ;  fill
G1 X164.607 Y45.053 E0.18530 D0.00000 ; ->L1.1620004302925253 ->E0.1853 ->D0.0 ;  fill
G1 X168.512 Y48.958 E0.88105 D0.00000 ; ->L5.5225039610669375 ->E0.88105 ->D0.0 ;  fill
G1 X169.675 Y48.959 E0.18560 D0.00000 ; ->L1.1630004299225454 ->E0.1856 ->D0.0 ;  fill
G1 X164.608 Y43.892 E1.14331 D0.00000 ; ->L7.165820120544478 ->E1.14331 ->D0.0 ;  fill
G1 X164.609 Y42.730 E0.18530 D0.00000 ; ->L1.1620004302925253 ->E0.1853 ->D0.0 ;  fill
G1 X170.839 Y48.960 E1.40558 D0.00000 ; ->L8.810550493584378 ->E1.40558 ->D0.0 ;  fill
G1 X172.002 Y48.961 E0.18560 D0.00000 ; ->L1.1630004299225454 ->E0.1856 ->D0.0 ;  fill
G1 X164.610 Y41.569 E1.66785 D0.00000 ; ->L10.453866653061914 ->E1.66785 ->D0.0 ;  fill
G1 X166.079 Y41.876 E0.23953 D0.00000 ; ->L1.5007364858628511 ->E0.23953 ->D0.0 ;  fill
G1 X173.165 Y48.962 E1.59874 D0.00000 ; ->L10.021117302975744 ->E1.59874 ->D0.0 ;  fill
G1 X174.329 Y48.963 E0.18560 D0.00000 ; ->L1.164000429553201 ->E0.1856 ->D0.0 ;  fill
G1 X167.243 Y41.877 E1.59874 D0.00000 ; ->L10.021117302975759 ->E1.59874 ->D0.0 ;  fill
G1 X168.406 Y41.878 E0.18560 D0.00000 ; ->L1.1630004299225454 ->E0.1856 ->D0.0 ;  fill
G1 X175.492 Y48.964 E1.59874 D0.00000 ; ->L10.021117302975739 ->E1.59874 ->D0.0 ;  fill
G1 X176.584 Y48.893 E0.17457 D0.00000 ; ->L1.0943057159679044 ->E0.17457 ->D0.0 ;  fill
G1 X169.569 Y41.879 E1.58263 D0.00000 ; ->L9.920001058467697 ->E1.58263 ->D0.0 ;  fill
G1 X170.733 Y41.880 E0.18560 D0.00000 ; ->L1.164000429553201 ->E0.1856 ->D0.0 ;  fill
G1 X176.585 Y47.732 E1.32036 D0.00000 ; ->L8.275977767007353 ->E1.32036 ->D0.0 ;  fill
G1 X176.586 Y46.571 E0.18530 D0.00000 ; ->L1.161000430663143 ->E0.1853 ->D0.0 ;  fill
G1 X171.896 Y41.881 E1.05810 D0.00000 ; ->L6.632661607529832 ->E1.0581 ->D0.0 ;  fill
G1 X173.060 Y41.882 E0.18560 D0.00000 ; ->L1.164000429553201 ->E0.1856 ->D0.0 ;  fill
G1 X176.587 Y45.409 E0.79583 D0.00000 ; ->L4.987931234489897 ->E0.79583 ->D0.0 ;  fill
G1 X176.588 Y44.248 E0.18530 D0.00000 ; ->L1.161000430663143 ->E0.1853 ->D0.0 ;  fill
G1 X174.882 Y42.542 E0.38478 D0.00000 ; ->L2.411989089987416 ->E0.3847799731779098 ->D0.0 ; retract trigger split segment - before start of nozzle close
G1 X174.223 Y41.883 B0.752 ; ->L0.9326259850249364  ; ->E0.0  ; Ejection volume
G1 X175.386 Y41.884 B0.443 ; ->L1.163000429922517  ; ->E0.0  ; Ejection volume
G1 X176.564 Y43.061 B0.000 ; ->L1.6650493207311525  ; ->E0.0  ; Ejection volume
G1 X176.589 Y43.086 ; ->0.03554263503013553  ; Wipe
G1 X176.590 Y41.925 ; ->1.161000430663143  ; Wipe
G1 X176.550 Y41.885 ; ->0.05656854249491757  ; Wipe
G1 E-0.05000 D0.00000 F1200.000 ;  retract
G1 X158.506 Y31.910 F12000.000 ; ->20.617627433824687  ;  move to first fill point
G1 B1.0 ; unretract trigger
G1 E0.85000 D0.00000 F1200.000 ;  compensate retraction
G1 X113.158 Y31.873 E9.66417 D0.00000 F1080.000 ; ->L41.881097671226044 ->E9.66416997317791 ->D0.0 ; retract trigger split segment - before start of nozzle close
G1 X113.158 Y31.873 B0.000 F1080.000 ; ->L2.6001880835085966  ; ->E0.0  ; Ejection volume
G1 X113.158 Y31.873 F1080.000 ; ->0.8667293396440761  ; Wipe
G1 E-0.05000 D0.00000 F1200.000 ;  retract
G1 X118.689 Y45.316 F12000.000 ; ->14.536375407920639  ;  move to first perimeter point
G1 B1.0 ; unretract trigger
G1 E0.85000 D0.00000 F1200.000 ;  compensate retraction
G1 X107.197 Y45.316 E1.83358 D0.00000 F1080.000 ; ->L11.49199999999999 ->E1.83358 ->D0.0 ;  perimeter
G1 X101.596 Y55.016 E1.78696 D0.00000 ; ->L11.200946433226074 ->E1.78696 ->D0.0 ;  perimeter
G1 X91.589 Y55.015 E1.59651 D0.00000 ; ->L10.00700004996503 ->E1.59651 ->D0.0 ;  perimeter
G1 X91.590 Y31.912 E3.68589 D0.00000 ; ->L23.103000021642213 ->E3.68589 ->D0.0 ;  perimeter
G1 X91.590 Y27.415 E0.71745 D0.00000 ; ->L4.497 ->E0.71745 ->D0.0 ;  perimeter
G1 X101.597 Y27.416 E1.59651 D0.00000 ; ->L10.007000049965015 ->E1.59651 ->D0.0 ;  perimeter
G1 X107.197 Y37.116 E1.78696 D0.00000 ; ->L11.200446419674535 ->E1.78696 ->D0.0 ;  perimeter
G1 X118.690 Y37.116 E1.83358 D0.00000 ; ->L11.492999999999995 ->E1.83358 ->D0.0 ;  perimeter
G1 X118.690 Y40.182 E0.48909 D0.00000 ; ->L3.065609859313919 ->E0.4890899731779099 ->D0.0 ; retract trigger split segment - before start of nozzle close
G1 X118.689 Y43.942 B0.000 ; ->L3.7607926752755234  ; ->E0.0  ; Ejection volume
G1 X118.689 Y45.196 ; ->1.253597527291744  ; Wipe
G1 E-0.05000 D0.00000 F1200.000 ;  retract
G1 X90.789 Y53.615 F12000.000 ; ->29.142572998964926  ;  move to first perimeter point
G1 B1.0 ; unretract trigger
G1 E0.85000 D0.00000 F1200.000 ;  compensate retraction
G1 X90.790 Y28.815 E3.95663 D0.00000 F1080.000 ; ->L24.800000020161292 ->E3.95663 ->D0.0 ;  perimeter
G1 X54.290 Y28.815 E5.82326 D0.00000 ; ->L36.50000000000001 ->E5.82326 ->D0.0 ;  perimeter
G1 X54.290 Y26.615 E0.35099 D0.00000 ; ->L2.200000000000003 ->E0.35099 ->D0.0 ;  perimeter
G1 X102.058 Y26.616 E7.62109 D0.00000 ; ->L47.76800001046726 ->E7.62109 ->D0.0 ;  perimeter
G1 X107.659 Y36.316 E1.78696 D0.00000 ; ->L11.20094643322608 ->E1.78696 ->D0.0 ;  perimeter
G1 X119.490 Y36.316 E1.88752 D0.00000 ; ->L11.830999999999989 ->E1.88752 ->D0.0 ;  perimeter
G1 X119.489 Y46.116 E1.56351 D0.00000 ; ->L9.800000051020405 ->E1.56351 ->D0.0 ;  perimeter
G1 X107.658 Y46.116 E1.88752 D0.00000 ; ->L11.831000000000003 ->E1.88752 ->D0.0 ;  perimeter
G1 X102.058 Y55.816 E1.78696 D0.00000 ; ->L11.20044641967453 ->E1.78696 ->D0.0 ;  perimeter
G1 X54.289 Y55.815 E7.62109 D0.00000 ; ->L47.769000010467046 ->E7.62109 ->D0.0 ;  perimeter
G1 X54.289 Y53.615 E0.35099 D0.00000 ; ->L2.1999999999999957 ->E0.35099 ->D0.0 ;  perimeter
G1 X90.669 Y53.615 E5.80411 D0.00000 ; ->L36.379999999999995 ->E5.80411 ->D0.0 ;  perimeter
G1 X91.589 Y53.615 F12000.000 ; ->0.9200000000000017  ;  move inwards before travel
G1 X92.149 Y54.415 F12000.000 ; ->0.9765244492586952  ;  move to first fill point
G1 X92.189 Y54.455 E0.00902 D0.00000 F1080.000 ; ->L0.05656854249491757 ->E0.00902 ->D0.0 ;  fill
G1 X93.343 Y54.455 E0.18404 D0.00000 ; ->L1.1540000000000106 ->E0.18404 ->D0.0 ;  fill
G1 X92.149 Y53.262 E0.26929 D0.00000 ; ->L1.6878640348084917 ->E0.26929 ->D0.0 ;  fill
G1 X92.149 Y52.108 E0.18403 D0.00000 ; ->L1.1540000000000035 ->E0.18403 ->D0.0 ;  fill
G1 X94.496 Y54.456 E0.52955 D0.00000 ; ->L3.3198664129750766 ->E0.52955 ->D0.0 ;  fill
G1 X95.650 Y54.456 E0.18404 D0.00000 ; ->L1.1540000000000106 ->E0.18404 ->D0.0 ;  fill
G1 X92.149 Y50.955 E0.78981 D0.00000 ; ->L4.9511616818682125 ->E0.78981 ->D0.0 ;  fill
G1 X92.149 Y49.801 E0.18403 D0.00000 ; ->L1.1539999999999964 ->E0.18403 ->D0.0 ;  fill
G1 X96.803 Y54.456 E1.05007 D0.00000 ; ->L6.582457064045308 ->E1.05007 ->D0.0 ;  fill
G1 X97.957 Y54.456 E0.18404 D0.00000 ; ->L1.1539999999999964 ->E0.18404 ->D0.0 ;  fill
G1 X92.149 Y48.648 E1.31033 D0.00000 ; ->L8.213752370262931 ->E1.31033 ->D0.0 ;  fill
G1 X92.149 Y47.495 E0.18403 D0.00000 ; ->L1.1530000000000058 ->E0.18403 ->D0.0 ;  fill
G1 X99.110 Y54.456 E1.57059 D0.00000 ; ->L9.844340607679117 ->E1.57059 ->D0.0 ;  fill
G1 X100.264 Y54.456 E0.18404 D0.00000 ; ->L1.1539999999999964 ->E0.18404 ->D0.0 ;  fill
G1 X92.149 Y46.341 E1.83086 D0.00000 ; ->L11.476343058657665 ->E1.83086 ->D0.0 ;  fill
G1 X92.149 Y45.188 E0.18403 D0.00000 ; ->L1.1529999999999987 ->E0.18403 ->D0.0 ;  fill
G1 X101.326 Y54.364 E2.07043 D0.00000 ; ->L12.977530774380764 ->E2.07043 ->D0.0 ;  fill
G1 X101.748 Y53.633 E0.13472 D0.00000 ; ->L0.8440645709896853 ->E0.13472 ->D0.0 ;  fill
G1 X92.149 Y44.034 E2.16569 D0.00000 ; ->L13.575035985219344 ->E2.16569 ->D0.0 ;  fill
G1 X92.149 Y42.881 E0.18403 D0.00000 ; ->L1.1529999999999987 ->E0.18403 ->D0.0 ;  fill
G1 X102.170 Y52.901 E2.26095 D0.00000 ; ->L14.171127019401107 ->E2.26095 ->D0.0 ;  fill
G1 X102.592 Y52.170 E0.13472 D0.00000 ; ->L0.8440645709896843 ->E0.13472 ->D0.0 ;  fill
G1 X92.149 Y41.727 E2.35621 D0.00000 ; ->L14.768632231862235 ->E2.35621 ->D0.0 ;  fill
G1 X92.150 Y40.574 E0.18403 D0.00000 ; ->L1.1530004336512614 ->E0.18403 ->D0.0 ;  fill
G1 X103.015 Y51.439 E2.45147 D0.00000 ; ->L15.365430355183676 ->E2.45147 ->D0.0 ;  fill
G1 X103.437 Y50.707 E0.13472 D0.00000 ; ->L0.8449307663944996 ->E0.13472 ->D0.0 ;  fill
G1 X92.150 Y39.420 E2.54673 D0.00000 ; ->L15.962228478505118 ->E2.54673 ->D0.0 ;  fill
G1 X92.150 Y38.267 E0.18403 D0.00000 ; ->L1.1529999999999987 ->E0.18403 ->D0.0 ;  fill
G1 X103.859 Y49.976 E2.64199 D0.00000 ; ->L16.55902660182656 ->E2.64199 ->D0.0 ;  fill
G1 X104.281 Y49.245 E0.13472 D0.00000 ; ->L0.8440645709896916 ->E0.13472 ->D0.0 ;  fill
G1 X92.150 Y37.113 E2.73725 D0.00000 ; ->L17.15653184650091 ->E2.73725 ->D0.0 ;  fill
G1 X92.150 Y35.960 E0.18403 D0.00000 ; ->L1.1529999999999987 ->E0.18403 ->D0.0 ;  fill
G1 X104.704 Y48.514 E2.83251 D0.00000 ; ->L17.754037062031827 ->E2.83251 ->D0.0 ;  fill
G1 X105.126 Y47.782 E0.13472 D0.00000 ; ->L0.8449307663945128 ->E0.13472 ->D0.0 ;  fill
G1 X92.150 Y34.806 E2.92777 D0.00000 ; ->L18.35083518535328 ->E2.92777 ->D0.0 ;  fill
G1 X92.150 Y33.653 E0.18403 D0.00000 ; ->L1.1529999999999987 ->E0.18403 ->D0.0 ;  fill
G1 X105.548 Y47.051 E3.02303 D0.00000 ; ->L18.947633308674725 ->E3.02303 ->D0.0 ;  fill
G1 X105.970 Y46.320 E0.13472 D0.00000 ; ->L0.8440645709896843 ->E0.13472 ->D0.0 ;  fill
G1 X92.150 Y32.499 E3.11829 D0.00000 ; ->L19.545138551568257 ->E3.11829 ->D0.0 ;  fill
G1 X92.150 Y31.346 E0.18403 D0.00000 ; ->L1.1530000000000022 ->E0.18403 ->D0.0 ;  fill
G1 X106.393 Y45.588 E3.21355 D0.00000 ; ->L20.141936674510717 ->E3.21355 ->D0.0 ;  fill
G1 X106.815 Y44.857 E0.13472 D0.00000 ; ->L0.8440645709896843 ->E0.13472 ->D0.0 ;  fill
G1 X92.150 Y30.192 E3.30882 D0.00000 ; ->L20.739441892201434 ->E3.30882 ->D0.0 ;  fill
G1 X92.150 Y29.039 E0.18403 D0.00000 ; ->L1.1529999999999987 ->E0.18403 ->D0.0 ;  fill
G1 X107.867 Y44.756 E3.54618 D0.00000 ; ->L22.22719455981793 ->E3.54618 ->D0.0 ;  fill
G1 X109.020 Y44.756 E0.18404 D0.00000 ; ->L1.1529999999999916 ->E0.18404 ->D0.0 ;  fill
G1 X92.240 Y27.975 E3.78606 D0.00000 ; ->L23.731210693936372 ->E3.78606 ->D0.0 ;  fill
G1 X93.394 Y27.975 E0.18404 D0.00000 ; ->L1.1540000000000106 ->E0.18404 ->D0.0 ;  fill
G1 X110.174 Y44.756 E3.78606 D0.00000 ; ->L23.731210693936372 ->E3.78606 ->D0.0 ;  fill
G1 X111.327 Y44.756 E0.18404 D0.00000 ; ->L1.1529999999999916 ->E0.18404 ->D0.0 ;  fill
G1 X94.547 Y27.975 E3.78606 D0.00000 ; ->L23.731210693936372 ->E3.78606 ->D0.0 ;  fill
G1 X95.701 Y27.975 E0.18404 D0.00000 ; ->L1.1539999999999964 ->E0.18404 ->D0.0 ;  fill
G1 X112.481 Y44.756 E3.78606 D0.00000 ; ->L23.731210693936372 ->E3.78606 ->D0.0 ;  fill
G1 X113.634 Y44.756 E0.18404 D0.00000 ; ->L1.1530000000000058 ->E0.18404 ->D0.0 ;  fill
G1 X96.854 Y27.976 E3.78606 D0.00000 ; ->L23.73050357662054 ->E3.78606 ->D0.0 ;  fill
G1 X100.315 Y27.976 F12000.000 ; ->3.4609999999999985  ;  move to first fill point
G1 X102.583 Y30.243 E0.51167 D0.00000 F1080.000 ; ->L3.2067293306420486 ->E0.51167 ->D0.0 ;  fill
G1 X104.158 Y32.972 F12000.000 ; ->3.1508833682001023  ;  move to first fill point
G1 X99.161 Y27.976 E1.12744 D0.00000 F1080.000 ; ->L7.066118099777276 ->E1.12744 ->D0.0 ;  fill
G1 X98.008 Y27.976 E0.18404 D0.00000 ; ->L1.1530000000000058 ->E0.18404 ->D0.0 ;  fill
G1 X105.734 Y35.702 E1.74320 D0.00000 ; ->L10.92621398289453 ->E1.7432 ->D0.0 ;  fill
G1 X107.708 Y37.676 F12000.000 ; ->2.791657572124495  ;  move to first fill point
G1 X114.788 Y44.756 E1.59746 D0.00000 F1080.000 ; ->L10.01263202160151 ->E1.59746 ->D0.0 ;  fill
G1 X115.941 Y44.756 E0.18404 D0.00000 ; ->L1.1530000000000058 ->E0.18404 ->D0.0 ;  fill
G1 X108.861 Y37.676 E1.59746 D0.00000 ; ->L10.01263202160151 ->E1.59746 ->D0.0 ;  fill
G1 X110.015 Y37.676 E0.18404 D0.00000 ; ->L1.1539999999999964 ->E0.18404 ->D0.0 ;  fill
G1 X117.095 Y44.756 E1.59746 D0.00000 ; ->L10.01263202160151 ->E1.59746 ->D0.0 ;  fill
G1 X118.129 Y44.637 E0.16613 D0.00000 ; ->L1.0408251534239612 ->E0.16613 ->D0.0 ;  fill
G1 X111.168 Y37.676 E1.57060 D0.00000 ; ->L9.844340607679111 ->E1.5706 ->D0.0 ;  fill
G1 X112.322 Y37.676 E0.18404 D0.00000 ; ->L1.1539999999999964 ->E0.18404 ->D0.0 ;  fill
G1 X118.129 Y43.483 E1.31033 D0.00000 ; ->L8.21233815670056 ->E1.31033 ->D0.0 ;  fill
G1 X118.130 Y42.330 E0.18403 D0.00000 ; ->L1.1530004336512614 ->E0.18403 ->D0.0 ;  fill
G1 X113.475 Y37.676 E1.05007 D0.00000 ; ->L6.582457064045308 ->E1.05007 ->D0.0 ;  fill
G1 X114.629 Y37.676 E0.18404 D0.00000 ; ->L1.1540000000000106 ->E0.18404 ->D0.0 ;  fill
G1 X118.130 Y41.176 E0.78981 D0.00000 ; ->L4.950454625587425 ->E0.78981 ->D0.0 ;  fill
G1 X118.130 Y40.023 E0.18403 D0.00000 ; ->L1.1529999999999987 ->E0.18403 ->D0.0 ;  fill
G1 X115.783 Y37.676 E0.52955 D0.00000 ; ->L3.319159230889651 ->E0.52955 ->D0.0 ;  fill
G1 X116.936 Y37.676 E0.18404 D0.00000 ; ->L1.1530000000000058 ->E0.18404 ->D0.0 ;  fill
G1 X118.130 Y38.869 E0.26929 D0.00000 ; ->L1.6878640348084817 ->E0.26929 ->D0.0 ;  fill
G1 X118.130 Y37.716 E0.18403 D0.00000 ; ->L1.1529999999999987 ->E0.18403 ->D0.0 ;  fill
G1 X118.090 Y37.676 E0.00903 D0.00000 ; ->L0.05656854249491757 ->E0.00903 ->D0.0 ;  fill
G1 X91.189 Y54.715 F12000.000 ; ->31.84323039517192  ;  move to first fill point
G1 X63.316 Y52.982 E7.06351 D0.00000 F1080.000 ; ->L30.610151110125575 ->E7.06350997317791 ->D0.0 ; retract trigger split segment - before start of nozzle close
G1 X58.663 Y54.282 B0.000 F1080.000 ; ->L2.6001366835495827  ; ->E0.0  ; Ejection volume
G1 X57.112 Y54.715 F1080.000 ; ->0.8667122063248327  ; Wipe
G1 E-0.05000 D0.00000 F1200.000 ;  retract
G1 X54.690 Y27.715 F12000.000 ; ->27.108413527906798  ;  move to first fill point
G1 B1.0 ; unretract trigger
G1 E0.85000 D0.00000 F1200.000 ;  compensate retraction
G1 X91.190 Y27.715 E7.62247 D0.00000 F1080.000 ; ->L33.0330834091417 ->E7.62246997317791 ->D0.0 ; retract trigger split segment - before start of nozzle close
G1 X91.190 Y27.715 B0.000 F1080.000 ; ->L2.6001874592878114  ; ->E0.0  ; Ejection volume
G1 X91.190 Y27.715 F1080.000 ; ->0.8667291315704853  ; Wipe
G1 E-0.05000 D0.00000 F1200.000 ;  retract
G1 X32.883 Y53.803 F12000.000 ; ->63.87714765861105  ;  move to first perimeter point
G1 B1.0 ; unretract trigger
G1 E0.85000 D0.00000 F1200.000 ;  compensate retraction
G1 X38.483 Y44.103 E1.78696 D0.00000 F1080.000 ; ->L11.200446419674524 ->E1.78696 ->D0.0 ;  perimeter
G1 X48.490 Y44.103 E1.59651 D0.00000 ; ->L10.007000000000005 ->E1.59651 ->D0.0 ;  perimeter
G1 X48.489 Y71.703 E4.40334 D0.00000 ; ->L27.600000018115942 ->E4.40334 ->D0.0 ;  perimeter
G1 X38.483 Y71.703 E1.59651 D0.00000 ; ->L10.006 ->E1.59651 ->D0.0 ;  perimeter
G1 X32.882 Y62.003 E1.78696 D0.00000 ; ->L11.20094643322608 ->E1.78696 ->D0.0 ;  perimeter
G1 X21.390 Y62.003 E1.83358 D0.00000 ; ->L11.491999999999997 ->E1.83358 ->D0.0 ;  perimeter
G1 X21.390 Y53.803 E1.30824 D0.00000 ; ->L8.200000000000003 ->E1.30824 ->D0.0 ;  perimeter
G1 X32.763 Y53.803 E1.81443 D0.00000 ; ->L11.372999999999998 ->E1.81443 ->D0.0 ;  perimeter
G1 X32.421 Y53.003 F12000.000 ; ->0.8700367808317041  ;  move to first perimeter point
G1 X38.021 Y43.303 E1.78696 D0.00000 F1080.000 ; ->L11.200446419674533 ->E1.78696 ->D0.0 ;  perimeter
G1 X85.790 Y43.304 E7.62109 D0.00000 ; ->L47.769000010467046 ->E7.62109 ->D0.0 ;  perimeter
G1 X85.790 Y45.504 E0.35099 D0.00000 ; ->L2.1999999999999957 ->E0.35099 ->D0.0 ;  perimeter
G1 X49.290 Y45.503 E5.82326 D0.00000 ; ->L36.50000001369864 ->E5.82326 ->D0.0 ;  perimeter
G1 X49.289 Y70.303 E3.95662 D0.00000 ; ->L24.80000002016129 ->E3.95662 ->D0.0 ;  perimeter
G1 X85.789 Y70.304 E5.82326 D0.00000 ; ->L36.50000001369863 ->E5.82326 ->D0.0 ;  perimeter
G1 X85.789 Y72.504 E0.35099 D0.00000 ; ->L2.200000000000003 ->E0.35099 ->D0.0 ;  perimeter
G1 X38.021 Y72.503 E7.62109 D0.00000 ; ->L47.76800001046726 ->E7.62109 ->D0.0 ;  perimeter
G1 X32.421 Y62.803 E1.78696 D0.00000 ; ->L11.200446419674533 ->E1.78696 ->D0.0 ;  perimeter
G1 X20.590 Y62.803 E1.88752 D0.00000 ; ->L11.831 ->E1.88752 ->D0.0 ;  perimeter
G1 X20.590 Y53.003 E1.56350 D0.00000 ; ->L9.799999999999997 ->E1.5635 ->D0.0 ;  perimeter
G1 X32.301 Y53.003 E1.86838 D0.00000 ; ->L11.711000000000002 ->E1.86838 ->D0.0 ;  perimeter
G1 X33.172 Y53.277 F12000.000 ; ->0.9130810478812885  ;  move inwards before travel
G1 X48.889 Y71.403 F12000.000 ; ->23.99116431105419  ;  move to first fill point
G1 X80.346 Y69.656 E7.62247 D0.00000 F1080.000 ; ->L33.033083421539175 ->E7.62246997317791 ->D0.0 ; retract trigger split segment - before start of nozzle close
G1 X84.128 Y70.967 B0.000 F1080.000 ; ->L2.6001874602636743  ; ->E0.0  ; Ejection volume
G1 X85.389 Y71.404 F1080.000 ; ->0.8667291318957728  ; Wipe
G1 E-0.05000 D0.00000 F1200.000 ;  retract
G1 X83.227 Y44.404 F12000.000 ; ->27.086421764419153  ;  move to first fill point
G1 B1.0 ; unretract trigger
G1 E0.85000 D0.00000 F1200.000 ;  compensate retraction
G1 X48.890 Y44.403 E7.92346 D0.00000 F1080.000 ; ->L34.33700001456156 ->E7.92346 ->D0.0 ;  fill
G1 X47.890 Y44.663 F12000.000 ; ->1.0332473082471587  ;  move to first fill point
G1 X47.930 Y44.703 E0.00903 D0.00000 F1080.000 ; ->L0.05656854249492762 ->E0.00903 ->D0.0 ;  fill
G1 X47.930 Y45.857 E0.18403 D0.00000 ; ->L1.1539999999999964 ->E0.18403 ->D0.0 ;  fill
G1 X46.736 Y44.663 E0.26929 D0.00000 ; ->L1.6885709934734792 ->E0.26929 ->D0.0 ;  fill
G1 X45.583 Y44.663 E0.18404 D0.00000 ; ->L1.1529999999999987 ->E0.18404 ->D0.0 ;  fill
G1 X47.930 Y47.010 E0.52955 D0.00000 ; ->L3.3191592308896563 ->E0.52955 ->D0.0 ;  fill
G1 X47.930 Y48.164 E0.18403 D0.00000 ; ->L1.1540000000000035 ->E0.18403 ->D0.0 ;  fill
G1 X44.429 Y44.663 E0.78981 D0.00000 ; ->L4.951161681868207 ->E0.78981 ->D0.0 ;  fill
G1 X43.276 Y44.663 E0.18404 D0.00000 ; ->L1.1529999999999987 ->E0.18404 ->D0.0 ;  fill
G1 X47.930 Y49.317 E1.05007 D0.00000 ; ->L6.581749919284384 ->E1.05007 ->D0.0 ;  fill
G1 X47.930 Y50.471 E0.18403 D0.00000 ; ->L1.1539999999999964 ->E0.18403 ->D0.0 ;  fill
G1 X42.122 Y44.663 E1.31033 D0.00000 ; ->L8.213752370262936 ->E1.31033 ->D0.0 ;  fill
G1 X40.969 Y44.663 E0.18404 D0.00000 ; ->L1.1529999999999987 ->E0.18404 ->D0.0 ;  fill
G1 X47.930 Y51.624 E1.57059 D0.00000 ; ->L9.844340607679117 ->E1.57059 ->D0.0 ;  fill
G1 X47.930 Y52.778 E0.18403 D0.00000 ; ->L1.1539999999999964 ->E0.18403 ->D0.0 ;  fill
G1 X39.815 Y44.663 E1.83086 D0.00000 ; ->L11.476343058657669 ->E1.83086 ->D0.0 ;  fill
G1 X38.753 Y44.755 E0.17004 D0.00000 ; ->L1.0659774856909483 ->E0.17004 ->D0.0 ;  fill
G1 X47.930 Y53.931 E2.07043 D0.00000 ; ->L12.977530774380769 ->E2.07043 ->D0.0 ;  fill
G1 X47.930 Y55.085 E0.18403 D0.00000 ; ->L1.1540000000000035 ->E0.18403 ->D0.0 ;  fill
G1 X38.331 Y45.486 E2.16569 D0.00000 ; ->L13.57503598521934 ->E2.16569 ->D0.0 ;  fill
G1 X37.909 Y46.218 E0.13472 D0.00000 ; ->L0.8449307663945093 ->E0.13472 ->D0.0 ;  fill
G1 X47.930 Y56.238 E2.26095 D0.00000 ; ->L14.1711270194011 ->E2.26095 ->D0.0 ;  fill
G1 X47.930 Y57.392 E0.18403 D0.00000 ; ->L1.1540000000000035 ->E0.18403 ->D0.0 ;  fill
G1 X37.487 Y46.949 E2.35621 D0.00000 ; ->L14.768632231862235 ->E2.35621 ->D0.0 ;  fill
G1 X37.064 Y47.680 E0.13472 D0.00000 ; ->L0.8445649767779884 ->E0.13472 ->D0.0 ;  fill
G1 X47.930 Y58.545 E2.45147 D0.00000 ; ->L15.366137478234407 ->E2.45147 ->D0.0 ;  fill
G1 X47.930 Y59.699 E0.18403 D0.00000 ; ->L1.1539999999999964 ->E0.18403 ->D0.0 ;  fill
G1 X36.642 Y48.411 E2.54673 D0.00000 ; ->L15.963642692067491 ->E2.54673 ->D0.0 ;  fill
G1 X36.220 Y49.143 E0.13472 D0.00000 ; ->L0.8449307663945032 ->E0.13472 ->D0.0 ;  fill
G1 X47.930 Y60.852 E2.64199 D0.00000 ; ->L16.559733723704614 ->E2.64199 ->D0.0 ;  fill
G1 X47.930 Y62.006 E0.18403 D0.00000 ; ->L1.1540000000000035 ->E0.18403 ->D0.0 ;  fill
G1 X35.798 Y49.874 E2.73725 D0.00000 ; ->L17.157238938710385 ->E2.73725 ->D0.0 ;  fill
G1 X35.376 Y50.605 E0.13472 D0.00000 ; ->L0.8440645709896817 ->E0.13472 ->D0.0 ;  fill
G1 X47.930 Y63.159 E2.83251 D0.00000 ; ->L17.754037062031838 ->E2.83251 ->D0.0 ;  fill
G1 X47.930 Y64.313 E0.18403 D0.00000 ; ->L1.1540000000000035 ->E0.18403 ->D0.0 ;  fill
G1 X34.953 Y51.337 E2.92777 D0.00000 ; ->L18.351542305757295 ->E2.92777 ->D0.0 ;  fill
G1 X34.531 Y52.068 E0.13472 D0.00000 ; ->L0.8440645709896817 ->E0.13472 ->D0.0 ;  fill
G1 X47.930 Y65.466 E3.02303 D0.00000 ; ->L18.94834042864968 ->E3.02303 ->D0.0 ;  fill
G1 X47.930 Y66.620 E0.18403 D0.00000 ; ->L1.1540000000000106 ->E0.18403 ->D0.0 ;  fill
G1 X34.109 Y52.799 E3.11830 D0.00000 ; ->L19.54584564555855 ->E3.1183 ->D0.0 ;  fill
G1 X33.687 Y53.530 E0.13472 D0.00000 ; ->L0.8440645709896879 ->E0.13472 ->D0.0 ;  fill
G1 X47.930 Y67.773 E3.21356 D0.00000 ; ->L20.14264376887999 ->E3.21356 ->D0.0 ;  fill
G1 X47.929 Y68.927 E0.18403 D0.00000 ; ->L1.1540004332754925 ->E0.18403 ->D0.0 ;  fill
G1 X33.264 Y54.262 E3.30882 D0.00000 ; ->L20.73944189220144 ->E3.30882 ->D0.0 ;  fill
G1 X32.212 Y54.363 E0.16862 D0.00000 ; ->L1.0568372627798468 ->E0.16862 ->D0.0 ;  fill
G1 X47.929 Y70.080 E3.54618 D0.00000 ; ->L22.22719455981793 ->E3.54618 ->D0.0 ;  fill
G1 X47.839 Y71.143 E0.17023 D0.00000 ; ->L1.0668031683492536 ->E0.17023 ->D0.0 ;  fill
G1 X31.059 Y54.363 E3.78606 D0.00000 ; ->L23.730503576620535 ->E3.78606 ->D0.0 ;  fill
G1 X29.905 Y54.363 E0.18404 D0.00000 ; ->L1.154 ->E0.18404 ->D0.0 ;  fill
G1 X46.686 Y71.143 E3.78606 D0.00000 ; ->L23.731210693936372 ->E3.78606 ->D0.0 ;  fill
G1 X45.532 Y71.143 E0.18404 D0.00000 ; ->L1.1540000000000035 ->E0.18404 ->D0.0 ;  fill
G1 X28.752 Y54.363 E3.78606 D0.00000 ; ->L23.730503576620535 ->E3.78606 ->D0.0 ;  fill
G1 X27.598 Y54.363 E0.18404 D0.00000 ; ->L1.154 ->E0.18404 ->D0.0 ;  fill
G1 X44.379 Y71.143 E3.78606 D0.00000 ; ->L23.731210693936372 ->E3.78606 ->D0.0 ;  fill
G1 X43.225 Y71.143 E0.18404 D0.00000 ; ->L1.1539999999999964 ->E0.18404 ->D0.0 ;  fill
G1 X26.445 Y54.363 E3.78606 D0.00000 ; ->L23.73050357662054 ->E3.78606 ->D0.0 ;  fill
G1 X25.291 Y54.363 E0.18404 D0.00000 ; ->L1.154 ->E0.18404 ->D0.0 ;  fill
G1 X32.371 Y61.443 E1.59746 D0.00000 ; ->L10.012632021601513 ->E1.59746 ->D0.0 ;  fill
G1 X31.218 Y61.443 E0.18404 D0.00000 ; ->L1.1530000000000022 ->E0.18404 ->D0.0 ;  fill
G1 X24.138 Y54.363 E1.59746 D0.00000 ; ->L10.01263202160151 ->E1.59746 ->D0.0 ;  fill
G1 X22.984 Y54.363 E0.18404 D0.00000 ; ->L1.154 ->E0.18404 ->D0.0 ;  fill
G1 X30.064 Y61.443 E1.59746 D0.00000 ; ->L10.01263202160151 ->E1.59746 ->D0.0 ;  fill
G1 X28.911 Y61.443 E0.18404 D0.00000 ; ->L1.1529999999999987 ->E0.18404 ->D0.0 ;  fill
G1 X21.950 Y54.482 E1.57060 D0.00000 ; ->L9.844340607679115 ->E1.5706 ->D0.0 ;  fill
G1 X21.950 Y55.636 E0.18403 D0.00000 ; ->L1.1540000000000035 ->E0.18403 ->D0.0 ;  fill
G1 X27.757 Y61.443 E1.31033 D0.00000 ; ->L8.21233815670056 ->E1.31033 ->D0.0 ;  fill
G1 X26.604 Y61.443 E0.18404 D0.00000 ; ->L1.1530000000000022 ->E0.18404 ->D0.0 ;  fill
G1 X21.950 Y56.789 E1.05007 D0.00000 ; ->L6.581749919284381 ->E1.05007 ->D0.0 ;  fill
G1 X21.950 Y57.943 E0.18403 D0.00000 ; ->L1.1539999999999964 ->E0.18403 ->D0.0 ;  fill
G1 X25.450 Y61.443 E0.78981 D0.00000 ; ->L4.949747468305833 ->E0.78981 ->D0.0 ;  fill
G1 X24.297 Y61.443 E0.18404 D0.00000 ; ->L1.1529999999999987 ->E0.18404 ->D0.0 ;  fill
G1 X21.950 Y59.096 E0.52955 D0.00000 ; ->L3.3191592308896563 ->E0.52955 ->D0.0 ;  fill
G1 X21.950 Y60.250 E0.18403 D0.00000 ; ->L1.1540000000000035 ->E0.18403 ->D0.0 ;  fill
G1 X23.143 Y61.443 E0.26929 D0.00000 ; ->L1.6871567799111018 ->E0.26929 ->D0.0 ;  fill
G1 X21.990 Y61.443 E0.18404 D0.00000 ; ->L1.1530000000000022 ->E0.18404 ->D0.0 ;  fill
G1 X21.950 Y61.403 E0.00902 D0.00000 ; ->L0.056568542494922595 ->E0.00902 ->D0.0 ;  fill
G1 X34.345 Y63.417 F12000.000 ; ->12.557556330751616  ;  move to first fill point
G1 X42.071 Y71.143 E1.74320 D0.00000 F1080.000 ; ->L10.92621398289453 ->E1.7432 ->D0.0 ;  fill
G1 X40.918 Y71.143 E0.18404 D0.00000 ; ->L1.1529999999999987 ->E0.18404 ->D0.0 ;  fill
G1 X37.199 Y67.424 E0.83912 D0.00000 ; ->L5.25962725119932 ->E0.8391199731779101 ->D0.0 ; retract trigger split segment - before start of nozzle close
G1 X35.921 Y66.146 B0.519 ; ->L1.8071979199790356  ; ->E0.0  ; Ejection volume
G1 X37.497 Y68.876 F12000.000 ; ->3.15224935561894  ;  move to first fill point
G1 X38.262 Y69.190 B0.000 F1080.000 ; ->L1.9528865167279568  ; ->E0.0  ; Ejection volume
G1 X39.764 Y71.143 F1080.000 ; ->1.2531356291718492  ; Wipe
G1 E-0.05000 D0.00000 F1200.000 ;  retract
G1 X108.869 Y86.942 F12000.000 ; ->70.88800622108086  ;  move to first perimeter point
G1 B1.0 ; unretract trigger
G1 E0.85000 D0.00000 F1200.000 ;  compensate retraction
G1 X151.469 Y86.928 E6.79646 D0.00000 F1080.000 ; ->L42.60000230046941 ->E6.79646 ->D0.0 ;  perimeter
G1 X151.476 Y108.248 E3.40142 D0.00000 ; ->L21.320001149155697 ->E3.40142 ->D0.0 ;  perimeter
G1 X108.876 Y108.262 E6.79646 D0.00000 ; ->L42.60000230046941 ->E6.79646 ->D0.0 ;  perimeter
G1 X108.869 Y87.062 E3.38228 D0.00000 ; ->L21.20000115566035 ->E3.38228 ->D0.0 ;  perimeter
G1 X108.869 Y86.142 F12000.000 ; ->0.9200000000000017  ;  move inwards before travel
G1 X108.169 Y86.943 F12000.000 ; ->1.0637673617854644  ;  move to first perimeter point
G1 X108.176 Y108.263 E3.40142 D0.00000 F1080.000 ; ->L21.320001149155697 ->E3.40142 ->D0.0 ;  perimeter
G1 X88.885 Y108.269 E3.07767 D0.00000 ; ->L19.291000933077576 ->E3.07767 ->D0.0 ;  perimeter
G1 X88.878 Y86.949 E3.40142 D0.00000 ; ->L21.320001149155697 ->E3.40142 ->D0.0 ;  perimeter
G1 X108.049 Y86.943 E3.05853 D0.00000 ; ->L19.17100093891814 ->E3.05853 ->D0.0 ;  perimeter
G1 X108.969 Y86.942 F12000.000 ; ->0.9200005434780878  ;  move inwards before travel
G1 X88.138 Y86.209 F12000.000 ; ->20.843892390817977  ;  move to first perimeter point
G1 X152.209 Y86.188 E10.22193 D0.00000 F1080.000 ; ->L64.0710034414945 ->E10.22193 ->D0.0 ;  perimeter
G1 X152.216 Y108.988 E3.63754 D0.00000 ; ->L22.800001074561376 ->E3.63754 ->D0.0 ;  perimeter
G1 X88.146 Y109.009 E10.22193 D0.00000 ; ->L64.07000344154822 ->E10.22193 ->D0.0 ;  perimeter
G1 X88.140 Y91.343 E2.81840 D0.00000 ; ->L17.6656299381642 ->E2.8183999731779097 ->D0.0 ; closing nozzle after forced nozzle select on layer 0 split segment - before start of nozzle close
G1 X88.138 Y87.583 B0.000 ; ->L3.7607786279278668  ; ->E0.0  ; Ejection volume
G1 X88.138 Y86.329 ; ->1.253592844842641  ; Wipe
G1 X88.831 Y86.609 F12000.000 ; ->0.7474282574267563  ;  move inwards before travel
M104 ; take post layer 1 nozzle temperature from loaded reel - don't wait
M140 ; take post layer 1 bed temperature from loaded reel - don't wait
T1 ; return to intended nozzle
G1 Z0.500 F12000.000 ;  move to next layer (1)
G1 E-0.05000 D0.00000 F1200.000 ;  retract
G1 X80.641 Y118.199 F12000.000 ; ->32.63440209349637  ;  move to first perimeter point
G1 B1.0 ; unretract trigger
G1 E0.85000 D0.00000 F1200.000 ;  compensate retraction
G1 X59.831 Y118.235 E4.98008 D0.00000 F2100.000 ; ->L20.810031138852246 ->E4.98008 ->D0.0 ;  perimeter
G1 X59.809 Y105.635 E3.01533 D0.00000 ; ->L12.600019206334562 ->E3.01533 ->D0.0 ;  perimeter
G1 X80.619 Y105.599 E4.98008 D0.00000 ; ->L20.810031138852246 ->E4.98008 ->D0.0 ;  perimeter
G1 X80.641 Y118.079 E2.98661 D0.00000 ; ->L12.480019391010567 ->E2.98661 ->D0.0 ;  perimeter
G1 X59.030 Y117.836 F12000.000 ; ->21.612366136080524  ;  move to first perimeter point
G1 X59.010 Y106.036 E2.82388 D0.00000 F2100.000 ; ->L11.800016949140367 ->E2.82388 ->D0.0 ;  perimeter
G1 X46.720 Y106.057 E2.94115 D0.00000 ; ->L12.290017941402688 ->E2.94115 ->D0.0 ;  perimeter
G1 X46.718 Y104.857 E0.28718 D0.00000 ; ->L1.200001666665512 ->E0.28718 ->D0.0 ;  perimeter
G1 X81.418 Y104.797 E8.30413 D0.00000 ; ->L34.70005187316008 ->E8.30413 ->D0.0 ;  perimeter
G1 X81.443 Y118.997 E3.39823 D0.00000 ; ->L14.200022007025204 ->E3.39823 ->D0.0 ;  perimeter
G1 X46.743 Y119.057 E8.30413 D0.00000 ; ->L34.70005187316007 ->E8.30413 ->D0.0 ;  perimeter
G1 X46.740 Y117.857 E0.28718 D0.00000 ; ->L1.2000037499941434 ->E0.28718 ->D0.0 ;  perimeter
G1 X58.910 Y117.836 E2.91243 D0.00000 ; ->L12.170018118310255 ->E2.91243 ->D0.0 ;  perimeter
G1 X59.830 Y117.835 F12000.000 ; ->0.9200005434781021  ;  move inwards before travel
G1 X60.410 Y106.194 F12000.000 ; ->11.655439974535486  ;  move to first fill point
G1 X60.370 Y106.234 E0.01354 D0.00000 F2100.000 ; ->L0.05656854249491757 ->E0.01354 ->D0.0 ;  fill
G1 X60.372 Y107.383 E0.27496 D0.00000 ; ->L1.1490017406427209 ->E0.27496 ->D0.0 ;  fill
G1 X61.563 Y106.192 E0.40307 D0.00000 ; ->L1.6843283527863597 ->E0.40307 ->D0.0 ;  fill
G1 X62.716 Y106.190 E0.27592 D0.00000 ; ->L1.153001734604071 ->E0.27592 ->D0.0 ;  fill
G1 X60.374 Y108.532 E0.79260 D0.00000 ; ->L3.312088163077787 ->E0.7926 ->D0.0 ;  fill
G1 X60.376 Y109.681 E0.27496 D0.00000 ; ->L1.1490017406427206 ->E0.27496 ->D0.0 ;  fill
G1 X63.869 Y106.188 E1.18213 D0.00000 ; ->L4.939847973369219 ->E1.18213 ->D0.0 ;  fill
G1 X65.022 Y106.186 E0.27592 D0.00000 ; ->L1.1530017346040782 ->E0.27592 ->D0.0 ;  fill
G1 X60.378 Y110.830 E1.57166 D0.00000 ; ->L6.567607783660651 ->E1.57166 ->D0.0 ;  fill
G1 X60.380 Y111.979 E0.27496 D0.00000 ; ->L1.1490017406427209 ->E0.27496 ->D0.0 ;  fill
G1 X66.175 Y106.184 E1.96119 D0.00000 ; ->L8.195367593952083 ->E1.96119 ->D0.0 ;  fill
G1 X67.328 Y106.182 E0.27592 D0.00000 ; ->L1.1530017346040782 ->E0.27592 ->D0.0 ;  fill
G1 X60.382 Y113.128 E2.35072 D0.00000 ; ->L9.82312740424352 ->E2.35072 ->D0.0 ;  fill
G1 X60.384 Y114.277 E0.27496 D0.00000 ; ->L1.1490017406427209 ->E0.27496 ->D0.0 ;  fill
G1 X68.481 Y106.180 E2.74025 D0.00000 ; ->L11.450887214534943 ->E2.74025 ->D0.0 ;  fill
G1 X69.634 Y106.178 E0.27592 D0.00000 ; ->L1.1530017346040784 ->E0.27592 ->D0.0 ;  fill
G1 X60.386 Y115.425 E3.12978 D0.00000 ; ->L13.077939937161355 ->E3.12978 ->D0.0 ;  fill
G1 X60.388 Y116.574 E0.27496 D0.00000 ; ->L1.1490017406427206 ->E0.27496 ->D0.0 ;  fill
G1 X70.787 Y106.176 E3.51931 D0.00000 ; ->L14.705699745336842 ->E3.51931 ->D0.0 ;  fill
G1 X71.940 Y106.174 E0.27592 D0.00000 ; ->L1.153001734604064 ->E0.27592 ->D0.0 ;  fill
G1 X60.440 Y117.674 E3.89202 D0.00000 ; ->L16.263455967290593 ->E3.89202 ->D0.0 ;  fill
G1 X61.593 Y117.672 E0.27592 D0.00000 ; ->L1.1530017346040784 ->E0.27592 ->D0.0 ;  fill
G1 X73.093 Y106.172 E3.89202 D0.00000 ; ->L16.263455967290593 ->E3.89202 ->D0.0 ;  fill
G1 X74.246 Y106.170 E0.27592 D0.00000 ; ->L1.153001734604064 ->E0.27592 ->D0.0 ;  fill
G1 X62.746 Y117.670 E3.89202 D0.00000 ; ->L16.26345596729059 ->E3.89202 ->D0.0 ;  fill
G1 X63.899 Y117.668 E0.27592 D0.00000 ; ->L1.153001734604071 ->E0.27592 ->D0.0 ;  fill
G1 X75.399 Y106.168 E3.89202 D0.00000 ; ->L16.263455967290593 ->E3.89202 ->D0.0 ;  fill
G1 X76.552 Y106.166 E0.27592 D0.00000 ; ->L1.1530017346040784 ->E0.27592 ->D0.0 ;  fill
G1 X65.052 Y117.666 E3.89202 D0.00000 ; ->L16.263455967290593 ->E3.89202 ->D0.0 ;  fill
G1 X66.205 Y117.664 E0.27592 D0.00000 ; ->L1.153001734604064 ->E0.27592 ->D0.0 ;  fill
G1 X77.705 Y106.164 E3.89202 D0.00000 ; ->L16.263455967290593 ->E3.89202 ->D0.0 ;  fill
G1 X78.858 Y106.162 E0.27592 D0.00000 ; ->L1.1530017346040782 ->E0.27592 ->D0.0 ;  fill
G1 X67.358 Y117.662 E3.89202 D0.00000 ; ->L16.263455967290593 ->E3.89202 ->D0.0 ;  fill
G1 X68.511 Y117.660 E0.27592 D0.00000 ; ->L1.1530017346040642 ->E0.27592 ->D0.0 ;  fill
G1 X80.011 Y106.160 E3.89202 D0.00000 ; ->L16.263455967290593 ->E3.89202 ->D0.0 ;  fill
G1 X80.062 Y107.259 E0.26336 D0.00000 ; ->L1.1001827120983172 ->E0.26336 ->D0.0 ;  fill
G1 X69.664 Y117.658 E3.51931 D0.00000 ; ->L14.705699745336837 ->E3.51931 ->D0.0 ;  fill
G1 X70.816 Y117.656 E0.27592 D0.00000 ; ->L1.1520017361098038 ->E0.27592 ->D0.0 ;  fill
G1 X80.064 Y108.408 E3.12978 D0.00000 ; ->L13.07864702482638 ->E3.12978 ->D0.0 ;  fill
G1 X80.066 Y109.557 E0.27496 D0.00000 ; ->L1.1490017406427209 ->E0.27496 ->D0.0 ;  fill
G1 X71.969 Y117.654 E2.74025 D0.00000 ; ->L11.450887214534953 ->E2.74025 ->D0.0 ;  fill
G1 X73.122 Y117.652 E0.27592 D0.00000 ; ->L1.1530017346040782 ->E0.27592 ->D0.0 ;  fill
G1 X80.068 Y110.706 E2.35072 D0.00000 ; ->L9.823127404243515 ->E2.35072 ->D0.0 ;  fill
G1 X80.070 Y111.855 E0.27496 D0.00000 ; ->L1.1490017406427206 ->E0.27496 ->D0.0 ;  fill
G1 X74.275 Y117.650 E1.96119 D0.00000 ; ->L8.195367593952078 ->E1.96119 ->D0.0 ;  fill
G1 X75.428 Y117.648 E0.27592 D0.00000 ; ->L1.1530017346040642 ->E0.27592 ->D0.0 ;  fill
G1 X80.072 Y113.004 E1.57166 D0.00000 ; ->L6.567607783660651 ->E1.57166 ->D0.0 ;  fill
G1 X80.074 Y114.153 E0.27496 D0.00000 ; ->L1.1490017406427206 ->E0.27496 ->D0.0 ;  fill
G1 X76.581 Y117.646 E1.18213 D0.00000 ; ->L4.939847973369214 ->E1.18213 ->D0.0 ;  fill
G1 X77.734 Y117.644 E0.27592 D0.00000 ; ->L1.153001734604064 ->E0.27592 ->D0.0 ;  fill
G1 X80.076 Y115.302 E0.79260 D0.00000 ; ->L3.312088163077787 ->E0.7926 ->D0.0 ;  fill
G1 X80.078 Y116.451 E0.27496 D0.00000 ; ->L1.1490017406427067 ->E0.27496 ->D0.0 ;  fill
G1 X78.887 Y117.642 E0.40307 D0.00000 ; ->L1.6843283527863597 ->E0.40307 ->D0.0 ;  fill
G1 X78.973 Y117.642 E0.02070 D0.00000 ; ->L0.08650009053489394 ->E0.020699973177909836 ->D0.0 ; retract trigger split segment - before start of nozzle close
G1 X80.040 Y117.640 B0.575 ; ->L1.0665016440691841  ; ->E0.0  ; Ejection volume
G1 X80.080 Y117.600 B0.552 ; ->L0.056568542494922595  ; ->E0.0  ; Ejection volume
G1 X59.409 Y105.435 F12000.000 ; ->23.984942484817424  ;  move to first fill point
G1 X57.649 Y105.439 B0.126 F1200.000 ; ->L1.7600045454486737  ; ->E0.0  ; Ejection volume
G1 X49.014 Y105.453 F12000.000 ; ->8.635011349152933  ;  move to first fill point
G1 X54.765 Y105.444 B0.000 F1200.000 ; ->L0.5190708399873667  ; ->E0.0  ; Ejection volume
G1 X47.119 Y105.457 F1200.000 ; ->1.375933381643818  ; Wipe
G1 E-0.05000 D0.00000 F1200.000 ;  retract
G1 X59.214 Y98.974 F12000.000 ; ->13.722912008753822  ;  move to first perimeter point
G1 B1.0 ; unretract trigger
G1 E0.85000 D0.00000 F1200.000 ;  compensate retraction
G1 X59.192 Y86.374 E3.01533 D0.00000 F2100.000 ; ->L12.600019206334578 ->E3.01533 ->D0.0 ;  perimeter
G1 X80.002 Y86.338 E4.98008 D0.00000 ; ->L20.81003113885224 ->E4.98008 ->D0.0 ;  perimeter
G1 X80.024 Y98.938 E3.01533 D0.00000 ; ->L12.600019206334578 ->E3.01533 ->D0.0 ;  perimeter
G1 X59.334 Y98.974 E4.95137 D0.00000 ; ->L20.690031319454302 ->E4.95137 ->D0.0 ;  perimeter
G1 X58.414 Y98.575 F12000.000 ; ->1.0027965895434647  ;  move to first perimeter point
G1 X58.393 Y86.775 E2.82388 D0.00000 F2100.000 ; ->L11.80001868642588 ->E2.82388 ->D0.0 ;  perimeter
G1 X46.103 Y86.797 E2.94115 D0.00000 ; ->L12.290019690789759 ->E2.94115 ->D0.0 ;  perimeter
G1 X46.101 Y85.597 E0.28717 D0.00000 ; ->L1.2000016666655122 ->E0.28717 ->D0.0 ;  perimeter
G1 X80.801 Y85.537 E8.30413 D0.00000 ; ->L34.70005187316008 ->E8.30413 ->D0.0 ;  perimeter
G1 X80.826 Y99.737 E3.39823 D0.00000 ; ->L14.20002200702519 ->E3.39823 ->D0.0 ;  perimeter
G1 X46.126 Y99.797 E8.30413 D0.00000 ; ->L34.70005187316007 ->E8.30413 ->D0.0 ;  perimeter
G1 X46.124 Y98.597 E0.28718 D0.00000 ; ->L1.200001666665512 ->E0.28718 ->D0.0 ;  perimeter
G1 X58.294 Y98.575 E2.91243 D0.00000 ; ->L12.170019884946774 ->E2.91243 ->D0.0 ;  perimeter
G1 X59.214 Y98.574 F12000.000 ; ->0.9200005434781021  ;  move inwards before travel
G1 X59.793 Y86.933 F12000.000 ; ->11.655390255156615  ;  move to first fill point
G1 X59.753 Y86.973 E0.01354 D0.00000 F2100.000 ; ->L0.05656854249491757 ->E0.01354 ->D0.0 ;  fill
G1 X59.755 Y88.122 E0.27496 D0.00000 ; ->L1.1490017406427209 ->E0.27496 ->D0.0 ;  fill
G1 X60.946 Y86.931 E0.40307 D0.00000 ; ->L1.6843283527863546 ->E0.40307 ->D0.0 ;  fill
G1 X62.099 Y86.929 E0.27592 D0.00000 ; ->L1.153001734604071 ->E0.27592 ->D0.0 ;  fill
G1 X59.757 Y89.271 E0.79260 D0.00000 ; ->L3.312088163077787 ->E0.7926 ->D0.0 ;  fill
G1 X59.759 Y90.420 E0.27496 D0.00000 ; ->L1.1490017406427209 ->E0.27496 ->D0.0 ;  fill
G1 X63.252 Y86.927 E1.18213 D0.00000 ; ->L4.939847973369219 ->E1.18213 ->D0.0 ;  fill
G1 X64.405 Y86.925 E0.27592 D0.00000 ; ->L1.1530017346040713 ->E0.27592 ->D0.0 ;  fill
G1 X59.761 Y91.569 E1.57166 D0.00000 ; ->L6.567607783660656 ->E1.57166 ->D0.0 ;  fill
G1 X59.763 Y92.718 E0.27496 D0.00000 ; ->L1.1490017406427206 ->E0.27496 ->D0.0 ;  fill
G1 X65.558 Y86.923 E1.96119 D0.00000 ; ->L8.195367593952094 ->E1.96119 ->D0.0 ;  fill
G1 X66.711 Y86.921 E0.27592 D0.00000 ; ->L1.153001734604064 ->E0.27592 ->D0.0 ;  fill
G1 X59.765 Y93.867 E2.35072 D0.00000 ; ->L9.823127404243515 ->E2.35072 ->D0.0 ;  fill
G1 X59.767 Y95.016 E0.27496 D0.00000 ; ->L1.1490017406427209 ->E0.27496 ->D0.0 ;  fill
G1 X67.864 Y86.919 E2.74025 D0.00000 ; ->L11.450887214534959 ->E2.74025 ->D0.0 ;  fill
G1 X69.017 Y86.917 E0.27592 D0.00000 ; ->L1.153001734604064 ->E0.27592 ->D0.0 ;  fill
G1 X59.769 Y96.165 E3.12978 D0.00000 ; ->L13.078647024826385 ->E3.12978 ->D0.0 ;  fill
G1 X59.771 Y97.314 E0.27496 D0.00000 ; ->L1.1490017406427067 ->E0.27496 ->D0.0 ;  fill
G1 X70.170 Y86.915 E3.51931 D0.00000 ; ->L14.706406835117807 ->E3.51931 ->D0.0 ;  fill
G1 X71.323 Y86.913 E0.27592 D0.00000 ; ->L1.1530017346040642 ->E0.27592 ->D0.0 ;  fill
G1 X59.823 Y98.413 E3.89202 D0.00000 ; ->L16.26345596729059 ->E3.89202 ->D0.0 ;  fill
G1 X60.976 Y98.411 E0.27592 D0.00000 ; ->L1.153001734604071 ->E0.27592 ->D0.0 ;  fill
G1 X72.476 Y86.911 E3.89202 D0.00000 ; ->L16.263455967290593 ->E3.89202 ->D0.0 ;  fill
G1 X73.629 Y86.909 E0.27592 D0.00000 ; ->L1.1530017346040782 ->E0.27592 ->D0.0 ;  fill
G1 X62.129 Y98.409 E3.89202 D0.00000 ; ->L16.2634559672906 ->E3.89202 ->D0.0 ;  fill
G1 X63.282 Y98.407 E0.27592 D0.00000 ; ->L1.1530017346040713 ->E0.27592 ->D0.0 ;  fill
G1 X74.782 Y86.907 E3.89202 D0.00000 ; ->L16.263455967290593 ->E3.89202 ->D0.0 ;  fill
G1 X75.935 Y86.905 E0.27592 D0.00000 ; ->L1.1530017346040782 ->E0.27592 ->D0.0 ;  fill
G1 X64.435 Y98.405 E3.89202 D0.00000 ; ->L16.263455967290593 ->E3.89202 ->D0.0 ;  fill
G1 X65.588 Y98.403 E0.27592 D0.00000 ; ->L1.153001734604064 ->E0.27592 ->D0.0 ;  fill
G1 X77.088 Y86.903 E3.89202 D0.00000 ; ->L16.263455967290593 ->E3.89202 ->D0.0 ;  fill
G1 X78.241 Y86.901 E0.27592 D0.00000 ; ->L1.1530017346040784 ->E0.27592 ->D0.0 ;  fill
G1 X66.741 Y98.401 E3.89202 D0.00000 ; ->L16.263455967290593 ->E3.89202 ->D0.0 ;  fill
G1 X67.894 Y98.399 E0.27592 D0.00000 ; ->L1.1530017346040782 ->E0.27592 ->D0.0 ;  fill
G1 X79.394 Y86.899 E3.89202 D0.00000 ; ->L16.263455967290593 ->E3.89202 ->D0.0 ;  fill
G1 X79.445 Y87.998 E0.26336 D0.00000 ; ->L1.1001827120983165 ->E0.26336 ->D0.0 ;  fill
G1 X69.047 Y98.397 E3.51931 D0.00000 ; ->L14.705699745336837 ->E3.51931 ->D0.0 ;  fill
G1 X70.200 Y98.395 E0.27592 D0.00000 ; ->L1.1530017346040784 ->E0.27592 ->D0.0 ;  fill
G1 X79.447 Y89.147 E3.12978 D0.00000 ; ->L13.07793993716135 ->E3.12978 ->D0.0 ;  fill
G1 X79.449 Y90.296 E0.27496 D0.00000 ; ->L1.1490017406427206 ->E0.27496 ->D0.0 ;  fill
G1 X71.353 Y98.393 E2.74025 D0.00000 ; ->L11.45018012958748 ->E2.74025 ->D0.0 ;  fill
G1 X72.506 Y98.391 E0.27592 D0.00000 ; ->L1.1530017346040782 ->E0.27592 ->D0.0 ;  fill
G1 X79.451 Y91.445 E2.35072 D0.00000 ; ->L9.822420322914311 ->E2.35072 ->D0.0 ;  fill
G1 X79.453 Y92.594 E0.27496 D0.00000 ; ->L1.1490017406427209 ->E0.27496 ->D0.0 ;  fill
G1 X73.658 Y98.389 E1.96119 D0.00000 ; ->L8.195367593952088 ->E1.96119 ->D0.0 ;  fill
G1 X74.811 Y98.387 E0.27592 D0.00000 ; ->L1.1530017346040782 ->E0.27592 ->D0.0 ;  fill
G1 X79.455 Y93.743 E1.57166 D0.00000 ; ->L6.567607783660651 ->E1.57166 ->D0.0 ;  fill
G1 X79.457 Y94.892 E0.27496 D0.00000 ; ->L1.1490017406427206 ->E0.27496 ->D0.0 ;  fill
G1 X75.964 Y98.385 E1.18213 D0.00000 ; ->L4.939847973369224 ->E1.18213 ->D0.0 ;  fill
G1 X77.117 Y98.383 E0.27592 D0.00000 ; ->L1.1530017346040784 ->E0.27592 ->D0.0 ;  fill
G1 X79.459 Y96.041 E0.79260 D0.00000 ; ->L3.312088163077787 ->E0.7926 ->D0.0 ;  fill
G1 X79.461 Y97.190 E0.27496 D0.00000 ; ->L1.1490017406427206 ->E0.27496 ->D0.0 ;  fill
G1 X78.270 Y98.381 E0.40307 D0.00000 ; ->L1.6843283527863597 ->E0.40307 ->D0.0 ;  fill
G1 X79.423 Y98.379 E0.27592 D0.00000 ; ->L1.1530017346040782 ->E0.27592 ->D0.0 ;  fill
G1 X79.463 Y98.339 E0.01354 D0.00000 ; ->L0.056568542494922595 ->E0.01354 ->D0.0 ;  fill
G1 X58.084 Y99.176 F12000.000 ; ->21.395378239236614  ;  move to first fill point
G1 X66.717 Y98.692 E0.56555 D0.00000 F1200.000 ; ->L3.891410239360357 ->E0.5655499731779099 ->D0.0 ; retract trigger split segment - before start of nozzle close
G1 X53.195 Y99.067 B0.000 F1200.000 ; ->L4.128452563218798  ; ->E0.0  ; Ejection volume
G1 X48.688 Y99.192 F1200.000 ; ->1.3761508202291906  ; Wipe
G1 E-0.05000 D0.00000 F1200.000 ;  retract
G1 X104.579 Y59.858 F12000.000 ; ->68.34447627277568  ;  move to first perimeter point
G1 B1.0 ; unretract trigger
G1 E0.85000 D0.00000 F1200.000 ;  compensate retraction
G1 X110.187 Y50.163 E2.68044 D0.00000 F2100.000 ; ->L11.200120043999531 ->E2.68044 ->D0.0 ;  perimeter
G1 X111.457 Y50.164 E0.30397 D0.00000 ; ->L1.2700003937007223 ->E0.30397 ->D0.0 ;  perimeter
G1 X106.187 Y59.276 E2.51914 D0.00000 ; ->L10.526226484358011 ->E2.51914 ->D0.0 ;  perimeter
G1 X106.179 Y68.643 E2.24174 D0.00000 ; ->L9.367003416247906 ->E2.24174 ->D0.0 ;  perimeter
G1 X111.435 Y77.764 E2.51913 D0.00000 ; ->L10.52702127859538 ->E2.51913 ->D0.0 ;  perimeter
G1 X110.165 Y77.763 E0.30396 D0.00000 ; ->L1.2700003937007223 ->E0.30396 ->D0.0 ;  perimeter
G1 X104.572 Y68.058 E2.68044 D0.00000 ; ->L11.201280016141013 ->E2.68044 ->D0.0 ;  perimeter
G1 X93.079 Y68.049 E2.75037 D0.00000 ; ->L11.493003523883573 ->E2.75037 ->D0.0 ;  perimeter
G1 X93.086 Y59.849 E1.96236 D0.00000 ; ->L8.200002987804345 ->E1.96236 ->D0.0 ;  perimeter
G1 X104.459 Y59.858 E2.72165 D0.00000 ; ->L11.37300356106513 ->E2.72165 ->D0.0 ;  perimeter
G1 X104.118 Y59.058 F12000.000 ; ->0.869644180110464  ;  move to first perimeter point
G1 X109.726 Y49.362 E2.68044 D0.00000 F2100.000 ; ->L11.200985670913074 ->E2.68044 ->D0.0 ;  perimeter
G1 X157.495 Y49.401 E11.43164 D0.00000 ; ->L47.76901592036412 ->E11.43164 ->D0.0 ;  perimeter
G1 X157.493 Y51.601 E0.52649 D0.00000 ; ->L2.200000909090717 ->E0.52649 ->D0.0 ;  perimeter
G1 X111.572 Y51.564 E10.98951 D0.00000 ; ->L45.92101490603185 ->E10.98951 ->D0.0 ;  perimeter
G1 X106.986 Y59.491 E2.19150 D0.00000 ; ->L9.157986951290113 ->E2.1915 ->D0.0 ;  perimeter
G1 X106.979 Y68.429 E2.13914 D0.00000 ; ->L8.938002741104976 ->E2.13914 ->D0.0 ;  perimeter
G1 X111.551 Y76.364 E2.19150 D0.00000 ; ->L9.157915101157036 ->E2.1915 ->D0.0 ;  perimeter
G1 X157.473 Y76.401 E10.98951 D0.00000 ; ->L45.92201490570727 ->E10.98951 ->D0.0 ;  perimeter
G1 X157.471 Y78.601 E0.52649 D0.00000 ; ->L2.2000009090907238 ->E0.52649 ->D0.0 ;  perimeter
G1 X109.702 Y78.562 E11.43164 D0.00000 ; ->L47.76901592036412 ->E11.43164 ->D0.0 ;  perimeter
G1 X104.110 Y68.858 E2.68044 D0.00000 ; ->L11.199914285386289 ->E2.68044 ->D0.0 ;  perimeter
G1 X92.279 Y68.848 E2.83128 D0.00000 ; ->L11.831004226184694 ->E2.83128 ->D0.0 ;  perimeter
G1 X92.287 Y59.048 E2.34526 D0.00000 ; ->L9.800003265305575 ->E2.34526 ->D0.0 ;  perimeter
G1 X103.998 Y59.058 E2.80257 D0.00000 ; ->L11.711004269489443 ->E2.80257 ->D0.0 ;  perimeter
G1 X104.869 Y59.332 F12000.000 ; ->0.9130810478812885  ;  move inwards before travel
G1 X111.746 Y50.464 F12000.000 ; ->11.222056540581141  ;  move to first fill point
G1 X154.337 Y50.945 E14.60514 D0.00000 F1200.000 ; ->L42.99305997603305 ->E14.60513997317791 ->D0.0 ; retract trigger split segment - before start of nozzle close
G1 X156.405 Y50.612 B0.000 F1200.000 ; ->L1.766216349725363  ; ->E0.0  ; Ejection volume
G1 X157.094 Y50.501 F1200.000 ; ->0.5887387686203017  ; Wipe
G1 E-0.05000 D0.00000 F1200.000 ;  retract
G1 X105.619 Y68.243 F12000.000 ; ->54.44680145793689  ;  move to first fill point
G1 B1.0 ; unretract trigger
G1 E0.85000 D0.00000 F1200.000 ;  compensate retraction
G1 X105.571 Y68.291 E0.01633 D0.00000 F2100.000 ; ->L0.06788225099391114 ->E0.01633 ->D0.0 ;  fill
G1 X105.008 Y67.692 E0.19686 D0.00000 ; ->L0.822052309771104 ->E0.19686 ->D0.0 ;  fill
G1 X105.620 Y67.079 E0.20736 D0.00000 ; ->L0.8662060955684914 ->E0.20736 ->D0.0 ;  fill
G1 X105.621 Y65.916 E0.27850 D0.00000 ; ->L1.1630004299225312 ->E0.2785 ->D0.0 ;  fill
G1 X104.039 Y67.498 E0.53547 D0.00000 ; ->L2.2372858556742377 ->E0.53547 ->D0.0 ;  fill
G1 X102.877 Y67.497 E0.27804 D0.00000 ; ->L1.1620004302925253 ->E0.27804 ->D0.0 ;  fill
G1 X105.622 Y64.752 E0.92900 D0.00000 ; ->L3.882016228714152 ->E0.929 ->D0.0 ;  fill
G1 X105.623 Y63.588 E0.27850 D0.00000 ; ->L1.1640004295531796 ->E0.2785 ->D0.0 ;  fill
G1 X101.715 Y67.496 E1.32254 D0.00000 ; ->L5.526746601754052 ->E1.32254 ->D0.0 ;  fill
G1 X100.554 Y67.495 E0.27804 D0.00000 ; ->L1.161000430663143 ->E0.27804 ->D0.0 ;  fill
G1 X105.624 Y62.424 E1.71607 D0.00000 ; ->L7.170769902876537 ->E1.71607 ->D0.0 ;  fill
G1 X105.625 Y61.261 E0.27850 D0.00000 ; ->L1.1630004299225312 ->E0.2785 ->D0.0 ;  fill
G1 X99.392 Y67.494 E2.10961 D0.00000 ; ->L8.814793134271502 ->E2.10961 ->D0.0 ;  fill
G1 X98.230 Y67.493 E0.27804 D0.00000 ; ->L1.1620004302925113 ->E0.27804 ->D0.0 ;  fill
G1 X105.626 Y60.097 E2.50314 D0.00000 ; ->L10.459523507311408 ->E2.50314 ->D0.0 ;  fill
G1 X104.142 Y60.418 E0.36329 D0.00000 ; ->L1.5183204536592483 ->E0.36329 ->D0.0 ;  fill
G1 X97.068 Y67.492 E2.39421 D0.00000 ; ->L10.004146740227277 ->E2.39421 ->D0.0 ;  fill
G1 X95.906 Y67.491 E0.27804 D0.00000 ; ->L1.1620004302925113 ->E0.27804 ->D0.0 ;  fill
G1 X102.980 Y60.417 E2.39421 D0.00000 ; ->L10.004146740227272 ->E2.39421 ->D0.0 ;  fill
G1 X101.819 Y60.416 E0.27804 D0.00000 ; ->L1.161000430663143 ->E0.27804 ->D0.0 ;  fill
G1 X94.744 Y67.490 E2.39420 D0.00000 ; ->L10.004853871996332 ->E2.3942 ->D0.0 ;  fill
G1 X93.640 Y67.432 E0.26465 D0.00000 ; ->L1.1055225009017218 ->E0.26465 ->D0.0 ;  fill
G1 X100.657 Y60.415 E2.37474 D0.00000 ; ->L9.923536567172007 ->E2.37474 ->D0.0 ;  fill
G1 X99.495 Y60.414 E0.27804 D0.00000 ; ->L1.1620004302925113 ->E0.27804 ->D0.0 ;  fill
G1 X93.641 Y66.268 E1.98121 D0.00000 ; ->L8.278806194132097 ->E1.98121 ->D0.0 ;  fill
G1 X93.642 Y65.104 E0.27850 D0.00000 ; ->L1.1640004295531867 ->E0.2785 ->D0.0 ;  fill
G1 X98.333 Y60.413 E1.58767 D0.00000 ; ->L6.634075821092193 ->E1.58767 ->D0.0 ;  fill
G1 X97.171 Y60.412 E0.27804 D0.00000 ; ->L1.1620004302925113 ->E0.27804 ->D0.0 ;  fill
G1 X93.643 Y63.940 E1.19414 D0.00000 ; ->L4.9893454480522825 ->E1.19414 ->D0.0 ;  fill
G1 X93.644 Y62.777 E0.27850 D0.00000 ; ->L1.1630004299225312 ->E0.2785 ->D0.0 ;  fill
G1 X96.009 Y60.411 E0.80061 D0.00000 ; ->L3.3453222565247693 ->E0.80061 ->D0.0 ;  fill
G1 X95.269 Y60.410 E0.17715 D0.00000 ; ->L0.7397180087452075 ->E0.17714997317790981 ->D0.0 ; retract trigger split segment - before start of nozzle close
G1 X94.848 Y60.410 B0.832 ; ->L0.4212824219179354  ; ->E0.0  ; Ejection volume
G1 X93.645 Y61.613 B0.153 ; ->L1.7012989155348375  ; ->E0.0  ; Ejection volume
G1 X93.645 Y61.228 B0.000 ; ->L0.3846843664886309  ; ->E0.0  ; Ejection volume
G1 X93.646 Y60.449 ; ->0.7793160630645558  ; Wipe
G1 X93.686 Y60.409 ; ->0.05656854249492762  ; Wipe
G1 E-0.05000 D0.00000 F1200.000 ;  retract
G1 X112.688 Y77.465 F12000.000 ; ->25.53396052319342  ;  move to first fill point
G1 B1.0 ; unretract trigger
G1 E0.85000 D0.00000 F1200.000 ;  compensate retraction
G1 X157.072 Y77.501 E14.27773 D0.00000 F1200.000 ; ->L42.029070396027315 ->E14.27772997317791 ->D0.0 ; retract trigger split segment - before start of nozzle close
G1 X157.072 Y77.501 B0.000 F1200.000 ; ->L1.7662081638356293  ; ->E0.0  ; Ejection volume
G1 X157.072 Y77.501 F1200.000 ; ->0.5887360399904578  ; Wipe
G1 E-0.05000 D0.00000 F1200.000 ;  retract
G1 X158.772 Y59.210 F12000.000 ; ->18.369830728670316  ;  move to first perimeter point
G1 B1.0 ; unretract trigger
G1 E0.85000 D0.00000 F1200.000 ;  compensate retraction
G1 X164.043 Y50.098 E2.51914 D0.00000 F2100.000 ; ->L10.526727174198076 ->E2.51914 ->D0.0 ;  perimeter
G1 X164.051 Y40.731 E2.24174 D0.00000 ; ->L9.367003416247906 ->E2.24174 ->D0.0 ;  perimeter
G1 X158.795 Y31.610 E2.51913 D0.00000 ; ->L10.527021278595386 ->E2.51913 ->D0.0 ;  perimeter
G1 X160.065 Y31.611 E0.30397 D0.00000 ; ->L1.2700003937007365 ->E0.30397 ->D0.0 ;  perimeter
G1 X165.657 Y41.316 E2.68044 D0.00000 ; ->L11.200780731716883 ->E2.68044 ->D0.0 ;  perimeter
G1 X177.150 Y41.325 E2.75037 D0.00000 ; ->L11.493003523883557 ->E2.75037 ->D0.0 ;  perimeter
G1 X177.143 Y49.525 E1.96236 D0.00000 ; ->L8.200002987804329 ->E1.96236 ->D0.0 ;  perimeter
G1 X165.651 Y49.516 E2.75037 D0.00000 ; ->L11.492003524190192 ->E2.75037 ->D0.0 ;  perimeter
G1 X160.042 Y59.211 E2.68044 D0.00000 ; ->L11.20062078636716 ->E2.68044 ->D0.0 ;  perimeter
G1 X158.892 Y59.210 E0.27525 D0.00000 ; ->L1.150000434782532 ->E0.27525 ->D0.0 ;  perimeter
G1 X158.658 Y57.810 F12000.000 ; ->1.419421008721514  ;  move to first perimeter point
G1 X163.243 Y49.883 E2.19150 D0.00000 F2100.000 ; ->L9.157486227125874 ->E2.1915 ->D0.0 ;  perimeter
G1 X163.247 Y45.296 E1.09778 D0.00000 ; ->L4.58700174405897 ->E1.09778 ->D0.0 ;  perimeter
G1 X163.250 Y40.945 E1.04136 D0.00000 ; ->L4.351001034244877 ->E1.04136 ->D0.0 ;  perimeter
G1 X158.678 Y33.010 E2.19150 D0.00000 ; ->L9.157915101157036 ->E2.1915 ->D0.0 ;  perimeter
G1 X112.757 Y32.973 E10.98951 D0.00000 ; ->L45.92101490603185 ->E10.98951 ->D0.0 ;  perimeter
G1 X112.759 Y30.773 E0.52649 D0.00000 ; ->L2.2000009090907207 ->E0.52649 ->D0.0 ;  perimeter
G1 X160.527 Y30.812 E11.43164 D0.00000 ; ->L47.76801592069739 ->E11.43164 ->D0.0 ;  perimeter
G1 X166.120 Y40.516 E2.68044 D0.00000 ; ->L11.200413608434294 ->E2.68044 ->D0.0 ;  perimeter
G1 X177.951 Y40.526 E2.83129 D0.00000 ; ->L11.831004226184678 ->E2.83129 ->D0.0 ;  perimeter
G1 X177.943 Y50.326 E2.34526 D0.00000 ; ->L9.800003265305575 ->E2.34526 ->D0.0 ;  perimeter
G1 X166.112 Y50.316 E2.83129 D0.00000 ; ->L11.831004226184708 ->E2.83129 ->D0.0 ;  perimeter
G1 X160.504 Y60.012 E2.68044 D0.00000 ; ->L11.200985670913074 ->E2.68044 ->D0.0 ;  perimeter
G1 X112.735 Y59.973 E11.43164 D0.00000 ; ->L47.769015920364104 ->E11.43164 ->D0.0 ;  perimeter
G1 X112.737 Y57.773 E0.52649 D0.00000 ; ->L2.200000909090717 ->E0.52649 ->D0.0 ;  perimeter
G1 X155.195 Y57.807 E10.16079 D0.00000 ; ->L42.458116013116076 ->E10.16078997317791 ->D0.0 ; retract trigger split segment - before start of nozzle close
G1 X157.702 Y57.809 B0.000 ; ->L2.5071742145441096  ; ->E0.0  ; Ejection volume
G1 X158.538 Y57.810 ; ->0.8357247174259244  ; Wipe
G1 X159.409 Y58.084 F12000.000 ; ->0.913081047881275  ;  move inwards before travel
G1 E-0.05000 D0.00000 F1200.000 ;  retract
G1 X157.542 Y31.909 F12000.000 ; ->26.241499842806245  ;  move to first fill point
G1 B1.0 ; unretract trigger
G1 E0.85000 D0.00000 F1200.000 ;  compensate retraction
G1 X113.158 Y31.873 E14.27773 D0.00000 F1200.000 ; ->L42.029070396027315 ->E14.27772997317791 ->D0.0 ; retract trigger split segment - before start of nozzle close
G1 X113.158 Y31.873 B0.000 F1200.000 ; ->L1.7662081638356293  ; ->E0.0  ; Ejection volume
G1 X113.158 Y31.873 F1200.000 ; ->0.5887360399904578  ; Wipe
G1 E-0.05000 D0.00000 F1200.000 ;  retract
G1 X114.024 Y58.874 F12000.000 ; ->27.01488399012663  ;  move to first fill point
G1 B1.0 ; unretract trigger
G1 E0.85000 D0.00000 F1200.000 ;  compensate retraction
G1 X157.522 Y58.910 E13.97676 D0.00000 F1200.000 ; ->L41.14307287445678 ->E13.97675997317791 ->D0.0 ; retract trigger split segment - before start of nozzle close
G1 X157.522 Y58.910 B0.000 F1200.000 ; ->L1.7662065280490404  ; ->E0.0  ; Ejection volume
G1 X157.522 Y58.910 F1200.000 ; ->0.5887354947282766  ; Wipe
G1 E-0.05000 D0.00000 F1200.000 ;  retract
G1 X164.658 Y41.083 F12000.000 ; ->19.202198441845137  ;  move to first fill point
G1 B1.0 ; unretract trigger
G1 E0.85000 D0.00000 F1200.000 ;  compensate retraction
G1 X164.610 Y41.131 E0.01633 D0.00000 F2100.000 ; ->L0.06788225099389104 ->E0.01633 ->D0.0 ;  fill
G1 X164.609 Y42.295 E0.27850 D0.00000 ; ->L1.1640004295531867 ->E0.2785 ->D0.0 ;  fill
G1 X165.222 Y41.682 E0.20736 D0.00000 ; ->L0.8669129137347067 ->E0.20736 ->D0.0 ;  fill
G1 X166.190 Y41.876 E0.23640 D0.00000 ; ->L0.987248702202225 ->E0.2364 ->D0.0 ;  fill
G1 X164.608 Y43.458 E0.53546 D0.00000 ; ->L2.2372858556742323 ->E0.53546 ->D0.0 ;  fill
G1 X164.607 Y44.622 E0.27850 D0.00000 ; ->L1.1640004295531867 ->E0.2785 ->D0.0 ;  fill
G1 X167.352 Y41.877 E0.92900 D0.00000 ; ->L3.8820162287141473 ->E0.929 ->D0.0 ;  fill
G1 X168.514 Y41.878 E0.27804 D0.00000 ; ->L1.1620004302925253 ->E0.27804 ->D0.0 ;  fill
G1 X164.606 Y45.786 E1.32253 D0.00000 ; ->L5.526746601754067 ->E1.32253 ->D0.0 ;  fill
G1 X164.605 Y46.950 E0.27850 D0.00000 ; ->L1.1640004295531867 ->E0.2785 ->D0.0 ;  fill
G1 X169.676 Y41.879 E1.71607 D0.00000 ; ->L7.171476974793967 ->E1.71607 ->D0.0 ;  fill
G1 X170.838 Y41.880 E0.27804 D0.00000 ; ->L1.1620004302925253 ->E0.27804 ->D0.0 ;  fill
G1 X164.604 Y48.113 E2.10960 D0.00000 ; ->L8.81550026941181 ->E2.1096 ->D0.0 ;  fill
G1 X164.604 Y49.277 E0.27850 D0.00000 ; ->L1.1640000000000015 ->E0.2785 ->D0.0 ;  fill
G1 X172.000 Y41.881 E2.50314 D0.00000 ; ->L10.459523507311403 ->E2.50314 ->D0.0 ;  fill
G1 X173.162 Y41.882 E0.27804 D0.00000 ; ->L1.1620004302925253 ->E0.27804 ->D0.0 ;  fill
G1 X166.087 Y48.956 E2.39420 D0.00000 ; ->L10.004853871996348 ->E2.3942 ->D0.0 ;  fill
G1 X167.249 Y48.957 E0.27804 D0.00000 ; ->L1.1620004302925253 ->E0.27804 ->D0.0 ;  fill
G1 X174.323 Y41.883 E2.39420 D0.00000 ; ->L10.004146740227283 ->E2.3942 ->D0.0 ;  fill
G1 X175.485 Y41.884 E0.27804 D0.00000 ; ->L1.1620004302925253 ->E0.27804 ->D0.0 ;  fill
G1 X168.411 Y48.958 E2.39420 D0.00000 ; ->L10.004146740227283 ->E2.3942 ->D0.0 ;  fill
G1 X169.573 Y48.959 E0.27804 D0.00000 ; ->L1.1620004302925253 ->E0.27804 ->D0.0 ;  fill
G1 X176.590 Y41.942 E2.37475 D0.00000 ; ->L9.923536567172007 ->E2.37475 ->D0.0 ;  fill
G1 X176.589 Y43.106 E0.27850 D0.00000 ; ->L1.1640004295531867 ->E0.2785 ->D0.0 ;  fill
G1 X170.735 Y48.960 E1.98121 D0.00000 ; ->L8.278806194132088 ->E1.98121 ->D0.0 ;  fill
G1 X171.896 Y48.961 E0.27804 D0.00000 ; ->L1.1610004306631143 ->E0.27804 ->D0.0 ;  fill
G1 X176.588 Y44.270 E1.58768 D0.00000 ; ->L6.634782965553585 ->E1.58768 ->D0.0 ;  fill
G1 X176.587 Y45.434 E0.27850 D0.00000 ; ->L1.1640004295531796 ->E0.2785 ->D0.0 ;  fill
G1 X173.058 Y48.962 E1.19415 D0.00000 ; ->L4.9900526049331395 ->E1.19415 ->D0.0 ;  fill
G1 X174.220 Y48.963 E0.27804 D0.00000 ; ->L1.1620004302925253 ->E0.27804 ->D0.0 ;  fill
G1 X176.586 Y46.597 E0.80061 D0.00000 ; ->L3.3460292885747522 ->E0.80061 ->D0.0 ;  fill
G1 X176.585 Y47.337 E0.17715 D0.00000 ; ->L0.7404044699261131 ->E0.17714997317790981 ->D0.0 ; retract trigger split segment - before start of nozzle close
G1 X176.585 Y47.761 B0.831 ; ->L0.4235959596270736  ; ->E0.0  ; Ejection volume
G1 X175.382 Y48.964 B0.153 ; ->L1.7012989155348326  ; ->E0.0  ; Ejection volume
G1 X175.765 Y48.964 B0.000 ; ->L0.3827362823448364  ; ->E0.0  ; Ejection volume
G1 X176.544 Y48.965 ; ->0.7792641479476888  ; Wipe
G1 X176.584 Y48.925 ; ->0.056568542494922595  ; Wipe
G1 E-0.05000 D0.00000 F1200.000 ;  retract
G1 X118.689 Y45.316 F12000.000 ; ->58.00737803072986  ;  move to first perimeter point
G1 B1.0 ; unretract trigger
G1 E0.85000 D0.00000 F1200.000 ;  compensate retraction
G1 X107.197 Y45.316 E2.75037 D0.00000 F2100.000 ; ->L11.49199999999999 ->E2.75037 ->D0.0 ;  perimeter
G1 X101.596 Y55.016 E2.68044 D0.00000 ; ->L11.200946433226074 ->E2.68044 ->D0.0 ;  perimeter
G1 X91.589 Y55.015 E2.39477 D0.00000 ; ->L10.00700004996503 ->E2.39477 ->D0.0 ;  perimeter
G1 X91.590 Y27.415 E6.60501 D0.00000 ; ->L27.600000018115942 ->E6.60501 ->D0.0 ;  perimeter
G1 X101.597 Y27.416 E2.39476 D0.00000 ; ->L10.007000049965015 ->E2.39476 ->D0.0 ;  perimeter
G1 X107.197 Y37.116 E2.68044 D0.00000 ; ->L11.200446419674535 ->E2.68044 ->D0.0 ;  perimeter
G1 X118.690 Y37.116 E2.75037 D0.00000 ; ->L11.492999999999995 ->E2.75037 ->D0.0 ;  perimeter
G1 X118.689 Y41.853 E1.13364 D0.00000 ; ->L4.737081904298885 ->E1.1336399731779099 ->D0.0 ; retract trigger split segment - before start of nozzle close
G1 X118.689 Y44.360 B0.000 ; ->L2.5071886337534006  ; ->E0.0  ; Ejection volume
G1 X118.689 Y45.196 ; ->0.8357295238288998  ; Wipe
G1 E-0.05000 D0.00000 F1200.000 ;  retract
G1 X90.789 Y53.615 F12000.000 ; ->29.142572998964926  ;  move to first perimeter point
G1 B1.0 ; unretract trigger
G1 E0.85000 D0.00000 F1200.000 ;  compensate retraction
G1 X90.790 Y28.815 E5.93494 D0.00000 F2100.000 ; ->L24.800000020161292 ->E5.93494 ->D0.0 ;  perimeter
G1 X54.290 Y28.815 E8.73489 D0.00000 ; ->L36.50000000000001 ->E8.73489 ->D0.0 ;  perimeter
G1 X54.290 Y26.615 E0.52649 D0.00000 ; ->L2.200000000000003 ->E0.52649 ->D0.0 ;  perimeter
G1 X102.058 Y26.616 E11.43164 D0.00000 ; ->L47.76800001046726 ->E11.43164 ->D0.0 ;  perimeter
G1 X107.659 Y36.316 E2.68044 D0.00000 ; ->L11.20094643322608 ->E2.68044 ->D0.0 ;  perimeter
G1 X119.490 Y36.316 E2.83129 D0.00000 ; ->L11.830999999999989 ->E2.83129 ->D0.0 ;  perimeter
G1 X119.489 Y46.116 E2.34526 D0.00000 ; ->L9.800000051020405 ->E2.34526 ->D0.0 ;  perimeter
G1 X107.658 Y46.116 E2.83129 D0.00000 ; ->L11.831000000000003 ->E2.83129 ->D0.0 ;  perimeter
G1 X102.058 Y55.816 E2.68044 D0.00000 ; ->L11.20044641967453 ->E2.68044 ->D0.0 ;  perimeter
G1 X54.289 Y55.815 E11.43164 D0.00000 ; ->L47.769000010467046 ->E11.43164 ->D0.0 ;  perimeter
G1 X54.289 Y53.615 E0.52649 D0.00000 ; ->L2.1999999999999957 ->E0.52649 ->D0.0 ;  perimeter
G1 X90.669 Y53.615 E8.70617 D0.00000 ; ->L36.379999999999995 ->E8.70617 ->D0.0 ;  perimeter
G1 X91.589 Y53.615 F12000.000 ; ->0.9200000000000017  ;  move inwards before travel
G1 X91.189 Y54.715 F12000.000 ; ->1.1704699910719658  ;  move to first fill point
G1 X57.866 Y54.642 E11.30882 D0.00000 F1200.000 ; ->L33.2890883772286 ->E11.30881997317791 ->D0.0 ; retract trigger split segment - before start of nozzle close
G1 X56.125 Y54.697 B0.000 F1200.000 ; ->L1.7661837280444497  ; ->E0.0  ; Ejection volume
G1 X55.545 Y54.715 F1200.000 ; ->0.5887278947269334  ; Wipe
G1 E-0.05000 D0.00000 F1200.000 ;  retract
G1 X57.003 Y27.715 F12000.000 ; ->27.039337343951317  ;  move to first fill point
G1 B1.0 ; unretract trigger
G1 E0.85000 D0.00000 F1200.000 ;  compensate retraction
G1 X91.190 Y27.715 E11.61348 D0.00000 F1200.000 ; ->L34.187 ->E11.61348 ->D0.0 ;  fill
G1 X92.190 Y27.975 F12000.000 ; ->1.0332473082471596  ;  move to first fill point
G1 X92.150 Y28.015 E0.01354 D0.00000 F2100.000 ; ->L0.05656854249491757 ->E0.01354 ->D0.0 ;  fill
G1 X92.150 Y29.169 E0.27606 D0.00000 ; ->L1.154 ->E0.27606 ->D0.0 ;  fill
G1 X93.343 Y27.975 E0.40393 D0.00000 ; ->L1.687864034808489 ->E0.40393 ->D0.0 ;  fill
G1 X94.497 Y27.975 E0.27605 D0.00000 ; ->L1.1539999999999964 ->E0.27605 ->D0.0 ;  fill
G1 X92.150 Y30.323 E0.79433 D0.00000 ; ->L3.3198664129750712 ->E0.79433 ->D0.0 ;  fill
G1 X92.150 Y31.476 E0.27606 D0.00000 ; ->L1.1529999999999987 ->E0.27606 ->D0.0 ;  fill
G1 X95.650 Y27.975 E1.18472 D0.00000 ; ->L4.9504546255874295 ->E1.18472 ->D0.0 ;  fill
G1 X96.804 Y27.976 E0.27605 D0.00000 ; ->L1.1540004332754783 ->E0.27605 ->D0.0 ;  fill
G1 X92.150 Y32.630 E1.57512 D0.00000 ; ->L6.581749919284384 ->E1.57512 ->D0.0 ;  fill
G1 X92.150 Y33.783 E0.27606 D0.00000 ; ->L1.1529999999999987 ->E0.27606 ->D0.0 ;  fill
G1 X97.957 Y27.976 E1.96551 D0.00000 ; ->L8.212338156700556 ->E1.96551 ->D0.0 ;  fill
G1 X99.111 Y27.976 E0.27605 D0.00000 ; ->L1.1540000000000106 ->E0.27605 ->D0.0 ;  fill
G1 X92.150 Y34.937 E2.35591 D0.00000 ; ->L9.844340607679111 ->E2.35591 ->D0.0 ;  fill
G1 X92.150 Y36.090 E0.27606 D0.00000 ; ->L1.1530000000000058 ->E0.27606 ->D0.0 ;  fill
G1 X100.264 Y27.976 E2.74630 D0.00000 ; ->L11.47492884509529 ->E2.7463 ->D0.0 ;  fill
G1 X101.326 Y28.067 E0.25508 D0.00000 ; ->L1.0658916455250014 ->E0.25508 ->D0.0 ;  fill
G1 X92.150 Y37.244 E3.10571 D0.00000 ; ->L12.977530774380764 ->E3.10571 ->D0.0 ;  fill
G1 X92.150 Y38.397 E0.27606 D0.00000 ; ->L1.1529999999999987 ->E0.27606 ->D0.0 ;  fill
G1 X101.748 Y28.798 E3.24861 D0.00000 ; ->L13.57432889685527 ->E3.24861 ->D0.0 ;  fill
G1 X102.171 Y29.530 E0.20208 D0.00000 ; ->L0.8454306594866345 ->E0.20208 ->D0.0 ;  fill
G1 X92.150 Y39.551 E3.39150 D0.00000 ; ->L14.171834108540786 ->E3.3915 ->D0.0 ;  fill
G1 X92.149 Y40.704 E0.27606 D0.00000 ; ->L1.1530004336512614 ->E0.27606 ->D0.0 ;  fill
G1 X102.593 Y30.261 E3.53440 D0.00000 ; ->L14.76933935557038 ->E3.5344 ->D0.0 ;  fill
G1 X103.015 Y30.992 E0.20208 D0.00000 ; ->L0.8440645709896843 ->E0.20208 ->D0.0 ;  fill
G1 X92.149 Y41.858 E3.67730 D0.00000 ; ->L15.366844568746048 ->E3.6773 ->D0.0 ;  fill
G1 X92.149 Y43.011 E0.27606 D0.00000 ; ->L1.1530000000000058 ->E0.27606 ->D0.0 ;  fill
G1 X103.437 Y31.724 E3.82019 D0.00000 ; ->L15.96293560094759 ->E3.82019 ->D0.0 ;  fill
G1 X103.859 Y32.455 E0.20208 D0.00000 ; ->L0.8440645709896812 ->E0.20208 ->D0.0 ;  fill
G1 X92.149 Y44.165 E3.96309 D0.00000 ; ->L16.56044081538894 ->E3.96309 ->D0.0 ;  fill
G1 X92.149 Y45.318 E0.27606 D0.00000 ; ->L1.1529999999999987 ->E0.27606 ->D0.0 ;  fill
G1 X104.282 Y33.186 E4.10599 D0.00000 ; ->L17.157946060062077 ->E4.10599 ->D0.0 ;  fill
G1 X104.704 Y33.918 E0.20208 D0.00000 ; ->L0.8449307663944996 ->E0.20208 ->D0.0 ;  fill
G1 X92.149 Y46.472 E4.24889 D0.00000 ; ->L17.754744182893763 ->E4.24889 ->D0.0 ;  fill
G1 X92.149 Y47.626 E0.27606 D0.00000 ; ->L1.1539999999999964 ->E0.27606 ->D0.0 ;  fill
G1 X105.126 Y34.649 E4.39179 D0.00000 ; ->L18.352249398915657 ->E4.39179 ->D0.0 ;  fill
G1 X105.548 Y35.380 E0.20208 D0.00000 ; ->L0.8440645709896843 ->E0.20208 ->D0.0 ;  fill
G1 X92.149 Y48.779 E4.53468 D0.00000 ; ->L18.9490475222371 ->E4.53468 ->D0.0 ;  fill
G1 X92.149 Y49.933 E0.27605 D0.00000 ; ->L1.1539999999999964 ->E0.27605 ->D0.0 ;  fill
G1 X105.970 Y36.112 E4.67758 D0.00000 ; ->L19.545845645558543 ->E4.67758 ->D0.0 ;  fill
G1 X106.393 Y36.843 E0.20208 D0.00000 ; ->L0.8445649767779884 ->E0.20208 ->D0.0 ;  fill
G1 X92.149 Y51.086 E4.82048 D0.00000 ; ->L20.14335088807222 ->E4.82048 ->D0.0 ;  fill
G1 X92.149 Y52.240 E0.27606 D0.00000 ; ->L1.1540000000000035 ->E0.27606 ->D0.0 ;  fill
G1 X106.815 Y37.574 E4.96337 D0.00000 ; ->L20.740856105763815 ->E4.96337 ->D0.0 ;  fill
G1 X107.867 Y37.676 E0.25293 D0.00000 ; ->L1.0569332996930387 ->E0.25293 ->D0.0 ;  fill
G1 X92.149 Y53.393 E5.31943 D0.00000 ; ->L22.227901677846248 ->E5.31943 ->D0.0 ;  fill
G1 X92.241 Y54.455 E0.25514 D0.00000 ; ->L1.0659774856909479 ->E0.25514 ->D0.0 ;  fill
G1 X109.020 Y37.676 E5.67893 D0.00000 ; ->L23.729089363058154 ->E5.67893 ->D0.0 ;  fill
G1 X110.174 Y37.676 E0.27605 D0.00000 ; ->L1.1540000000000106 ->E0.27605 ->D0.0 ;  fill
G1 X93.394 Y54.455 E5.67893 D0.00000 ; ->L23.729796480374624 ->E5.67893 ->D0.0 ;  fill
G1 X94.548 Y54.456 E0.27605 D0.00000 ; ->L1.1540004332754783 ->E0.27605 ->D0.0 ;  fill
G1 X111.327 Y37.676 E5.67893 D0.00000 ; ->L23.729796480374624 ->E5.67893 ->D0.0 ;  fill
G1 X112.481 Y37.676 E0.27605 D0.00000 ; ->L1.1539999999999964 ->E0.27605 ->D0.0 ;  fill
G1 X95.701 Y54.456 E5.67893 D0.00000 ; ->L23.73050357662054 ->E5.67893 ->D0.0 ;  fill
G1 X102.581 Y52.189 F12000.000 ; ->7.243872514063189  ;  move to first fill point
G1 X100.315 Y54.456 E0.76700 D0.00000 F2100.000 ; ->L3.2053151171140786 ->E0.767 ->D0.0 ;  fill
G1 X99.162 Y54.456 E0.27605 D0.00000 ; ->L1.1529999999999916 ->E0.27605 ->D0.0 ;  fill
G1 X104.157 Y49.460 E1.69072 D0.00000 ; ->L7.064703886221978 ->E1.69072 ->D0.0 ;  fill
G1 X105.733 Y46.731 F12000.000 ; ->3.151383347039839  ;  move to first fill point
G1 X98.008 Y54.456 E2.61444 D0.00000 F2100.000 ; ->L10.924799769332166 ->E2.61444 ->D0.0 ;  fill
G1 X96.855 Y54.456 E0.27605 D0.00000 ; ->L1.1529999999999916 ->E0.27605 ->D0.0 ;  fill
G1 X113.634 Y37.676 E5.67893 D0.00000 ; ->L23.729796480374624 ->E5.67893 ->D0.0 ;  fill
G1 X114.788 Y37.676 E0.27605 D0.00000 ; ->L1.1539999999999964 ->E0.27605 ->D0.0 ;  fill
G1 X107.708 Y44.756 E2.39612 D0.00000 ; ->L10.01263202160151 ->E2.39612 ->D0.0 ;  fill
G1 X108.861 Y44.756 E0.27605 D0.00000 ; ->L1.1530000000000058 ->E0.27605 ->D0.0 ;  fill
G1 X115.941 Y37.676 E2.39612 D0.00000 ; ->L10.01263202160151 ->E2.39612 ->D0.0 ;  fill
G1 X117.095 Y37.676 E0.27605 D0.00000 ; ->L1.1539999999999964 ->E0.27605 ->D0.0 ;  fill
G1 X110.015 Y44.756 E2.39612 D0.00000 ; ->L10.01263202160151 ->E2.39612 ->D0.0 ;  fill
G1 X111.168 Y44.756 E0.27605 D0.00000 ; ->L1.1530000000000058 ->E0.27605 ->D0.0 ;  fill
G1 X118.130 Y37.795 E2.35591 D0.00000 ; ->L9.84504773985377 ->E2.35591 ->D0.0 ;  fill
G1 X118.130 Y38.948 E0.27605 D0.00000 ; ->L1.1529999999999987 ->E0.27605 ->D0.0 ;  fill
G1 X112.322 Y44.756 E1.96551 D0.00000 ; ->L8.213752370262931 ->E1.96551 ->D0.0 ;  fill
G1 X113.475 Y44.756 E0.27605 D0.00000 ; ->L1.1529999999999916 ->E0.27605 ->D0.0 ;  fill
G1 X118.130 Y40.102 E1.57512 D0.00000 ; ->L6.582457064045313 ->E1.57512 ->D0.0 ;  fill
G1 X118.130 Y41.255 E0.27605 D0.00000 ; ->L1.1530000000000058 ->E0.27605 ->D0.0 ;  fill
G1 X114.629 Y44.756 E1.18472 D0.00000 ; ->L4.951161681868197 ->E1.18472 ->D0.0 ;  fill
G1 X115.782 Y44.756 E0.27605 D0.00000 ; ->L1.1529999999999916 ->E0.27605 ->D0.0 ;  fill
G1 X118.130 Y42.409 E0.79433 D0.00000 ; ->L3.3198664129750766 ->E0.79433 ->D0.0 ;  fill
G1 X118.129 Y43.117 E0.16958 D0.00000 ; ->L0.7082727762540731 ->E0.16957997317790996 ->D0.0 ; retract trigger split segment - before start of nozzle close
G1 X118.129 Y43.562 B0.823 ; ->L0.4447276573971882  ; ->E0.0  ; Ejection volume
G1 X116.936 Y44.756 B0.149 ; ->L1.6878640348084917  ; ->E0.0  ; Ejection volume
G1 X117.310 Y44.756 B0.000 ; ->L0.3741976691316482  ; ->E0.0  ; Ejection volume
G1 X118.089 Y44.756 ; ->0.7788023308683434  ; Wipe
G1 X118.129 Y44.716 ; ->0.05656854249492762  ; Wipe
G1 E-0.05000 D0.00000 F1200.000 ;  retract
G1 X48.490 Y44.103 F12000.000 ; ->69.64169792588346  ;  move to first perimeter point
G1 B1.0 ; unretract trigger
G1 E0.85000 D0.00000 F1200.000 ;  compensate retraction
G1 X48.489 Y71.703 E6.60501 D0.00000 F2100.000 ; ->L27.600000018115942 ->E6.60501 ->D0.0 ;  perimeter
G1 X38.483 Y71.703 E2.39476 D0.00000 ; ->L10.006 ->E2.39476 ->D0.0 ;  perimeter
G1 X32.882 Y62.003 E2.68044 D0.00000 ; ->L11.20094643322608 ->E2.68044 ->D0.0 ;  perimeter
G1 X21.390 Y62.003 E2.75037 D0.00000 ; ->L11.491999999999997 ->E2.75037 ->D0.0 ;  perimeter
G1 X21.390 Y53.803 E1.96236 D0.00000 ; ->L8.200000000000003 ->E1.96236 ->D0.0 ;  perimeter
G1 X32.883 Y53.803 E2.75037 D0.00000 ; ->L11.493000000000002 ->E2.75037 ->D0.0 ;  perimeter
G1 X38.483 Y44.103 E2.68043 D0.00000 ; ->L11.200446419674524 ->E2.68043 ->D0.0 ;  perimeter
G1 X48.370 Y44.103 E2.36605 D0.00000 ; ->L9.887 ->E2.36605 ->D0.0 ;  perimeter
G1 X49.289 Y70.303 F12000.000 ; ->26.21611262182095  ;  move to first perimeter point
G1 X85.789 Y70.304 E8.73489 D0.00000 F2100.000 ; ->L36.50000001369863 ->E8.73489 ->D0.0 ;  perimeter
G1 X85.789 Y72.504 E0.52649 D0.00000 ; ->L2.200000000000003 ->E0.52649 ->D0.0 ;  perimeter
G1 X38.021 Y72.503 E11.43164 D0.00000 ; ->L47.76800001046726 ->E11.43164 ->D0.0 ;  perimeter
G1 X32.421 Y62.803 E2.68044 D0.00000 ; ->L11.200446419674533 ->E2.68044 ->D0.0 ;  perimeter
G1 X20.590 Y62.803 E2.83128 D0.00000 ; ->L11.831 ->E2.83128 ->D0.0 ;  perimeter
G1 X20.590 Y53.003 E2.34526 D0.00000 ; ->L9.799999999999997 ->E2.34526 ->D0.0 ;  perimeter
G1 X32.421 Y53.003 E2.83129 D0.00000 ; ->L11.831 ->E2.83129 ->D0.0 ;  perimeter
G1 X38.021 Y43.303 E2.68044 D0.00000 ; ->L11.200446419674533 ->E2.68044 ->D0.0 ;  perimeter
G1 X85.790 Y43.304 E11.43164 D0.00000 ; ->L47.769000010467046 ->E11.43164 ->D0.0 ;  perimeter
G1 X85.790 Y45.504 E0.52649 D0.00000 ; ->L2.1999999999999957 ->E0.52649 ->D0.0 ;  perimeter
G1 X49.290 Y45.503 E8.73489 D0.00000 ; ->L36.50000001369864 ->E8.73489 ->D0.0 ;  perimeter
G1 X49.289 Y70.183 E5.90622 D0.00000 ; ->L24.680000020259325 ->E5.90622 ->D0.0 ;  perimeter
G1 X49.289 Y71.103 F12000.000 ; ->0.9199999999999875  ;  move inwards before travel
G1 X48.889 Y71.403 F12000.000 ; ->0.5000000000000057  ;  move to first fill point
G1 X83.076 Y71.404 E11.61348 D0.00000 F1200.000 ; ->L34.18700001462543 ->E11.61348 ->D0.0 ;  fill
G1 X47.929 Y71.103 F12000.000 ; ->35.148288863044236  ;  move to first fill point
G1 X47.889 Y71.143 E0.01354 D0.00000 F2100.000 ; ->L0.05656854249492762 ->E0.01354 ->D0.0 ;  fill
G1 X46.736 Y71.143 E0.27605 D0.00000 ; ->L1.1530000000000058 ->E0.27605 ->D0.0 ;  fill
G1 X47.929 Y69.950 E0.40393 D0.00000 ; ->L1.6871567799111045 ->E0.40393 ->D0.0 ;  fill
G1 X47.929 Y68.796 E0.27606 D0.00000 ; ->L1.1539999999999964 ->E0.27606 ->D0.0 ;  fill
G1 X45.582 Y71.143 E0.79433 D0.00000 ; ->L3.319159230889651 ->E0.79433 ->D0.0 ;  fill
G1 X44.429 Y71.143 E0.27605 D0.00000 ; ->L1.1529999999999987 ->E0.27605 ->D0.0 ;  fill
G1 X47.930 Y67.643 E1.18472 D0.00000 ; ->L4.9504546255874295 ->E1.18472 ->D0.0 ;  fill
G1 X47.930 Y66.489 E0.27606 D0.00000 ; ->L1.1539999999999964 ->E0.27606 ->D0.0 ;  fill
G1 X43.275 Y71.143 E1.57512 D0.00000 ; ->L6.582457064045308 ->E1.57512 ->D0.0 ;  fill
G1 X42.122 Y71.143 E0.27605 D0.00000 ; ->L1.1529999999999987 ->E0.27605 ->D0.0 ;  fill
